( pcb2gcode 1.1.4 )

G94     ( Inches per minute feed rate. )
G20     ( Units == INCHES.             )
G90     ( Absolute coordinates.        )
S30000  ( RPM spindle speed.           )
M3      ( Spindle on clockwise.        )

G64 P0.00500 ( set maximum deviation from commanded toolpath )

G04 P0 ( dwell for no time -- G64 should not smooth over this point )
G00 Z0.08000 ( retract )

G00 X-0.32500 Y1.29000 ( rapid move to begin. )
G01 Z-0.00800 F6.00000 ( plunge. )
G04 P0 ( dwell for no time -- G64 should not smooth over this point )
X-0.32500 Y1.29000
X-0.32500 Y1.20000
X-0.22400 Y1.20000
X-0.22400 Y1.30100
X-0.32500 Y1.30100
X-0.32500 Y1.29000
G04 P0 ( dwell for no time -- G64 should not smooth over this point )
G00 Z0.08000 ( retract )

G00 X-0.32500 Y1.19000 ( rapid move to begin. )
G01 Z-0.00800 F6.00000 ( plunge. )
G04 P0 ( dwell for no time -- G64 should not smooth over this point )
X-0.32500 Y1.19000
X-0.32500 Y1.10000
X-0.22400 Y1.10000
X-0.22400 Y1.20000
X-0.32500 Y1.20000
X-0.32500 Y1.19000
G04 P0 ( dwell for no time -- G64 should not smooth over this point )
G00 Z0.08000 ( retract )

G00 X0.10000 Y1.06500 ( rapid move to begin. )
G01 Z-0.00800 F6.00000 ( plunge. )
G04 P0 ( dwell for no time -- G64 should not smooth over this point )
X0.10000 Y1.06500
X0.10000 Y1.04800
X0.02400 Y1.04800
X0.02400 Y1.05100
X0.02300 Y1.05100
X0.02300 Y1.05400
X0.02200 Y1.05400
X0.02200 Y1.05500
X0.02100 Y1.05500
X0.02100 Y1.05700
X0.02000 Y1.05700
X0.02000 Y1.05900
X0.01900 Y1.05900
X0.01900 Y1.06100
X0.01800 Y1.06100
X0.01800 Y1.06200
X0.01700 Y1.06200
X0.01700 Y1.06300
X0.01600 Y1.06300
X0.01600 Y1.06400
X0.01500 Y1.06400
X0.01500 Y1.06500
X0.01400 Y1.06500
X0.01400 Y1.06600
X0.01300 Y1.06600
X0.01300 Y1.06700
X0.01100 Y1.06700
X0.01100 Y1.06800
X0.00900 Y1.06800
X0.00900 Y1.06900
X0.00800 Y1.06900
X0.00800 Y1.07000
X0.00600 Y1.07000
X0.00600 Y1.07100
X0.00400 Y1.07100
X0.00400 Y1.07200
X0.00200 Y1.07200
X0.00200 Y1.07300
X0.00100 Y1.07300
X0.00100 Y1.07400
X-0.00500 Y1.07400
X-0.00500 Y1.07500
X-0.01100 Y1.07500
X-0.01100 Y1.07600
X-0.03800 Y1.07600
X-0.03800 Y1.07500
X-0.04400 Y1.07500
X-0.04400 Y1.07400
X-0.05000 Y1.07400
X-0.05000 Y1.07300
X-0.05100 Y1.07300
X-0.05100 Y1.07200
X-0.05300 Y1.07200
X-0.05300 Y1.07100
X-0.05500 Y1.07100
X-0.05500 Y1.07000
X-0.05700 Y1.07000
X-0.05700 Y1.06900
X-0.05800 Y1.06900
X-0.05800 Y1.06800
X-0.06000 Y1.06800
X-0.06000 Y1.06700
X-0.06200 Y1.06700
X-0.06200 Y1.06600
X-0.06300 Y1.06600
X-0.06300 Y1.06500
X-0.06400 Y1.06500
X-0.06400 Y1.06400
X-0.06500 Y1.06400
X-0.06500 Y1.06300
X-0.06600 Y1.06300
X-0.06600 Y1.06200
X-0.06700 Y1.06200
X-0.06700 Y1.06100
X-0.06800 Y1.06100
X-0.06800 Y1.05900
X-0.06900 Y1.05900
X-0.06900 Y1.05700
X-0.07000 Y1.05700
X-0.07000 Y1.05500
X-0.07100 Y1.05500
X-0.07100 Y1.05400
X-0.07200 Y1.05400
X-0.07200 Y1.05000
X-0.07300 Y1.05000
X-0.07300 Y1.04700
X-0.07400 Y1.04700
X-0.07400 Y1.04100
X-0.07500 Y1.04100
X-0.07500 Y1.01000
X-0.07400 Y1.01000
X-0.07400 Y1.00400
X-0.07300 Y1.00400
X-0.07300 Y1.00100
X-0.07200 Y1.00100
X-0.07200 Y0.99700
X-0.07100 Y0.99700
X-0.07100 Y0.99600
X-0.07000 Y0.99600
X-0.07000 Y0.99400
X-0.06900 Y0.99400
X-0.06900 Y0.99200
X-0.06800 Y0.99200
X-0.06800 Y0.99100
X-0.06700 Y0.99100
X-0.06700 Y0.98900
X-0.06600 Y0.98900
X-0.06600 Y0.98800
X-0.06500 Y0.98800
X-0.06500 Y0.98700
X-0.06400 Y0.98700
X-0.06400 Y0.98600
X-0.06300 Y0.98600
X-0.06300 Y0.98500
X-0.06200 Y0.98500
X-0.06200 Y0.98400
X-0.06000 Y0.98400
X-0.06000 Y0.98300
X-0.05800 Y0.98300
X-0.05800 Y0.98200
X-0.05700 Y0.98200
X-0.05700 Y0.98100
X-0.05500 Y0.98100
X-0.05500 Y0.98000
X-0.05300 Y0.98000
X-0.05300 Y0.97900
X-0.05100 Y0.97900
X-0.05100 Y0.97800
X-0.05000 Y0.97800
X-0.05000 Y0.97700
X-0.04800 Y0.97700
X-0.04800 Y0.86800
X-0.05000 Y0.86800
X-0.05000 Y0.86700
X-0.05200 Y0.86700
X-0.05200 Y0.86600
X-0.05400 Y0.86600
X-0.05400 Y0.86500
X-0.05500 Y0.86500
X-0.05500 Y0.86400
X-0.05700 Y0.86400
X-0.05700 Y0.86300
X-0.05900 Y0.86300
X-0.05900 Y0.86200
X-0.06000 Y0.86200
X-0.06000 Y0.86100
X-0.06100 Y0.86100
X-0.06100 Y0.86000
X-0.06200 Y0.86000
X-0.06200 Y0.85800
X-0.06300 Y0.85800
X-0.06300 Y0.85700
X-0.06400 Y0.85700
X-0.06400 Y0.85600
X-0.06500 Y0.85600
X-0.06500 Y0.85400
X-0.06600 Y0.85400
X-0.06600 Y0.85200
X-0.06700 Y0.85200
X-0.06700 Y0.85000
X-0.06800 Y0.85000
X-0.06800 Y0.84600
X-0.06900 Y0.84600
X-0.06900 Y0.84100
X-0.07000 Y0.84100
X-0.07000 Y0.81000
X-0.06900 Y0.81000
X-0.06900 Y0.80500
X-0.06800 Y0.80500
X-0.06800 Y0.80100
X-0.06700 Y0.80100
X-0.06700 Y0.79900
X-0.06600 Y0.79900
X-0.06600 Y0.79700
X-0.06500 Y0.79700
X-0.06500 Y0.79500
X-0.06400 Y0.79500
X-0.06400 Y0.79400
X-0.06300 Y0.79400
X-0.06300 Y0.79300
X-0.06200 Y0.79300
X-0.06200 Y0.79100
X-0.06100 Y0.79100
X-0.06100 Y0.79000
X-0.06000 Y0.79000
X-0.06000 Y0.78900
X-0.05900 Y0.78900
X-0.05900 Y0.78800
X-0.05700 Y0.78800
X-0.05700 Y0.78700
X-0.05500 Y0.78700
X-0.05500 Y0.78600
X-0.05400 Y0.78600
X-0.05400 Y0.78500
X-0.05200 Y0.78500
X-0.05200 Y0.78400
X-0.05000 Y0.78400
X-0.05000 Y0.78300
X-0.04800 Y0.78300
X-0.04800 Y0.76300
X-0.04700 Y0.76300
X-0.04700 Y0.76100
X-0.04600 Y0.76100
X-0.04600 Y0.75800
X-0.04500 Y0.75800
X-0.04500 Y0.75600
X-0.04400 Y0.75600
X-0.04400 Y0.75500
X-0.04300 Y0.75500
X-0.04300 Y0.75400
X-0.04200 Y0.75400
X-0.04200 Y0.75300
X-0.04100 Y0.75300
X-0.04100 Y0.75200
X-0.04000 Y0.75200
X-0.04000 Y0.75100
X-0.03900 Y0.75100
X-0.03900 Y0.75000
X-0.03800 Y0.75000
X-0.03800 Y0.74900
X-0.03700 Y0.74900
X-0.03700 Y0.74800
X-0.03600 Y0.74800
X-0.03600 Y0.74700
X-0.03500 Y0.74700
X-0.03500 Y0.74600
X-0.03400 Y0.74600
X-0.03400 Y0.74500
X-0.03300 Y0.74500
X-0.03300 Y0.74400
X-0.03200 Y0.74400
X-0.03200 Y0.74300
X-0.03100 Y0.74300
X-0.03100 Y0.74200
X-0.03000 Y0.74200
X-0.03000 Y0.74100
X-0.02900 Y0.74100
X-0.02900 Y0.74000
X-0.02800 Y0.74000
X-0.02800 Y0.73900
X-0.02700 Y0.73900
X-0.02700 Y0.73800
X-0.02600 Y0.73800
X-0.02600 Y0.73700
X-0.02500 Y0.73700
X-0.02500 Y0.73600
X-0.02400 Y0.73600
X-0.02400 Y0.73500
X-0.02300 Y0.73500
X-0.02300 Y0.73400
X-0.02200 Y0.73400
X-0.02200 Y0.73300
X-0.02100 Y0.73300
X-0.02100 Y0.73200
X-0.02000 Y0.73200
X-0.02000 Y0.73100
X-0.01900 Y0.73100
X-0.01900 Y0.73000
X-0.01800 Y0.73000
X-0.01800 Y0.72900
X-0.01700 Y0.72900
X-0.01700 Y0.72800
X-0.01600 Y0.72800
X-0.01600 Y0.72700
X-0.01500 Y0.72700
X-0.01500 Y0.72600
X-0.01400 Y0.72600
X-0.01400 Y0.72500
X-0.01300 Y0.72500
X-0.01300 Y0.72400
X-0.01200 Y0.72400
X-0.01200 Y0.72300
X-0.01100 Y0.72300
X-0.01100 Y0.72200
X-0.01000 Y0.72200
X-0.01000 Y0.72100
X-0.00900 Y0.72100
X-0.00900 Y0.72000
X-0.00800 Y0.72000
X-0.00800 Y0.71900
X-0.00700 Y0.71900
X-0.00700 Y0.71800
X-0.00600 Y0.71800
X-0.00600 Y0.71700
X-0.00500 Y0.71700
X-0.00500 Y0.71600
X-0.00400 Y0.71600
X-0.00400 Y0.71500
X-0.00300 Y0.71500
X-0.00300 Y0.71400
X-0.00200 Y0.71400
X-0.00200 Y0.71300
X-0.00100 Y0.71300
X-0.00100 Y0.71200
X-0.00000 Y0.71200
X-0.00000 Y0.71100
X0.00100 Y0.71100
X0.00100 Y0.71000
X0.00200 Y0.71000
X0.00200 Y0.70900
X0.00300 Y0.70900
X0.00300 Y0.70800
X0.00400 Y0.70800
X0.00400 Y0.70700
X0.00500 Y0.70700
X0.00500 Y0.70600
X0.00600 Y0.70600
X0.00600 Y0.70500
X0.00700 Y0.70500
X0.00700 Y0.70400
X0.00800 Y0.70400
X0.00800 Y0.70300
X0.00900 Y0.70300
X0.00900 Y0.70200
X0.01000 Y0.70200
X0.01000 Y0.70100
X0.01100 Y0.70100
X0.01100 Y0.70000
X0.01200 Y0.70000
X0.01200 Y0.69900
X0.01300 Y0.69900
X0.01300 Y0.69800
X0.01400 Y0.69800
X0.01400 Y0.69700
X0.01500 Y0.69700
X0.01500 Y0.69600
X0.01600 Y0.69600
X0.01600 Y0.69500
X0.01700 Y0.69500
X0.01700 Y0.69400
X0.01800 Y0.69400
X0.01800 Y0.69300
X0.01900 Y0.69300
X0.01900 Y0.69200
X0.02000 Y0.69200
X0.02000 Y0.69100
X0.02100 Y0.69100
X0.02100 Y0.69000
X0.02200 Y0.69000
X0.02200 Y0.68900
X0.02300 Y0.68900
X0.02300 Y0.68800
X0.02400 Y0.68800
X0.02400 Y0.68700
X0.02500 Y0.68700
X0.02500 Y0.68600
X0.02600 Y0.68600
X0.02600 Y0.68500
X0.02700 Y0.68500
X0.02700 Y0.68400
X0.02800 Y0.68400
X0.02800 Y0.68300
X0.02900 Y0.68300
X0.02900 Y0.68200
X0.03000 Y0.68200
X0.03000 Y0.68100
X0.03100 Y0.68100
X0.03100 Y0.68000
X0.03200 Y0.68000
X0.03200 Y0.67900
X0.03300 Y0.67900
X0.03300 Y0.67800
X0.03400 Y0.67800
X0.03400 Y0.67700
X0.03500 Y0.67700
X0.03500 Y0.67600
X0.03600 Y0.67600
X0.03600 Y0.67500
X0.03600 Y0.67500
X0.03600 Y0.67400
X0.03500 Y0.67400
X0.03500 Y0.67300
X0.03400 Y0.67300
X0.03400 Y0.67200
X0.03300 Y0.67200
X0.03300 Y0.67100
X0.03200 Y0.67100
X0.03200 Y0.67000
X0.03100 Y0.67000
X0.03100 Y0.66900
X0.03000 Y0.66900
X0.03000 Y0.66800
X0.02900 Y0.66800
X0.02900 Y0.66700
X0.02800 Y0.66700
X0.02800 Y0.66600
X0.02700 Y0.66600
X0.02700 Y0.66500
X0.02600 Y0.66500
X0.02600 Y0.66400
X0.02500 Y0.66400
X0.02500 Y0.66300
X0.02400 Y0.66300
X0.02400 Y0.66200
X0.02300 Y0.66200
X0.02300 Y0.66100
X0.02200 Y0.66100
X0.02200 Y0.66000
X0.02100 Y0.66000
X0.02100 Y0.65900
X0.02000 Y0.65900
X0.02000 Y0.65800
X0.01900 Y0.65800
X0.01900 Y0.65700
X0.01800 Y0.65700
X0.01800 Y0.65600
X0.01700 Y0.65600
X0.01700 Y0.65500
X0.01600 Y0.65500
X0.01600 Y0.65400
X0.01500 Y0.65400
X0.01500 Y0.65300
X0.01400 Y0.65300
X0.01400 Y0.65200
X0.01300 Y0.65200
X0.01300 Y0.65100
X0.01200 Y0.65100
X0.01200 Y0.65000
X0.01100 Y0.65000
X0.01100 Y0.64900
X0.01000 Y0.64900
X0.01000 Y0.64800
X0.00900 Y0.64800
X0.00900 Y0.64700
X0.00800 Y0.64700
X0.00800 Y0.64600
X0.00700 Y0.64600
X0.00700 Y0.64400
X0.00600 Y0.64400
X0.00600 Y0.64100
X0.00500 Y0.64100
X0.00500 Y0.63900
X0.00400 Y0.63900
X0.00400 Y0.41100
X0.00500 Y0.41100
X0.00500 Y0.40900
X0.00600 Y0.40900
X0.00600 Y0.40600
X0.00700 Y0.40600
X0.00700 Y0.40400
X0.00800 Y0.40400
X0.00800 Y0.40300
X0.00900 Y0.40300
X0.00900 Y0.40200
X0.01000 Y0.40200
X0.01000 Y0.40100
X0.01100 Y0.40100
X0.01100 Y0.40000
X0.01200 Y0.40000
X0.01200 Y0.39900
X0.01300 Y0.39900
X0.01300 Y0.39800
X0.01400 Y0.39800
X0.01400 Y0.39700
X0.01500 Y0.39700
X0.01500 Y0.39600
X0.01600 Y0.39600
X0.01600 Y0.39500
X0.01700 Y0.39500
X0.01700 Y0.39400
X0.01800 Y0.39400
X0.01800 Y0.39300
X0.01900 Y0.39300
X0.01900 Y0.39200
X0.02000 Y0.39200
X0.02000 Y0.39100
X0.02100 Y0.39100
X0.02100 Y0.39000
X0.02200 Y0.39000
X0.02200 Y0.38900
X0.02300 Y0.38900
X0.02300 Y0.38800
X0.02400 Y0.38800
X0.02400 Y0.38700
X0.02500 Y0.38700
X0.02500 Y0.38600
X0.02600 Y0.38600
X0.02600 Y0.38500
X0.02700 Y0.38500
X0.02700 Y0.38400
X0.02800 Y0.38400
X0.02800 Y0.38300
X0.02900 Y0.38300
X0.02900 Y0.38200
X0.03000 Y0.38200
X0.03000 Y0.38100
X0.03100 Y0.38100
X0.03100 Y0.38000
X0.03200 Y0.38000
X0.03200 Y0.37900
X0.03300 Y0.37900
X0.03300 Y0.37800
X0.03400 Y0.37800
X0.03400 Y0.37700
X0.03500 Y0.37700
X0.03500 Y0.37600
X0.03600 Y0.37600
X0.03600 Y0.37500
X0.03700 Y0.37500
X0.03700 Y0.37400
X0.03800 Y0.37400
X0.03800 Y0.37300
X0.03900 Y0.37300
X0.03900 Y0.37200
X0.04000 Y0.37200
X0.04000 Y0.36200
X0.04100 Y0.36200
X0.04100 Y0.35700
X0.04200 Y0.35700
X0.04200 Y0.35400
X0.04300 Y0.35400
X0.04300 Y0.35200
X0.04400 Y0.35200
X0.04400 Y0.35100
X0.04500 Y0.35100
X0.04500 Y0.34900
X0.04600 Y0.34900
X0.04600 Y0.34800
X0.04700 Y0.34800
X0.04700 Y0.34700
X0.04800 Y0.34700
X0.04800 Y0.34600
X0.04900 Y0.34600
X0.04900 Y0.34500
X0.05100 Y0.34500
X0.05100 Y0.34400
X0.05300 Y0.34400
X0.05300 Y0.34300
X0.05400 Y0.34300
X0.05400 Y0.34200
X0.05600 Y0.34200
X0.05600 Y0.34100
X0.06200 Y0.34100
X0.06200 Y0.34000
X0.07200 Y0.34000
X0.07200 Y0.33900
X0.07300 Y0.33900
X0.07300 Y0.33800
X0.07400 Y0.33800
X0.07400 Y0.33700
X0.07500 Y0.33700
X0.07500 Y0.33600
X0.07600 Y0.33600
X0.07600 Y0.33500
X0.07700 Y0.33500
X0.07700 Y0.33400
X0.07800 Y0.33400
X0.07800 Y0.33300
X0.07900 Y0.33300
X0.07900 Y0.33200
X0.08000 Y0.33200
X0.08000 Y0.33100
X0.08100 Y0.33100
X0.08100 Y0.33000
X0.08200 Y0.33000
X0.08200 Y0.32900
X0.08300 Y0.32900
X0.08300 Y0.32800
X0.08400 Y0.32800
X0.08400 Y0.32700
X0.08500 Y0.32700
X0.08500 Y0.32600
X0.08600 Y0.32600
X0.08600 Y0.32500
X0.08700 Y0.32500
X0.08700 Y0.32400
X0.08800 Y0.32400
X0.08800 Y0.32300
X0.08900 Y0.32300
X0.08900 Y0.32200
X0.09000 Y0.32200
X0.09000 Y0.32100
X0.09100 Y0.32100
X0.09100 Y0.32000
X0.09200 Y0.32000
X0.09200 Y0.31900
X0.09300 Y0.31900
X0.09300 Y0.31800
X0.09400 Y0.31800
X0.09400 Y0.31700
X0.09500 Y0.31700
X0.09500 Y0.31600
X0.09600 Y0.31600
X0.09600 Y0.31500
X0.09700 Y0.31500
X0.09700 Y0.31400
X0.09800 Y0.31400
X0.09800 Y0.31300
X0.09900 Y0.31300
X0.09900 Y0.31200
X0.10000 Y0.31200
X0.10000 Y0.31100
X0.10100 Y0.31100
X0.10100 Y0.31000
X0.10200 Y0.31000
X0.10200 Y0.30900
X0.10300 Y0.30900
X0.10300 Y0.30800
X0.10400 Y0.30800
X0.10400 Y0.30700
X0.10500 Y0.30700
X0.10500 Y0.30600
X0.10600 Y0.30600
X0.10600 Y0.30500
X0.10700 Y0.30500
X0.10700 Y0.30400
X0.10800 Y0.30400
X0.10800 Y0.30300
X0.10900 Y0.30300
X0.10900 Y0.30200
X0.11000 Y0.30200
X0.11000 Y0.30100
X0.11100 Y0.30100
X0.11100 Y0.30000
X0.11200 Y0.30000
X0.11200 Y0.29900
X0.11300 Y0.29900
X0.11300 Y0.29800
X0.11400 Y0.29800
X0.11400 Y0.29700
X0.11500 Y0.29700
X0.11500 Y0.29600
X0.11600 Y0.29600
X0.11600 Y0.29500
X0.11700 Y0.29500
X0.11700 Y0.29400
X0.11800 Y0.29400
X0.11800 Y0.29300
X0.11900 Y0.29300
X0.11900 Y0.29200
X0.12000 Y0.29200
X0.12000 Y0.29100
X0.12100 Y0.29100
X0.12100 Y0.29000
X0.12200 Y0.29000
X0.12200 Y0.28900
X0.12300 Y0.28900
X0.12300 Y0.28800
X0.12400 Y0.28800
X0.12400 Y0.28700
X0.12500 Y0.28700
X0.12500 Y0.28600
X0.12600 Y0.28600
X0.12600 Y0.28500
X0.12700 Y0.28500
X0.12700 Y0.28400
X0.12800 Y0.28400
X0.12800 Y0.28300
X0.12900 Y0.28300
X0.12900 Y0.28200
X0.13000 Y0.28200
X0.13000 Y0.28100
X0.13100 Y0.28100
X0.13100 Y0.28000
X0.13200 Y0.28000
X0.13200 Y0.27900
X0.13300 Y0.27900
X0.13300 Y0.27800
X0.13400 Y0.27800
X0.13400 Y0.27700
X0.13500 Y0.27700
X0.13500 Y0.27600
X0.13600 Y0.27600
X0.13600 Y0.27500
X0.13700 Y0.27500
X0.13700 Y0.27400
X0.13800 Y0.27400
X0.13800 Y0.27300
X0.13900 Y0.27300
X0.13900 Y0.27200
X0.14000 Y0.27200
X0.14000 Y0.27100
X0.14100 Y0.27100
X0.14100 Y0.27000
X0.14200 Y0.27000
X0.14200 Y0.26900
X0.14300 Y0.26900
X0.14300 Y0.26800
X0.14400 Y0.26800
X0.14400 Y0.26700
X0.14500 Y0.26700
X0.14500 Y0.26600
X0.14600 Y0.26600
X0.14600 Y0.26500
X0.14700 Y0.26500
X0.14700 Y0.26400
X0.14800 Y0.26400
X0.14800 Y0.26300
X0.14900 Y0.26300
X0.14900 Y0.26200
X0.15000 Y0.26200
X0.15000 Y0.26100
X0.15100 Y0.26100
X0.15100 Y0.26000
X0.15200 Y0.26000
X0.15200 Y0.25900
X0.15300 Y0.25900
X0.15300 Y0.25800
X0.15400 Y0.25800
X0.15400 Y0.25700
X0.15500 Y0.25700
X0.15500 Y0.25600
X0.15600 Y0.25600
X0.15600 Y0.25500
X0.15700 Y0.25500
X0.15700 Y0.25400
X0.15800 Y0.25400
X0.15800 Y0.25300
X0.15900 Y0.25300
X0.15900 Y0.25200
X0.16000 Y0.25200
X0.16000 Y0.25100
X0.16100 Y0.25100
X0.16100 Y0.25000
X0.16200 Y0.25000
X0.16200 Y0.24900
X0.16300 Y0.24900
X0.16300 Y0.24800
X0.16400 Y0.24800
X0.16400 Y0.24700
X0.16500 Y0.24700
X0.16500 Y0.24600
X0.16600 Y0.24600
X0.16600 Y0.24500
X0.16700 Y0.24500
X0.16700 Y0.24400
X0.16800 Y0.24400
X0.16800 Y0.24300
X0.16900 Y0.24300
X0.16900 Y0.24200
X0.17000 Y0.24200
X0.17000 Y0.24100
X0.17100 Y0.24100
X0.17100 Y0.24000
X0.17200 Y0.24000
X0.17200 Y0.23900
X0.17300 Y0.23900
X0.17300 Y0.23800
X0.17400 Y0.23800
X0.17400 Y0.23700
X0.17500 Y0.23700
X0.17500 Y0.23600
X0.17600 Y0.23600
X0.17600 Y0.23500
X0.17700 Y0.23500
X0.17700 Y-0.38200
X0.17500 Y-0.38200
X0.17500 Y-0.38300
X0.17300 Y-0.38300
X0.17300 Y-0.38400
X0.17100 Y-0.38400
X0.17100 Y-0.38500
X0.17000 Y-0.38500
X0.17000 Y-0.38600
X0.16800 Y-0.38600
X0.16800 Y-0.38700
X0.16600 Y-0.38700
X0.16600 Y-0.38800
X0.16500 Y-0.38800
X0.16500 Y-0.38900
X0.16400 Y-0.38900
X0.16400 Y-0.39000
X0.16300 Y-0.39000
X0.16300 Y-0.39200
X0.16200 Y-0.39200
X0.16200 Y-0.39300
X0.16100 Y-0.39300
X0.16100 Y-0.39400
X0.16000 Y-0.39400
X0.16000 Y-0.39600
X0.15900 Y-0.39600
X0.15900 Y-0.39800
X0.15800 Y-0.39800
X0.15800 Y-0.40000
X0.15700 Y-0.40000
X0.15700 Y-0.40200
X0.11300 Y-0.40200
X0.11300 Y-0.40300
X0.11100 Y-0.40300
X0.11100 Y-0.40400
X0.10800 Y-0.40400
X0.10800 Y-0.40500
X0.10600 Y-0.40500
X0.10600 Y-0.40600
X0.10500 Y-0.40600
X0.10500 Y-0.40700
X0.10400 Y-0.40700
X0.10400 Y-0.40800
X0.10300 Y-0.40800
X0.10300 Y-0.40900
X0.10200 Y-0.40900
X0.10200 Y-0.41000
X0.10100 Y-0.41000
X0.10100 Y-0.41100
X0.10000 Y-0.41100
X0.10000 Y-0.41200
X0.09900 Y-0.41200
X0.09900 Y-0.41300
X0.09800 Y-0.41300
X0.09800 Y-0.41400
X0.09700 Y-0.41400
X0.09700 Y-0.41500
X0.09600 Y-0.41500
X0.09600 Y-0.41600
X0.09500 Y-0.41600
X0.09500 Y-0.41700
X0.09400 Y-0.41700
X0.09400 Y-0.41800
X0.09300 Y-0.41800
X0.09300 Y-0.41900
X0.09200 Y-0.41900
X0.09200 Y-0.42000
X0.09100 Y-0.42000
X0.09100 Y-0.42100
X0.09000 Y-0.42100
X0.09000 Y-0.42200
X0.08900 Y-0.42200
X0.08900 Y-0.42300
X0.08800 Y-0.42300
X0.08800 Y-0.42400
X0.08700 Y-0.42400
X0.08700 Y-0.42500
X0.08600 Y-0.42500
X0.08600 Y-0.42600
X0.08500 Y-0.42600
X0.08500 Y-0.42700
X0.08400 Y-0.42700
X0.08400 Y-0.42800
X0.08300 Y-0.42800
X0.08300 Y-0.42900
X0.08200 Y-0.42900
X0.08200 Y-0.43000
X0.08100 Y-0.43000
X0.08100 Y-0.43100
X0.08000 Y-0.43100
X0.08000 Y-0.43200
X0.07900 Y-0.43200
X0.07900 Y-0.43300
X0.07800 Y-0.43300
X0.07800 Y-0.43400
X0.07700 Y-0.43400
X0.07700 Y-0.43500
X0.07600 Y-0.43500
X0.07600 Y-0.43600
X0.07500 Y-0.43600
X0.07500 Y-0.43700
X0.07400 Y-0.43700
X0.07400 Y-0.43800
X0.07300 Y-0.43800
X0.07300 Y-0.43900
X0.07200 Y-0.43900
X0.07200 Y-0.44000
X0.07100 Y-0.44000
X0.07100 Y-0.44100
X0.07000 Y-0.44100
X0.07000 Y-0.44200
X0.06900 Y-0.44200
X0.06900 Y-0.44300
X0.06800 Y-0.44300
X0.06800 Y-0.44400
X0.06700 Y-0.44400
X0.06700 Y-0.44500
X0.06600 Y-0.44500
X0.06600 Y-0.44600
X0.06500 Y-0.44600
X0.06500 Y-0.44700
X0.06400 Y-0.44700
X0.06400 Y-0.44800
X0.06300 Y-0.44800
X0.06300 Y-0.44900
X0.06200 Y-0.44900
X0.06200 Y-0.45000
X0.06100 Y-0.45000
X0.06100 Y-0.45100
X0.06000 Y-0.45100
X0.06000 Y-0.45200
X0.05900 Y-0.45200
X0.05900 Y-0.45300
X0.05800 Y-0.45300
X0.05800 Y-0.45400
X0.05700 Y-0.45400
X0.05700 Y-0.45500
X0.05600 Y-0.45500
X0.05600 Y-0.45600
X0.05500 Y-0.45600
X0.05500 Y-0.45700
X0.05400 Y-0.45700
X0.05400 Y-0.45800
X0.05300 Y-0.45800
X0.05300 Y-0.45900
X0.05200 Y-0.45900
X0.05200 Y-0.46000
X0.05100 Y-0.46000
X0.05100 Y-0.46100
X0.05000 Y-0.46100
X0.05000 Y-0.46200
X0.04900 Y-0.46200
X0.04900 Y-0.46300
X0.04800 Y-0.46300
X0.04800 Y-0.46400
X0.04700 Y-0.46400
X0.04700 Y-0.46500
X0.04600 Y-0.46500
X0.04600 Y-0.46600
X0.04500 Y-0.46600
X0.04500 Y-0.46700
X0.04400 Y-0.46700
X0.04400 Y-0.46800
X0.04300 Y-0.46800
X0.04300 Y-0.46900
X0.04200 Y-0.46900
X0.04200 Y-0.47000
X0.04100 Y-0.47000
X0.04100 Y-0.47100
X0.04000 Y-0.47100
X0.04000 Y-0.47200
X0.03900 Y-0.47200
X0.03900 Y-0.47300
X0.03800 Y-0.47300
X0.03800 Y-0.47400
X0.03700 Y-0.47400
X0.03700 Y-0.47500
X0.03600 Y-0.47500
X0.03600 Y-0.47600
X0.03500 Y-0.47600
X0.03500 Y-0.47700
X0.03400 Y-0.47700
X0.03400 Y-0.47800
X0.03300 Y-0.47800
X0.03300 Y-0.47900
X0.03200 Y-0.47900
X0.03200 Y-0.48000
X0.03100 Y-0.48000
X0.03100 Y-0.48100
X0.03000 Y-0.48100
X0.03000 Y-0.48200
X0.02900 Y-0.48200
X0.02900 Y-0.48300
X0.02800 Y-0.48300
X0.02800 Y-0.48400
X0.02700 Y-0.48400
X0.02700 Y-0.48500
X0.02600 Y-0.48500
X0.02600 Y-0.48600
X0.02500 Y-0.48600
X0.02500 Y-0.48700
X0.02400 Y-0.48700
X0.02400 Y-0.48800
X0.02300 Y-0.48800
X0.02300 Y-0.48900
X0.02200 Y-0.48900
X0.02200 Y-0.49000
X0.02100 Y-0.49000
X0.02100 Y-0.49100
X0.02000 Y-0.49100
X0.02000 Y-0.49200
X0.01900 Y-0.49200
X0.01900 Y-0.49300
X0.01800 Y-0.49300
X0.01800 Y-0.49400
X0.01700 Y-0.49400
X0.01700 Y-0.49500
X0.01600 Y-0.49500
X0.01600 Y-0.49600
X0.01500 Y-0.49600
X0.01500 Y-0.49700
X0.01400 Y-0.49700
X0.01400 Y-0.49800
X0.01300 Y-0.49800
X0.01300 Y-0.49900
X0.01200 Y-0.49900
X0.01200 Y-0.50000
X0.01100 Y-0.50000
X0.01100 Y-0.50100
X0.01000 Y-0.50100
X0.01000 Y-0.50200
X0.00900 Y-0.50200
X0.00900 Y-0.50300
X0.00800 Y-0.50300
X0.00800 Y-0.50400
X0.00700 Y-0.50400
X0.00700 Y-0.50500
X0.00600 Y-0.50500
X0.00600 Y-0.50600
X0.00500 Y-0.50600
X0.00500 Y-0.50700
X0.00400 Y-0.50700
X0.00400 Y-0.50800
X0.00300 Y-0.50800
X0.00300 Y-0.50900
X0.00200 Y-0.50900
X0.00200 Y-0.51000
X0.00100 Y-0.51000
X0.00100 Y-0.51100
X-0.00000 Y-0.51100
X-0.00000 Y-0.51200
X-0.00100 Y-0.51200
X-0.00100 Y-0.51300
X-0.00200 Y-0.51300
X-0.00200 Y-0.51400
X-0.00300 Y-0.51400
X-0.00300 Y-0.51500
X-0.00400 Y-0.51500
X-0.00400 Y-0.51600
X-0.00500 Y-0.51600
X-0.00500 Y-0.51700
X-0.00600 Y-0.51700
X-0.00600 Y-0.51800
X-0.00700 Y-0.51800
X-0.00700 Y-0.51900
X-0.00800 Y-0.51900
X-0.00800 Y-0.52000
X-0.00900 Y-0.52000
X-0.00900 Y-0.52100
X-0.01000 Y-0.52100
X-0.01000 Y-0.52200
X-0.01100 Y-0.52200
X-0.01100 Y-0.52300
X-0.01200 Y-0.52300
X-0.01200 Y-0.52400
X-0.01300 Y-0.52400
X-0.01300 Y-0.52500
X-0.01400 Y-0.52500
X-0.01400 Y-0.52600
X-0.01500 Y-0.52600
X-0.01500 Y-0.52700
X-0.01600 Y-0.52700
X-0.01600 Y-0.52800
X-0.01700 Y-0.52800
X-0.01700 Y-0.52900
X-0.03800 Y-0.52900
X-0.03800 Y-0.53000
X-0.04400 Y-0.53000
X-0.04400 Y-0.53100
X-0.04800 Y-0.53100
X-0.04800 Y-0.53200
X-0.05000 Y-0.53200
X-0.05000 Y-0.53300
X-0.05200 Y-0.53300
X-0.05200 Y-0.53400
X-0.05400 Y-0.53400
X-0.05400 Y-0.53500
X-0.05500 Y-0.53500
X-0.05500 Y-0.53600
X-0.05700 Y-0.53600
X-0.05700 Y-0.53700
X-0.05900 Y-0.53700
X-0.05900 Y-0.53800
X-0.06000 Y-0.53800
X-0.06000 Y-0.53900
X-0.06100 Y-0.53900
X-0.06100 Y-0.54000
X-0.06200 Y-0.54000
X-0.06200 Y-0.54200
X-0.06300 Y-0.54200
X-0.06300 Y-0.54300
X-0.06400 Y-0.54300
X-0.06400 Y-0.54400
X-0.06500 Y-0.54400
X-0.06500 Y-0.54600
X-0.06600 Y-0.54600
X-0.06600 Y-0.54800
X-0.06700 Y-0.54800
X-0.06700 Y-0.55000
X-0.06800 Y-0.55000
X-0.06800 Y-0.55400
X-0.06900 Y-0.55400
X-0.06900 Y-0.55900
X-0.07000 Y-0.55900
X-0.07000 Y-0.59000
X-0.06900 Y-0.59000
X-0.06900 Y-0.59500
X-0.06800 Y-0.59500
X-0.06800 Y-0.59900
X-0.06700 Y-0.59900
X-0.06700 Y-0.60100
X-0.06600 Y-0.60100
X-0.06600 Y-0.60300
X-0.06500 Y-0.60300
X-0.06500 Y-0.60500
X-0.06400 Y-0.60500
X-0.06400 Y-0.60600
X-0.06300 Y-0.60600
X-0.06300 Y-0.60700
X-0.06200 Y-0.60700
X-0.06200 Y-0.60900
X-0.06100 Y-0.60900
X-0.06100 Y-0.61000
X-0.06000 Y-0.61000
X-0.06000 Y-0.61100
X-0.05900 Y-0.61100
X-0.05900 Y-0.61200
X-0.05700 Y-0.61200
X-0.05700 Y-0.61300
X-0.05500 Y-0.61300
X-0.05500 Y-0.61400
X-0.05400 Y-0.61400
X-0.05400 Y-0.61500
X-0.05200 Y-0.61500
X-0.05200 Y-0.61600
X-0.05000 Y-0.61600
X-0.05000 Y-0.61700
X-0.04800 Y-0.61700
X-0.04800 Y-0.68500
X-0.04900 Y-0.68500
X-0.04900 Y-0.68600
X-0.05000 Y-0.68600
X-0.05000 Y-0.68700
X-0.05100 Y-0.68700
X-0.05100 Y-0.68800
X-0.05200 Y-0.68800
X-0.05200 Y-0.68900
X-0.05300 Y-0.68900
X-0.05300 Y-0.69000
X-0.05400 Y-0.69000
X-0.05400 Y-0.69100
X-0.05500 Y-0.69100
X-0.05500 Y-0.69200
X-0.05600 Y-0.69200
X-0.05600 Y-0.69300
X-0.05700 Y-0.69300
X-0.05700 Y-0.69400
X-0.05800 Y-0.69400
X-0.05800 Y-0.69500
X-0.05900 Y-0.69500
X-0.05900 Y-0.69600
X-0.06000 Y-0.69600
X-0.06000 Y-0.69700
X-0.06100 Y-0.69700
X-0.06100 Y-0.69800
X-0.06200 Y-0.69800
X-0.06200 Y-0.69900
X-0.06300 Y-0.69900
X-0.06300 Y-0.70000
X-0.06400 Y-0.70000
X-0.06400 Y-0.70100
X-0.06500 Y-0.70100
X-0.06500 Y-0.70200
X-0.06600 Y-0.70200
X-0.06600 Y-0.70300
X-0.06700 Y-0.70300
X-0.06700 Y-0.70400
X-0.06800 Y-0.70400
X-0.06800 Y-0.70500
X-0.06900 Y-0.70500
X-0.06900 Y-0.70600
X-0.07000 Y-0.70600
X-0.07000 Y-0.70700
X-0.07100 Y-0.70700
X-0.07100 Y-0.70800
X-0.07200 Y-0.70800
X-0.07200 Y-0.70900
X-0.07300 Y-0.70900
X-0.07300 Y-0.71000
X-0.07400 Y-0.71000
X-0.07400 Y-0.71100
X-0.07500 Y-0.71100
X-0.07500 Y-0.71200
X-0.07600 Y-0.71200
X-0.07600 Y-0.71300
X-0.07700 Y-0.71300
X-0.07700 Y-0.71400
X-0.07800 Y-0.71400
X-0.07800 Y-0.71500
X-0.07900 Y-0.71500
X-0.07900 Y-0.71600
X-0.08000 Y-0.71600
X-0.08000 Y-0.71700
X-0.08100 Y-0.71700
X-0.08100 Y-0.71800
X-0.08200 Y-0.71800
X-0.08200 Y-0.71900
X-0.08300 Y-0.71900
X-0.08300 Y-0.72000
X-0.08400 Y-0.72000
X-0.08400 Y-0.72100
X-0.08500 Y-0.72100
X-0.08500 Y-0.72200
X-0.08600 Y-0.72200
X-0.08600 Y-0.72300
X-0.08700 Y-0.72300
X-0.08700 Y-0.72400
X-0.08800 Y-0.72400
X-0.08800 Y-0.72500
X-0.08900 Y-0.72500
X-0.08900 Y-0.72600
X-0.09000 Y-0.72600
X-0.09000 Y-0.72700
X-0.09100 Y-0.72700
X-0.09100 Y-0.72800
X-0.09200 Y-0.72800
X-0.09200 Y-0.72900
X-0.09300 Y-0.72900
X-0.09300 Y-0.73000
X-0.09400 Y-0.73000
X-0.09400 Y-0.73100
X-0.09500 Y-0.73100
X-0.09500 Y-0.73200
X-0.09600 Y-0.73200
X-0.09600 Y-0.73300
X-0.09700 Y-0.73300
X-0.09700 Y-0.73400
X-0.09800 Y-0.73400
X-0.09800 Y-0.73500
X-0.09900 Y-0.73500
X-0.09900 Y-0.73600
X-0.10000 Y-0.73600
X-0.10000 Y-0.73700
X-0.10100 Y-0.73700
X-0.10100 Y-0.73800
X-0.10200 Y-0.73800
X-0.10200 Y-0.73900
X-0.10300 Y-0.73900
X-0.10300 Y-0.74000
X-0.10400 Y-0.74000
X-0.10400 Y-0.74100
X-0.10500 Y-0.74100
X-0.10500 Y-0.74200
X-0.10600 Y-0.74200
X-0.10600 Y-0.74300
X-0.10700 Y-0.74300
X-0.10700 Y-0.74400
X-0.10800 Y-0.74400
X-0.10800 Y-0.74500
X-0.10900 Y-0.74500
X-0.10900 Y-0.74600
X-0.11000 Y-0.74600
X-0.11000 Y-0.74700
X-0.11100 Y-0.74700
X-0.11100 Y-0.74800
X-0.11200 Y-0.74800
X-0.11200 Y-0.74900
X-0.11300 Y-0.74900
X-0.11300 Y-0.75000
X-0.11400 Y-0.75000
X-0.11400 Y-0.75100
X-0.11500 Y-0.75100
X-0.11500 Y-0.75200
X-0.11600 Y-0.75200
X-0.11600 Y-0.75300
X-0.11700 Y-0.75300
X-0.11700 Y-0.75400
X-0.11800 Y-0.75400
X-0.11800 Y-0.75500
X-0.11900 Y-0.75500
X-0.11900 Y-0.75600
X-0.12000 Y-0.75600
X-0.12000 Y-0.75700
X-0.12100 Y-0.75700
X-0.12100 Y-0.75800
X-0.12200 Y-0.75800
X-0.12200 Y-0.75900
X-0.12300 Y-0.75900
X-0.12300 Y-0.76000
X-0.12400 Y-0.76000
X-0.12400 Y-0.76100
X-0.12500 Y-0.76100
X-0.12500 Y-0.76200
X-0.12600 Y-0.76200
X-0.12600 Y-0.76300
X-0.12700 Y-0.76300
X-0.12700 Y-0.76400
X-0.12800 Y-0.76400
X-0.12800 Y-0.76500
X-0.12900 Y-0.76500
X-0.12900 Y-0.76600
X-0.13000 Y-0.76600
X-0.13000 Y-0.76700
X-0.13100 Y-0.76700
X-0.13100 Y-0.76800
X-0.13200 Y-0.76800
X-0.13200 Y-0.76900
X-0.13300 Y-0.76900
X-0.13300 Y-0.77000
X-0.13400 Y-0.77000
X-0.13400 Y-0.77100
X-0.13500 Y-0.77100
X-0.13500 Y-0.77200
X-0.13600 Y-0.77200
X-0.13600 Y-0.77300
X-0.13700 Y-0.77300
X-0.13700 Y-0.77400
X-0.13800 Y-0.77400
X-0.13800 Y-0.77500
X-0.13900 Y-0.77500
X-0.13900 Y-0.77600
X-0.14000 Y-0.77600
X-0.14000 Y-0.77700
X-0.14100 Y-0.77700
X-0.14100 Y-0.77800
X-0.14200 Y-0.77800
X-0.14200 Y-0.77900
X-0.14300 Y-0.77900
X-0.14300 Y-0.78000
X-0.14400 Y-0.78000
X-0.14400 Y-0.78100
X-0.14500 Y-0.78100
X-0.14500 Y-0.78200
X-0.14600 Y-0.78200
X-0.14600 Y-0.78300
X-0.14700 Y-0.78300
X-0.14700 Y-0.78400
X-0.14800 Y-0.78400
X-0.14800 Y-0.78500
X-0.14900 Y-0.78500
X-0.14900 Y-0.78600
X-0.15000 Y-0.78600
X-0.15000 Y-0.78700
X-0.15100 Y-0.78700
X-0.15100 Y-0.78800
X-0.15200 Y-0.78800
X-0.15200 Y-0.78900
X-0.15300 Y-0.78900
X-0.15300 Y-0.79000
X-0.15400 Y-0.79000
X-0.15400 Y-0.79100
X-0.15500 Y-0.79100
X-0.15500 Y-0.79200
X-0.15600 Y-0.79200
X-0.15600 Y-0.79300
X-0.15700 Y-0.79300
X-0.15700 Y-0.79400
X-0.15800 Y-0.79400
X-0.15800 Y-0.79500
X-0.15900 Y-0.79500
X-0.15900 Y-0.79600
X-0.16000 Y-0.79600
X-0.16000 Y-0.79700
X-0.16100 Y-0.79700
X-0.16100 Y-0.79800
X-0.16200 Y-0.79800
X-0.16200 Y-0.79900
X-0.16300 Y-0.79900
X-0.16300 Y-0.80000
X-0.16400 Y-0.80000
X-0.16400 Y-0.80100
X-0.16500 Y-0.80100
X-0.16500 Y-0.80200
X-0.16600 Y-0.80200
X-0.16600 Y-0.80300
X-0.16700 Y-0.80300
X-0.16700 Y-0.80400
X-0.16800 Y-0.80400
X-0.16800 Y-0.80500
X-0.16900 Y-0.80500
X-0.16900 Y-0.80600
X-0.17000 Y-0.80600
X-0.17000 Y-0.80700
X-0.17100 Y-0.80700
X-0.17100 Y-0.80800
X-0.17200 Y-0.80800
X-0.17200 Y-0.80900
X-0.17300 Y-0.80900
X-0.17300 Y-0.81000
X-0.17400 Y-0.81000
X-0.17400 Y-0.81100
X-0.17500 Y-0.81100
X-0.17500 Y-0.81200
X-0.17600 Y-0.81200
X-0.17600 Y-0.81300
X-0.17700 Y-0.81300
X-0.17700 Y-0.81400
X-0.17800 Y-0.81400
X-0.17800 Y-0.81500
X-0.17900 Y-0.81500
X-0.17900 Y-0.81600
X-0.18000 Y-0.81600
X-0.18000 Y-0.81700
X-0.18100 Y-0.81700
X-0.18100 Y-0.81800
X-0.18200 Y-0.81800
X-0.18200 Y-0.81900
X-0.18300 Y-0.81900
X-0.18300 Y-0.82000
X-0.18400 Y-0.82000
X-0.18400 Y-0.82100
X-0.18500 Y-0.82100
X-0.18500 Y-0.82200
X-0.18600 Y-0.82200
X-0.18600 Y-0.82300
X-0.18700 Y-0.82300
X-0.18700 Y-0.82400
X-0.18800 Y-0.82400
X-0.18800 Y-0.82500
X-0.18900 Y-0.82500
X-0.18900 Y-0.82600
X-0.19000 Y-0.82600
X-0.19000 Y-0.82900
X-0.19100 Y-0.82900
X-0.19100 Y-0.83200
X-0.19200 Y-0.83200
X-0.19200 Y-0.83500
X-0.19300 Y-0.83500
X-0.19300 Y-0.83600
X-0.19400 Y-0.83600
X-0.19400 Y-0.83900
X-0.19500 Y-0.83900
X-0.19500 Y-0.84000
X-0.19600 Y-0.84000
X-0.19600 Y-0.84100
X-0.19700 Y-0.84100
X-0.19700 Y-0.84300
X-0.19800 Y-0.84300
X-0.19800 Y-0.84400
X-0.19900 Y-0.84400
X-0.19900 Y-0.84600
X-0.20000 Y-0.84600
X-0.20000 Y-0.84700
X-0.20100 Y-0.84700
X-0.20100 Y-0.84800
X-0.20200 Y-0.84800
X-0.20200 Y-0.84900
X-0.20300 Y-0.84900
X-0.20300 Y-0.85000
X-0.20500 Y-0.85000
X-0.20500 Y-0.85100
X-0.20700 Y-0.85100
X-0.20700 Y-0.85200
X-0.20800 Y-0.85200
X-0.20800 Y-0.85300
X-0.20900 Y-0.85300
X-0.20900 Y-0.85400
X-0.21000 Y-0.85400
X-0.21000 Y-0.85500
X-0.21500 Y-0.85500
X-0.21500 Y-0.85600
X-0.23400 Y-0.85600
X-0.23400 Y-0.85500
X-0.24000 Y-0.85500
X-0.24000 Y-0.85400
X-0.24100 Y-0.85400
X-0.24100 Y-0.85300
X-0.24200 Y-0.85300
X-0.24200 Y-0.85200
X-0.24300 Y-0.85200
X-0.24300 Y-0.85100
X-0.24400 Y-0.85100
X-0.24400 Y-0.85000
X-0.24600 Y-0.85000
X-0.24600 Y-0.84900
X-0.24700 Y-0.84900
X-0.24700 Y-0.84800
X-0.24800 Y-0.84800
X-0.24800 Y-0.84700
X-0.24900 Y-0.84700
X-0.24900 Y-0.84600
X-0.25000 Y-0.84600
X-0.25000 Y-0.84400
X-0.25100 Y-0.84400
X-0.25100 Y-0.84300
X-0.25200 Y-0.84300
X-0.25200 Y-0.84200
X-0.25300 Y-0.84200
X-0.25300 Y-0.84100
X-0.25400 Y-0.84100
X-0.25400 Y-0.83900
X-0.25500 Y-0.83900
X-0.25500 Y-0.83700
X-0.25600 Y-0.83700
X-0.25600 Y-0.83500
X-0.25700 Y-0.83500
X-0.25700 Y-0.83300
X-0.25800 Y-0.83300
X-0.25800 Y-0.83000
X-0.25900 Y-0.83000
X-0.25900 Y-0.82700
X-0.26000 Y-0.82700
X-0.26000 Y-0.82600
X-0.26100 Y-0.82600
X-0.26100 Y-0.82500
X-0.26200 Y-0.82500
X-0.26200 Y-0.82400
X-0.26300 Y-0.82400
X-0.26300 Y-0.82300
X-0.26400 Y-0.82300
X-0.26400 Y-0.82200
X-0.26500 Y-0.82200
X-0.26500 Y-0.82100
X-0.26600 Y-0.82100
X-0.26600 Y-0.82000
X-0.26700 Y-0.82000
X-0.26700 Y-0.81900
X-0.26800 Y-0.81900
X-0.26800 Y-0.81800
X-0.26900 Y-0.81800
X-0.26900 Y-0.81700
X-0.27000 Y-0.81700
X-0.27000 Y-0.81600
X-0.27100 Y-0.81600
X-0.27100 Y-0.81500
X-0.27200 Y-0.81500
X-0.27200 Y-0.81400
X-0.27300 Y-0.81400
X-0.27300 Y-0.81300
X-0.27400 Y-0.81300
X-0.27400 Y-0.81200
X-0.27500 Y-0.81200
X-0.27500 Y-0.81100
X-0.27600 Y-0.81100
X-0.27600 Y-0.81000
X-0.27700 Y-0.81000
X-0.27700 Y-0.80900
X-0.27800 Y-0.80900
X-0.27800 Y-0.80800
X-0.27900 Y-0.80800
X-0.27900 Y-0.80700
X-0.28000 Y-0.80700
X-0.28000 Y-0.80600
X-0.28100 Y-0.80600
X-0.28100 Y-0.80500
X-0.28200 Y-0.80500
X-0.28200 Y-0.80400
X-0.28300 Y-0.80400
X-0.28300 Y-0.80300
X-0.28400 Y-0.80300
X-0.28400 Y-0.80200
X-0.28500 Y-0.80200
X-0.28500 Y-0.80100
X-0.28600 Y-0.80100
X-0.28600 Y-0.80000
X-0.28700 Y-0.80000
X-0.28700 Y-0.79900
X-0.28800 Y-0.79900
X-0.28800 Y-0.79800
X-0.28900 Y-0.79800
X-0.28900 Y-0.79700
X-0.29000 Y-0.79700
X-0.29000 Y-0.79600
X-0.29100 Y-0.79600
X-0.29100 Y-0.79500
X-0.29200 Y-0.79500
X-0.29200 Y-0.79400
X-0.29300 Y-0.79400
X-0.29300 Y-0.79300
X-0.29400 Y-0.79300
X-0.29400 Y-0.79200
X-0.29500 Y-0.79200
X-0.29500 Y-0.79100
X-0.29600 Y-0.79100
X-0.29600 Y-0.79000
X-0.29700 Y-0.79000
X-0.29700 Y-0.78900
X-0.29800 Y-0.78900
X-0.29800 Y-0.78800
X-0.29900 Y-0.78800
X-0.29900 Y-0.78700
X-0.30000 Y-0.78700
X-0.30000 Y-0.78600
X-0.30100 Y-0.78600
X-0.30100 Y-0.78500
X-0.30200 Y-0.78500
X-0.30200 Y-0.78400
X-0.30300 Y-0.78400
X-0.30300 Y-0.78300
X-0.30400 Y-0.78300
X-0.30400 Y-0.78200
X-0.30500 Y-0.78200
X-0.30500 Y-0.78100
X-0.30600 Y-0.78100
X-0.30600 Y-0.78000
X-0.30700 Y-0.78000
X-0.30700 Y-0.77900
X-0.30800 Y-0.77900
X-0.30800 Y-0.77800
X-0.30900 Y-0.77800
X-0.30900 Y-0.77700
X-0.31000 Y-0.77700
X-0.31000 Y-0.77600
X-0.31100 Y-0.77600
X-0.31100 Y-0.77500
X-0.31200 Y-0.77500
X-0.31200 Y-0.77400
X-0.31300 Y-0.77400
X-0.31300 Y-0.77300
X-0.31400 Y-0.77300
X-0.31400 Y-0.77200
X-0.31500 Y-0.77200
X-0.31500 Y-0.77100
X-0.31600 Y-0.77100
X-0.31600 Y-0.77000
X-0.31700 Y-0.77000
X-0.31700 Y-0.76900
X-0.31800 Y-0.76900
X-0.31800 Y-0.76800
X-0.31900 Y-0.76800
X-0.31900 Y-0.76700
X-0.32000 Y-0.76700
X-0.32000 Y-0.76600
X-0.32100 Y-0.76600
X-0.32100 Y-0.76500
X-0.32200 Y-0.76500
X-0.32200 Y-0.76400
X-0.32300 Y-0.76400
X-0.32300 Y-0.76300
X-0.32400 Y-0.76300
X-0.32400 Y-0.76200
X-0.32500 Y-0.76200
X-0.32500 Y-0.76100
X-0.32600 Y-0.76100
X-0.32600 Y-0.76000
X-0.32700 Y-0.76000
X-0.32700 Y-0.56800
X-0.32600 Y-0.56800
X-0.32600 Y-0.56700
X-0.32400 Y-0.56700
X-0.32400 Y-0.56600
X-0.32200 Y-0.56600
X-0.32200 Y-0.56500
X-0.32000 Y-0.56500
X-0.32000 Y-0.56400
X-0.31900 Y-0.56400
X-0.31900 Y-0.56300
X-0.31700 Y-0.56300
X-0.31700 Y-0.56200
X-0.31500 Y-0.56200
X-0.31500 Y-0.56100
X-0.31400 Y-0.56100
X-0.31400 Y-0.56000
X-0.31300 Y-0.56000
X-0.31300 Y-0.55900
X-0.31200 Y-0.55900
X-0.31200 Y-0.55700
X-0.31100 Y-0.55700
X-0.31100 Y-0.55600
X-0.31000 Y-0.55600
X-0.31000 Y-0.55500
X-0.30900 Y-0.55500
X-0.30900 Y-0.55300
X-0.30800 Y-0.55300
X-0.30800 Y-0.55100
X-0.30700 Y-0.55100
X-0.30700 Y-0.54900
X-0.30600 Y-0.54900
X-0.30600 Y-0.54600
X-0.30500 Y-0.54600
X-0.30500 Y-0.54000
X-0.30400 Y-0.54000
X-0.30400 Y-0.50900
X-0.30500 Y-0.50900
X-0.30500 Y-0.50300
X-0.30600 Y-0.50300
X-0.30600 Y-0.50000
X-0.30700 Y-0.50000
X-0.30700 Y-0.49800
X-0.30800 Y-0.49800
X-0.30800 Y-0.49600
X-0.30900 Y-0.49600
X-0.30900 Y-0.49400
X-0.31000 Y-0.49400
X-0.31000 Y-0.49300
X-0.31100 Y-0.49300
X-0.31100 Y-0.49200
X-0.31200 Y-0.49200
X-0.31200 Y-0.49000
X-0.31300 Y-0.49000
X-0.31300 Y-0.48900
X-0.31400 Y-0.48900
X-0.31400 Y-0.48800
X-0.31500 Y-0.48800
X-0.31500 Y-0.48700
X-0.31700 Y-0.48700
X-0.31700 Y-0.48600
X-0.31900 Y-0.48600
X-0.31900 Y-0.48500
X-0.32000 Y-0.48500
X-0.32000 Y-0.48400
X-0.32200 Y-0.48400
X-0.32200 Y-0.48300
X-0.32400 Y-0.48300
X-0.32400 Y-0.48200
X-0.32600 Y-0.48200
X-0.32600 Y-0.48100
X-0.32700 Y-0.48100
X-0.32700 Y-0.28800
X-0.32800 Y-0.28800
X-0.32800 Y-0.28600
X-0.32900 Y-0.28600
X-0.32900 Y-0.28300
X-0.33000 Y-0.28300
X-0.33000 Y-0.28100
X-0.33100 Y-0.28100
X-0.33100 Y-0.28000
X-0.33200 Y-0.28000
X-0.33200 Y-0.27900
X-0.33300 Y-0.27900
X-0.33300 Y-0.27800
X-0.33400 Y-0.27800
X-0.33400 Y-0.27700
X-0.33500 Y-0.27700
X-0.33500 Y-0.27600
X-0.33600 Y-0.27600
X-0.33600 Y-0.27500
X-0.33700 Y-0.27500
X-0.33700 Y-0.27400
X-0.33800 Y-0.27400
X-0.33800 Y-0.27300
X-0.33900 Y-0.27300
X-0.33900 Y-0.27200
X-0.34000 Y-0.27200
X-0.34000 Y-0.27100
X-0.34100 Y-0.27100
X-0.34100 Y-0.27000
X-0.34200 Y-0.27000
X-0.34200 Y-0.26900
X-0.34300 Y-0.26900
X-0.34300 Y-0.26800
X-0.34400 Y-0.26800
X-0.34400 Y-0.26700
X-0.34500 Y-0.26700
X-0.34500 Y-0.26600
X-0.34600 Y-0.26600
X-0.34600 Y-0.26500
X-0.34700 Y-0.26500
X-0.34700 Y-0.26400
X-0.34800 Y-0.26400
X-0.34800 Y-0.26300
X-0.34900 Y-0.26300
X-0.34900 Y-0.26200
X-0.35000 Y-0.26200
X-0.35000 Y-0.26100
X-0.35100 Y-0.26100
X-0.35100 Y-0.26000
X-0.35200 Y-0.26000
X-0.35200 Y-0.25900
X-0.35300 Y-0.25900
X-0.35300 Y-0.25800
X-0.35400 Y-0.25800
X-0.35400 Y-0.23400
X-0.35500 Y-0.23400
X-0.35500 Y-0.22800
X-0.35600 Y-0.22800
X-0.35600 Y-0.22500
X-0.35700 Y-0.22500
X-0.35700 Y-0.22300
X-0.35800 Y-0.22300
X-0.35800 Y-0.22100
X-0.35900 Y-0.22100
X-0.35900 Y-0.21900
X-0.36000 Y-0.21900
X-0.36000 Y-0.21800
X-0.36100 Y-0.21800
X-0.36100 Y-0.21700
X-0.36200 Y-0.21700
X-0.36200 Y-0.21500
X-0.36300 Y-0.21500
X-0.36300 Y-0.21400
X-0.36400 Y-0.21400
X-0.36400 Y-0.21300
X-0.36500 Y-0.21300
X-0.36500 Y-0.21200
X-0.36700 Y-0.21200
X-0.36700 Y-0.21100
X-0.36900 Y-0.21100
X-0.36900 Y-0.21000
X-0.37000 Y-0.21000
X-0.37000 Y-0.20900
X-0.37200 Y-0.20900
X-0.37200 Y-0.20800
X-0.37400 Y-0.20800
X-0.37400 Y-0.20700
X-0.37600 Y-0.20700
X-0.37600 Y-0.20600
X-0.38000 Y-0.20600
X-0.38000 Y-0.20500
X-0.38600 Y-0.20500
X-0.38600 Y-0.20400
X-0.41300 Y-0.20400
X-0.41300 Y-0.20500
X-0.41900 Y-0.20500
X-0.41900 Y-0.20600
X-0.42300 Y-0.20600
X-0.42300 Y-0.20700
X-0.42500 Y-0.20700
X-0.42500 Y-0.20800
X-0.42700 Y-0.20800
X-0.42700 Y-0.20900
X-0.42900 Y-0.20900
X-0.42900 Y-0.21000
X-0.43000 Y-0.21000
X-0.43000 Y-0.21100
X-0.43200 Y-0.21100
X-0.43200 Y-0.21200
X-0.43400 Y-0.21200
X-0.43400 Y-0.21300
X-0.43500 Y-0.21300
X-0.43500 Y-0.21400
X-0.43600 Y-0.21400
X-0.43600 Y-0.21500
X-0.43700 Y-0.21500
X-0.43700 Y-0.21700
X-0.43800 Y-0.21700
X-0.43800 Y-0.21800
X-0.43900 Y-0.21800
X-0.43900 Y-0.21900
X-0.44000 Y-0.21900
X-0.44000 Y-0.22100
X-0.44100 Y-0.22100
X-0.44100 Y-0.22300
X-0.44200 Y-0.22300
X-0.44200 Y-0.22500
X-0.44300 Y-0.22500
X-0.44300 Y-0.22700
X-0.52400 Y-0.22700
X-0.52400 Y-0.19900
X-0.62500 Y-0.19900
X-0.62500 Y-0.30000
X-0.52400 Y-0.30000
X-0.52400 Y-0.27300
X-0.44300 Y-0.27300
X-0.44300 Y-0.27400
X-0.44200 Y-0.27400
X-0.44200 Y-0.27600
X-0.44100 Y-0.27600
X-0.44100 Y-0.27800
X-0.44000 Y-0.27800
X-0.44000 Y-0.28000
X-0.43900 Y-0.28000
X-0.43900 Y-0.28100
X-0.43800 Y-0.28100
X-0.43800 Y-0.28200
X-0.43700 Y-0.28200
X-0.43700 Y-0.28400
X-0.43600 Y-0.28400
X-0.43600 Y-0.28500
X-0.43500 Y-0.28500
X-0.43500 Y-0.28600
X-0.43400 Y-0.28600
X-0.43400 Y-0.28700
X-0.43200 Y-0.28700
X-0.43200 Y-0.28800
X-0.43000 Y-0.28800
X-0.43000 Y-0.28900
X-0.42900 Y-0.28900
X-0.42900 Y-0.29000
X-0.42700 Y-0.29000
X-0.42700 Y-0.29100
X-0.42500 Y-0.29100
X-0.42500 Y-0.29200
X-0.42300 Y-0.29200
X-0.42300 Y-0.29300
X-0.41900 Y-0.29300
X-0.41900 Y-0.29400
X-0.41300 Y-0.29400
X-0.41300 Y-0.29500
X-0.39300 Y-0.29500
X-0.39300 Y-0.29600
X-0.39200 Y-0.29600
X-0.39200 Y-0.29700
X-0.39100 Y-0.29700
X-0.39100 Y-0.29800
X-0.39000 Y-0.29800
X-0.39000 Y-0.29900
X-0.38900 Y-0.29900
X-0.38900 Y-0.30000
X-0.38800 Y-0.30000
X-0.38800 Y-0.30100
X-0.38700 Y-0.30100
X-0.38700 Y-0.30200
X-0.38600 Y-0.30200
X-0.38600 Y-0.30300
X-0.38500 Y-0.30300
X-0.38500 Y-0.30400
X-0.38400 Y-0.30400
X-0.38400 Y-0.30500
X-0.38300 Y-0.30500
X-0.38300 Y-0.30600
X-0.38200 Y-0.30600
X-0.38200 Y-0.30700
X-0.38100 Y-0.30700
X-0.38100 Y-0.30800
X-0.38000 Y-0.30800
X-0.38000 Y-0.30900
X-0.37900 Y-0.30900
X-0.37900 Y-0.31000
X-0.37800 Y-0.31000
X-0.37800 Y-0.31100
X-0.37700 Y-0.31100
X-0.37700 Y-0.31200
X-0.37600 Y-0.31200
X-0.37600 Y-0.31300
X-0.37500 Y-0.31300
X-0.37500 Y-0.31400
X-0.37400 Y-0.31400
X-0.37400 Y-0.31500
X-0.37300 Y-0.31500
X-0.37300 Y-0.48200
X-0.37500 Y-0.48200
X-0.37500 Y-0.48300
X-0.37700 Y-0.48300
X-0.37700 Y-0.48400
X-0.37900 Y-0.48400
X-0.37900 Y-0.48500
X-0.38000 Y-0.48500
X-0.38000 Y-0.48600
X-0.38200 Y-0.48600
X-0.38200 Y-0.48700
X-0.38400 Y-0.48700
X-0.38400 Y-0.48800
X-0.38500 Y-0.48800
X-0.38500 Y-0.48900
X-0.38600 Y-0.48900
X-0.38600 Y-0.49000
X-0.38700 Y-0.49000
X-0.38700 Y-0.49200
X-0.38800 Y-0.49200
X-0.38800 Y-0.49300
X-0.38900 Y-0.49300
X-0.38900 Y-0.49400
X-0.39000 Y-0.49400
X-0.39000 Y-0.49600
X-0.39100 Y-0.49600
X-0.39100 Y-0.49800
X-0.39200 Y-0.49800
X-0.39200 Y-0.50000
X-0.39300 Y-0.50000
X-0.39300 Y-0.50400
X-0.39400 Y-0.50400
X-0.39400 Y-0.50600
X-0.39500 Y-0.50600
X-0.39500 Y-0.50700
X-0.39600 Y-0.50700
X-0.39600 Y-0.50800
X-0.39700 Y-0.50800
X-0.39700 Y-0.50900
X-0.39800 Y-0.50900
X-0.39800 Y-0.51000
X-0.39900 Y-0.51000
X-0.39900 Y-0.51100
X-0.40000 Y-0.51100
X-0.40000 Y-0.51200
X-0.40100 Y-0.51200
X-0.40100 Y-0.51300
X-0.40200 Y-0.51300
X-0.40200 Y-0.51400
X-0.40300 Y-0.51400
X-0.40300 Y-0.51500
X-0.40400 Y-0.51500
X-0.40400 Y-0.51600
X-0.40500 Y-0.51600
X-0.40500 Y-0.51700
X-0.40600 Y-0.51700
X-0.40600 Y-0.51800
X-0.40700 Y-0.51800
X-0.40700 Y-0.51900
X-0.40800 Y-0.51900
X-0.40800 Y-0.52000
X-0.40900 Y-0.52000
X-0.40900 Y-0.52100
X-0.41000 Y-0.52100
X-0.41000 Y-0.52200
X-0.41100 Y-0.52200
X-0.41100 Y-0.52300
X-0.41200 Y-0.52300
X-0.41200 Y-0.52400
X-0.41300 Y-0.52400
X-0.41300 Y-0.52500
X-0.41400 Y-0.52500
X-0.41400 Y-0.52600
X-0.41500 Y-0.52600
X-0.41500 Y-0.52700
X-0.41600 Y-0.52700
X-0.41600 Y-0.52800
X-0.41700 Y-0.52800
X-0.41700 Y-0.52900
X-0.41800 Y-0.52900
X-0.41800 Y-0.53000
X-0.41900 Y-0.53000
X-0.41900 Y-0.53100
X-0.42000 Y-0.53100
X-0.42000 Y-0.53200
X-0.42100 Y-0.53200
X-0.42100 Y-0.53300
X-0.42200 Y-0.53300
X-0.42200 Y-0.53400
X-0.42300 Y-0.53400
X-0.42300 Y-0.53500
X-0.42400 Y-0.53500
X-0.42400 Y-0.53600
X-0.42500 Y-0.53600
X-0.42500 Y-0.53700
X-0.42600 Y-0.53700
X-0.42600 Y-0.53800
X-0.42700 Y-0.53800
X-0.42700 Y-0.53900
X-0.42800 Y-0.53900
X-0.42800 Y-0.54000
X-0.42900 Y-0.54000
X-0.42900 Y-0.54100
X-0.43000 Y-0.54100
X-0.43000 Y-0.54200
X-0.43100 Y-0.54200
X-0.43100 Y-0.54300
X-0.43200 Y-0.54300
X-0.43200 Y-0.54400
X-0.43300 Y-0.54400
X-0.43300 Y-0.54500
X-0.43400 Y-0.54500
X-0.43400 Y-0.54600
X-0.43500 Y-0.54600
X-0.43500 Y-0.54700
X-0.43600 Y-0.54700
X-0.43600 Y-0.54800
X-0.43700 Y-0.54800
X-0.43700 Y-0.54900
X-0.43800 Y-0.54900
X-0.43800 Y-0.55000
X-0.43900 Y-0.55000
X-0.43900 Y-0.55100
X-0.44000 Y-0.55100
X-0.44000 Y-0.55200
X-0.44100 Y-0.55200
X-0.44100 Y-0.55300
X-0.44200 Y-0.55300
X-0.44200 Y-0.55400
X-0.44300 Y-0.55400
X-0.44300 Y-0.55500
X-0.44400 Y-0.55500
X-0.44400 Y-0.55600
X-0.44500 Y-0.55600
X-0.44500 Y-0.55700
X-0.44600 Y-0.55700
X-0.44600 Y-0.55800
X-0.44700 Y-0.55800
X-0.44700 Y-0.55900
X-0.44800 Y-0.55900
X-0.44800 Y-0.56000
X-0.44900 Y-0.56000
X-0.44900 Y-0.56100
X-0.45000 Y-0.56100
X-0.45000 Y-0.56200
X-0.45100 Y-0.56200
X-0.45100 Y-0.56300
X-0.45200 Y-0.56300
X-0.45200 Y-0.56400
X-0.45300 Y-0.56400
X-0.45300 Y-0.56500
X-0.45400 Y-0.56500
X-0.45400 Y-0.56600
X-0.45500 Y-0.56600
X-0.45500 Y-0.56700
X-0.45600 Y-0.56700
X-0.45600 Y-0.56800
X-0.45700 Y-0.56800
X-0.45700 Y-0.56900
X-0.45800 Y-0.56900
X-0.45800 Y-0.57000
X-0.45900 Y-0.57000
X-0.45900 Y-0.57100
X-0.46000 Y-0.57100
X-0.46000 Y-0.57200
X-0.46100 Y-0.57200
X-0.46100 Y-0.57300
X-0.46200 Y-0.57300
X-0.46200 Y-0.57400
X-0.46300 Y-0.57400
X-0.46300 Y-0.57500
X-0.46400 Y-0.57500
X-0.46400 Y-0.57600
X-0.46500 Y-0.57600
X-0.46500 Y-0.57700
X-0.46600 Y-0.57700
X-0.46600 Y-0.57800
X-0.46700 Y-0.57800
X-0.46700 Y-0.57900
X-0.48800 Y-0.57900
X-0.48800 Y-0.58000
X-0.49400 Y-0.58000
X-0.49400 Y-0.58100
X-0.49500 Y-0.58100
X-0.49500 Y-0.58200
X-0.49600 Y-0.58200
X-0.49600 Y-0.58400
X-0.49700 Y-0.58400
X-0.49700 Y-0.58600
X-0.49800 Y-0.58600
X-0.49800 Y-0.58800
X-0.49900 Y-0.58800
X-0.49900 Y-0.59000
X-0.50000 Y-0.59000
X-0.50000 Y-0.59100
X-0.50100 Y-0.59100
X-0.50100 Y-0.59200
X-0.50200 Y-0.59200
X-0.50200 Y-0.59300
X-0.50300 Y-0.59300
X-0.50300 Y-0.59400
X-0.50400 Y-0.59400
X-0.50400 Y-0.59500
X-0.50500 Y-0.59500
X-0.50500 Y-0.59600
X-0.50600 Y-0.59600
X-0.50600 Y-0.59800
X-0.50700 Y-0.59800
X-0.50700 Y-0.59900
X-0.50800 Y-0.59900
X-0.50800 Y-0.60000
X-0.50900 Y-0.60000
X-0.50900 Y-0.60200
X-0.51000 Y-0.60200
X-0.51000 Y-0.60300
X-0.51100 Y-0.60300
X-0.51100 Y-0.60400
X-0.51200 Y-0.60400
X-0.51200 Y-0.60500
X-0.51300 Y-0.60500
X-0.51300 Y-0.60800
X-0.51400 Y-0.60800
X-0.51400 Y-0.61400
X-0.51500 Y-0.61400
X-0.51500 Y-0.63500
X-0.51400 Y-0.63500
X-0.51400 Y-0.64500
X-0.51300 Y-0.64500
X-0.51300 Y-0.65000
X-0.51200 Y-0.65000
X-0.51200 Y-0.65400
X-0.51100 Y-0.65400
X-0.51100 Y-0.65800
X-0.51000 Y-0.65800
X-0.51000 Y-0.66100
X-0.50900 Y-0.66100
X-0.50900 Y-0.66200
X-0.50700 Y-0.66200
X-0.50700 Y-0.66300
X-0.50500 Y-0.66300
X-0.50500 Y-0.66400
X-0.50400 Y-0.66400
X-0.50400 Y-0.66500
X-0.50200 Y-0.66500
X-0.50200 Y-0.66600
X-0.50000 Y-0.66600
X-0.50000 Y-0.66700
X-0.49800 Y-0.66700
X-0.49800 Y-0.66800
X-0.49400 Y-0.66800
X-0.49400 Y-0.66900
X-0.48800 Y-0.66900
X-0.48800 Y-0.67000
X-0.46100 Y-0.67000
X-0.46100 Y-0.66900
X-0.45500 Y-0.66900
X-0.45500 Y-0.66800
X-0.45100 Y-0.66800
X-0.45100 Y-0.66700
X-0.44900 Y-0.66700
X-0.44900 Y-0.66600
X-0.44700 Y-0.66600
X-0.44700 Y-0.66500
X-0.44500 Y-0.66500
X-0.44500 Y-0.66400
X-0.44400 Y-0.66400
X-0.44400 Y-0.66300
X-0.44200 Y-0.66300
X-0.44200 Y-0.66200
X-0.44000 Y-0.66200
X-0.44000 Y-0.66100
X-0.43900 Y-0.66100
X-0.43900 Y-0.66000
X-0.43800 Y-0.66000
X-0.43800 Y-0.65900
X-0.43700 Y-0.65900
X-0.43700 Y-0.65700
X-0.43600 Y-0.65700
X-0.43600 Y-0.65600
X-0.43500 Y-0.65600
X-0.43500 Y-0.65500
X-0.43400 Y-0.65500
X-0.43400 Y-0.65300
X-0.43300 Y-0.65300
X-0.43300 Y-0.65100
X-0.43200 Y-0.65100
X-0.43200 Y-0.64900
X-0.43100 Y-0.64900
X-0.43100 Y-0.64600
X-0.43000 Y-0.64600
X-0.43000 Y-0.64000
X-0.42900 Y-0.64000
X-0.42900 Y-0.61700
X-0.42800 Y-0.61700
X-0.42800 Y-0.61600
X-0.42700 Y-0.61600
X-0.42700 Y-0.61500
X-0.42600 Y-0.61500
X-0.42600 Y-0.61400
X-0.42500 Y-0.61400
X-0.42500 Y-0.61300
X-0.42400 Y-0.61300
X-0.42400 Y-0.61200
X-0.42300 Y-0.61200
X-0.42300 Y-0.61100
X-0.42200 Y-0.61100
X-0.42200 Y-0.61000
X-0.42100 Y-0.61000
X-0.42100 Y-0.60900
X-0.42000 Y-0.60900
X-0.42000 Y-0.60800
X-0.41900 Y-0.60800
X-0.41900 Y-0.60700
X-0.41800 Y-0.60700
X-0.41800 Y-0.60600
X-0.41700 Y-0.60600
X-0.41700 Y-0.60500
X-0.41600 Y-0.60500
X-0.41600 Y-0.60400
X-0.41500 Y-0.60400
X-0.41500 Y-0.60300
X-0.41400 Y-0.60300
X-0.41400 Y-0.60200
X-0.41300 Y-0.60200
X-0.41300 Y-0.60100
X-0.41200 Y-0.60100
X-0.41200 Y-0.60000
X-0.41100 Y-0.60000
X-0.41100 Y-0.59900
X-0.41000 Y-0.59900
X-0.41000 Y-0.59800
X-0.40900 Y-0.59800
X-0.40900 Y-0.59700
X-0.40800 Y-0.59700
X-0.40800 Y-0.59600
X-0.40700 Y-0.59600
X-0.40700 Y-0.59500
X-0.40600 Y-0.59500
X-0.40600 Y-0.59400
X-0.40500 Y-0.59400
X-0.40500 Y-0.59300
X-0.40400 Y-0.59300
X-0.40400 Y-0.59200
X-0.40300 Y-0.59200
X-0.40300 Y-0.59100
X-0.40200 Y-0.59100
X-0.40200 Y-0.59000
X-0.40100 Y-0.59000
X-0.40100 Y-0.58900
X-0.40000 Y-0.58900
X-0.40000 Y-0.58800
X-0.39900 Y-0.58800
X-0.39900 Y-0.58700
X-0.39800 Y-0.58700
X-0.39800 Y-0.58600
X-0.39700 Y-0.58600
X-0.39700 Y-0.58500
X-0.39600 Y-0.58500
X-0.39600 Y-0.58400
X-0.39500 Y-0.58400
X-0.39500 Y-0.58300
X-0.39400 Y-0.58300
X-0.39400 Y-0.58200
X-0.39300 Y-0.58200
X-0.39300 Y-0.58100
X-0.39200 Y-0.58100
X-0.39200 Y-0.58000
X-0.39100 Y-0.58000
X-0.39100 Y-0.57900
X-0.39000 Y-0.57900
X-0.39000 Y-0.57800
X-0.38900 Y-0.57800
X-0.38900 Y-0.57700
X-0.38800 Y-0.57700
X-0.38800 Y-0.57600
X-0.38700 Y-0.57600
X-0.38700 Y-0.57500
X-0.38600 Y-0.57500
X-0.38600 Y-0.57400
X-0.38500 Y-0.57400
X-0.38500 Y-0.57300
X-0.38400 Y-0.57300
X-0.38400 Y-0.57200
X-0.38300 Y-0.57200
X-0.38300 Y-0.57100
X-0.38200 Y-0.57100
X-0.38200 Y-0.57000
X-0.38100 Y-0.57000
X-0.38100 Y-0.56900
X-0.38000 Y-0.56900
X-0.38000 Y-0.56800
X-0.37900 Y-0.56800
X-0.37900 Y-0.56700
X-0.37800 Y-0.56700
X-0.37800 Y-0.56600
X-0.37700 Y-0.56600
X-0.37700 Y-0.56600
X-0.37500 Y-0.56600
X-0.37500 Y-0.56700
X-0.37300 Y-0.56700
X-0.37300 Y-0.78700
X-0.37200 Y-0.78700
X-0.37200 Y-0.78900
X-0.37100 Y-0.78900
X-0.37100 Y-0.79200
X-0.37000 Y-0.79200
X-0.37000 Y-0.79400
X-0.36900 Y-0.79400
X-0.36900 Y-0.79500
X-0.36800 Y-0.79500
X-0.36800 Y-0.79600
X-0.36700 Y-0.79600
X-0.36700 Y-0.79700
X-0.36600 Y-0.79700
X-0.36600 Y-0.79800
X-0.36500 Y-0.79800
X-0.36500 Y-0.79900
X-0.36400 Y-0.79900
X-0.36400 Y-0.80000
X-0.36300 Y-0.80000
X-0.36300 Y-0.80100
X-0.36200 Y-0.80100
X-0.36200 Y-0.80200
X-0.36100 Y-0.80200
X-0.36100 Y-0.80300
X-0.36000 Y-0.80300
X-0.36000 Y-0.80400
X-0.35900 Y-0.80400
X-0.35900 Y-0.80500
X-0.35800 Y-0.80500
X-0.35800 Y-0.80600
X-0.35700 Y-0.80600
X-0.35700 Y-0.80700
X-0.35600 Y-0.80700
X-0.35600 Y-0.80800
X-0.35500 Y-0.80800
X-0.35500 Y-0.80900
X-0.35400 Y-0.80900
X-0.35400 Y-0.81000
X-0.35300 Y-0.81000
X-0.35300 Y-0.81100
X-0.35200 Y-0.81100
X-0.35200 Y-0.81200
X-0.35100 Y-0.81200
X-0.35100 Y-0.81300
X-0.35000 Y-0.81300
X-0.35000 Y-0.81400
X-0.34900 Y-0.81400
X-0.34900 Y-0.81500
X-0.34800 Y-0.81500
X-0.34800 Y-0.81600
X-0.34700 Y-0.81600
X-0.34700 Y-0.81700
X-0.34600 Y-0.81700
X-0.34600 Y-0.81800
X-0.34500 Y-0.81800
X-0.34500 Y-0.81900
X-0.34400 Y-0.81900
X-0.34400 Y-0.82000
X-0.34300 Y-0.82000
X-0.34300 Y-0.82100
X-0.34200 Y-0.82100
X-0.34200 Y-0.82200
X-0.34100 Y-0.82200
X-0.34100 Y-0.82300
X-0.34000 Y-0.82300
X-0.34000 Y-0.82400
X-0.33900 Y-0.82400
X-0.33900 Y-0.82500
X-0.33800 Y-0.82500
X-0.33800 Y-0.82600
X-0.33700 Y-0.82600
X-0.33700 Y-0.82700
X-0.33600 Y-0.82700
X-0.33600 Y-0.82800
X-0.33500 Y-0.82800
X-0.33500 Y-0.82900
X-0.33400 Y-0.82900
X-0.33400 Y-0.83000
X-0.33300 Y-0.83000
X-0.33300 Y-0.83100
X-0.33200 Y-0.83100
X-0.33200 Y-0.83200
X-0.33100 Y-0.83200
X-0.33100 Y-0.83300
X-0.33000 Y-0.83300
X-0.33000 Y-0.83400
X-0.32900 Y-0.83400
X-0.32900 Y-0.83500
X-0.32800 Y-0.83500
X-0.32800 Y-0.83600
X-0.32700 Y-0.83600
X-0.32700 Y-0.83700
X-0.32600 Y-0.83700
X-0.32600 Y-0.83800
X-0.32500 Y-0.83800
X-0.32500 Y-0.83900
X-0.32400 Y-0.83900
X-0.32400 Y-0.84000
X-0.32300 Y-0.84000
X-0.32300 Y-0.84100
X-0.32200 Y-0.84100
X-0.32200 Y-0.84200
X-0.32100 Y-0.84200
X-0.32100 Y-0.84300
X-0.32000 Y-0.84300
X-0.32000 Y-0.84400
X-0.31900 Y-0.84400
X-0.31900 Y-0.84500
X-0.31800 Y-0.84500
X-0.31800 Y-0.84600
X-0.31700 Y-0.84600
X-0.31700 Y-0.84700
X-0.31600 Y-0.84700
X-0.31600 Y-0.84800
X-0.31500 Y-0.84800
X-0.31500 Y-0.84900
X-0.31400 Y-0.84900
X-0.31400 Y-0.85000
X-0.31300 Y-0.85000
X-0.31300 Y-0.85100
X-0.31200 Y-0.85100
X-0.31200 Y-0.85200
X-0.31100 Y-0.85200
X-0.31100 Y-0.85300
X-0.31000 Y-0.85300
X-0.31000 Y-0.85400
X-0.30900 Y-0.85400
X-0.30900 Y-0.85500
X-0.30800 Y-0.85500
X-0.30800 Y-0.85600
X-0.30700 Y-0.85600
X-0.30700 Y-0.85700
X-0.30600 Y-0.85700
X-0.30600 Y-0.85800
X-0.30500 Y-0.85800
X-0.30500 Y-0.85900
X-0.30400 Y-0.85900
X-0.30400 Y-0.86000
X-0.30300 Y-0.86000
X-0.30300 Y-0.86100
X-0.30200 Y-0.86100
X-0.30200 Y-0.86200
X-0.30100 Y-0.86200
X-0.30100 Y-0.86300
X-0.30000 Y-0.86300
X-0.30000 Y-0.86400
X-0.29900 Y-0.86400
X-0.29900 Y-0.86500
X-0.29800 Y-0.86500
X-0.29800 Y-0.86600
X-0.29700 Y-0.86600
X-0.29700 Y-0.86700
X-0.29600 Y-0.86700
X-0.29600 Y-0.86800
X-0.29500 Y-0.86800
X-0.29500 Y-0.86900
X-0.29400 Y-0.86900
X-0.29400 Y-0.87000
X-0.29300 Y-0.87000
X-0.29300 Y-0.87100
X-0.29200 Y-0.87100
X-0.29200 Y-0.87200
X-0.29100 Y-0.87200
X-0.29100 Y-0.87300
X-0.29000 Y-0.87300
X-0.29000 Y-0.87400
X-0.28900 Y-0.87400
X-0.28900 Y-0.87500
X-0.28800 Y-0.87500
X-0.28800 Y-0.87600
X-0.28700 Y-0.87600
X-0.28700 Y-0.87700
X-0.28600 Y-0.87700
X-0.28600 Y-0.87800
X-0.28500 Y-0.87800
X-0.28500 Y-0.87900
X-0.28400 Y-0.87900
X-0.28400 Y-0.88000
X-0.28300 Y-0.88000
X-0.28300 Y-0.88100
X-0.28200 Y-0.88100
X-0.28200 Y-0.88200
X-0.28100 Y-0.88200
X-0.28100 Y-0.88300
X-0.28000 Y-0.88300
X-0.28000 Y-0.88400
X-0.27900 Y-0.88400
X-0.27900 Y-0.88500
X-0.27800 Y-0.88500
X-0.27800 Y-0.88600
X-0.27700 Y-0.88600
X-0.27700 Y-0.88700
X-0.27600 Y-0.88700
X-0.27600 Y-0.88800
X-0.27500 Y-0.88800
X-0.27500 Y-0.88900
X-0.27400 Y-0.88900
X-0.27400 Y-0.89000
X-0.27300 Y-0.89000
X-0.27300 Y-0.89100
X-0.27200 Y-0.89100
X-0.27200 Y-0.89200
X-0.27100 Y-0.89200
X-0.27100 Y-0.89300
X-0.27000 Y-0.89300
X-0.27000 Y-0.89400
X-0.26900 Y-0.89400
X-0.26900 Y-0.89500
X-0.26700 Y-0.89500
X-0.26700 Y-0.89600
X-0.26400 Y-0.89600
X-0.26400 Y-0.89700
X-0.26200 Y-0.89700
X-0.26200 Y-0.89800
X-0.25200 Y-0.89800
X-0.25200 Y-0.89700
X-0.24900 Y-0.89700
X-0.24900 Y-0.89600
X-0.24400 Y-0.89600
X-0.24400 Y-0.89500
X-0.24000 Y-0.89500
X-0.24000 Y-0.89400
X-0.20900 Y-0.89400
X-0.20900 Y-0.89500
X-0.20500 Y-0.89500
X-0.20500 Y-0.89600
X-0.20000 Y-0.89600
X-0.20000 Y-0.89700
X-0.19700 Y-0.89700
X-0.19700 Y-0.89800
X-0.18800 Y-0.89800
X-0.18800 Y-0.89700
X-0.18600 Y-0.89700
X-0.18600 Y-0.89600
X-0.18300 Y-0.89600
X-0.18300 Y-0.89500
X-0.18100 Y-0.89500
X-0.18100 Y-0.89400
X-0.18000 Y-0.89400
X-0.18000 Y-0.89300
X-0.17900 Y-0.89300
X-0.17900 Y-0.89200
X-0.17800 Y-0.89200
X-0.17800 Y-0.89100
X-0.17700 Y-0.89100
X-0.17700 Y-0.89000
X-0.17600 Y-0.89000
X-0.17600 Y-0.88900
X-0.17500 Y-0.88900
X-0.17500 Y-0.88800
X-0.17400 Y-0.88800
X-0.17400 Y-0.88700
X-0.17300 Y-0.88700
X-0.17300 Y-0.88600
X-0.17200 Y-0.88600
X-0.17200 Y-0.88500
X-0.17100 Y-0.88500
X-0.17100 Y-0.88400
X-0.17000 Y-0.88400
X-0.17000 Y-0.88300
X-0.16900 Y-0.88300
X-0.16900 Y-0.88200
X-0.16800 Y-0.88200
X-0.16800 Y-0.88100
X-0.16700 Y-0.88100
X-0.16700 Y-0.88000
X-0.16600 Y-0.88000
X-0.16600 Y-0.87900
X-0.16500 Y-0.87900
X-0.16500 Y-0.87800
X-0.16400 Y-0.87800
X-0.16400 Y-0.87700
X-0.16300 Y-0.87700
X-0.16300 Y-0.87600
X-0.16200 Y-0.87600
X-0.16200 Y-0.87500
X-0.16100 Y-0.87500
X-0.16100 Y-0.87400
X-0.16000 Y-0.87400
X-0.16000 Y-0.87300
X-0.15900 Y-0.87300
X-0.15900 Y-0.87200
X-0.15800 Y-0.87200
X-0.15800 Y-0.87100
X-0.15700 Y-0.87100
X-0.15700 Y-0.87000
X-0.15600 Y-0.87000
X-0.15600 Y-0.86900
X-0.15500 Y-0.86900
X-0.15500 Y-0.86800
X-0.15400 Y-0.86800
X-0.15400 Y-0.86700
X-0.15300 Y-0.86700
X-0.15300 Y-0.86600
X-0.15200 Y-0.86600
X-0.15200 Y-0.86500
X-0.15100 Y-0.86500
X-0.15100 Y-0.86400
X-0.15000 Y-0.86400
X-0.15000 Y-0.86300
X-0.14900 Y-0.86300
X-0.14900 Y-0.86200
X-0.14800 Y-0.86200
X-0.14800 Y-0.86100
X-0.14700 Y-0.86100
X-0.14700 Y-0.86000
X-0.14600 Y-0.86000
X-0.14600 Y-0.85900
X-0.14500 Y-0.85900
X-0.14500 Y-0.85800
X-0.14400 Y-0.85800
X-0.14400 Y-0.85700
X-0.14300 Y-0.85700
X-0.14300 Y-0.85600
X-0.14200 Y-0.85600
X-0.14200 Y-0.85500
X-0.14100 Y-0.85500
X-0.14100 Y-0.85400
X-0.14000 Y-0.85400
X-0.14000 Y-0.85300
X-0.13900 Y-0.85300
X-0.13900 Y-0.85200
X-0.13800 Y-0.85200
X-0.13800 Y-0.85100
X-0.13700 Y-0.85100
X-0.13700 Y-0.85000
X-0.13600 Y-0.85000
X-0.13600 Y-0.84900
X-0.13500 Y-0.84900
X-0.13500 Y-0.84800
X-0.13400 Y-0.84800
X-0.13400 Y-0.84700
X-0.13300 Y-0.84700
X-0.13300 Y-0.84600
X-0.13200 Y-0.84600
X-0.13200 Y-0.84500
X-0.13100 Y-0.84500
X-0.13100 Y-0.84400
X-0.13000 Y-0.84400
X-0.13000 Y-0.84300
X-0.12900 Y-0.84300
X-0.12900 Y-0.84200
X-0.12800 Y-0.84200
X-0.12800 Y-0.84100
X-0.12700 Y-0.84100
X-0.12700 Y-0.84000
X-0.12600 Y-0.84000
X-0.12600 Y-0.83900
X-0.12500 Y-0.83900
X-0.12500 Y-0.83800
X-0.12400 Y-0.83800
X-0.12400 Y-0.83700
X-0.12300 Y-0.83700
X-0.12300 Y-0.83600
X-0.12200 Y-0.83600
X-0.12200 Y-0.83500
X-0.12100 Y-0.83500
X-0.12100 Y-0.83400
X-0.12000 Y-0.83400
X-0.12000 Y-0.83300
X-0.11900 Y-0.83300
X-0.11900 Y-0.83200
X-0.11800 Y-0.83200
X-0.11800 Y-0.83100
X-0.11700 Y-0.83100
X-0.11700 Y-0.83000
X-0.11600 Y-0.83000
X-0.11600 Y-0.82900
X-0.11500 Y-0.82900
X-0.11500 Y-0.82800
X-0.11400 Y-0.82800
X-0.11400 Y-0.82700
X-0.11300 Y-0.82700
X-0.11300 Y-0.82600
X-0.11200 Y-0.82600
X-0.11200 Y-0.82500
X-0.11100 Y-0.82500
X-0.11100 Y-0.82400
X-0.11000 Y-0.82400
X-0.11000 Y-0.82300
X-0.10900 Y-0.82300
X-0.10900 Y-0.82200
X-0.10800 Y-0.82200
X-0.10800 Y-0.82100
X-0.10700 Y-0.82100
X-0.10700 Y-0.82000
X-0.10600 Y-0.82000
X-0.10600 Y-0.81900
X-0.10500 Y-0.81900
X-0.10500 Y-0.81800
X-0.10400 Y-0.81800
X-0.10400 Y-0.81700
X-0.10300 Y-0.81700
X-0.10300 Y-0.81600
X-0.10200 Y-0.81600
X-0.10200 Y-0.81500
X-0.10100 Y-0.81500
X-0.10100 Y-0.81400
X-0.10000 Y-0.81400
X-0.10000 Y-0.81300
X-0.09900 Y-0.81300
X-0.09900 Y-0.81200
X-0.09800 Y-0.81200
X-0.09800 Y-0.81100
X-0.09700 Y-0.81100
X-0.09700 Y-0.81000
X-0.09600 Y-0.81000
X-0.09600 Y-0.80900
X-0.09500 Y-0.80900
X-0.09500 Y-0.80800
X-0.09400 Y-0.80800
X-0.09400 Y-0.80700
X-0.09300 Y-0.80700
X-0.09300 Y-0.80600
X-0.09200 Y-0.80600
X-0.09200 Y-0.80500
X-0.09100 Y-0.80500
X-0.09100 Y-0.80400
X-0.09000 Y-0.80400
X-0.09000 Y-0.80300
X-0.08900 Y-0.80300
X-0.08900 Y-0.80200
X-0.08800 Y-0.80200
X-0.08800 Y-0.80100
X-0.08700 Y-0.80100
X-0.08700 Y-0.80000
X-0.08600 Y-0.80000
X-0.08600 Y-0.79900
X-0.08500 Y-0.79900
X-0.08500 Y-0.79800
X-0.08400 Y-0.79800
X-0.08400 Y-0.79700
X-0.08300 Y-0.79700
X-0.08300 Y-0.79600
X-0.08200 Y-0.79600
X-0.08200 Y-0.79500
X-0.08100 Y-0.79500
X-0.08100 Y-0.79400
X-0.08000 Y-0.79400
X-0.08000 Y-0.79300
X-0.07900 Y-0.79300
X-0.07900 Y-0.79200
X-0.07800 Y-0.79200
X-0.07800 Y-0.79100
X-0.07700 Y-0.79100
X-0.07700 Y-0.79000
X-0.07600 Y-0.79000
X-0.07600 Y-0.78900
X-0.07500 Y-0.78900
X-0.07500 Y-0.78800
X-0.07400 Y-0.78800
X-0.07400 Y-0.78700
X-0.07300 Y-0.78700
X-0.07300 Y-0.78600
X-0.07200 Y-0.78600
X-0.07200 Y-0.78500
X-0.07100 Y-0.78500
X-0.07100 Y-0.78400
X-0.07000 Y-0.78400
X-0.07000 Y-0.78300
X-0.06900 Y-0.78300
X-0.06900 Y-0.78200
X-0.06800 Y-0.78200
X-0.06800 Y-0.78100
X-0.06700 Y-0.78100
X-0.06700 Y-0.78000
X-0.06600 Y-0.78000
X-0.06600 Y-0.77900
X-0.06500 Y-0.77900
X-0.06500 Y-0.77800
X-0.06400 Y-0.77800
X-0.06400 Y-0.77700
X-0.06300 Y-0.77700
X-0.06300 Y-0.77600
X-0.06200 Y-0.77600
X-0.06200 Y-0.77500
X-0.06100 Y-0.77500
X-0.06100 Y-0.77400
X-0.06000 Y-0.77400
X-0.06000 Y-0.77300
X-0.05900 Y-0.77300
X-0.05900 Y-0.77200
X-0.05800 Y-0.77200
X-0.05800 Y-0.77100
X-0.05700 Y-0.77100
X-0.05700 Y-0.77000
X-0.05600 Y-0.77000
X-0.05600 Y-0.76900
X-0.05500 Y-0.76900
X-0.05500 Y-0.76800
X-0.05400 Y-0.76800
X-0.05400 Y-0.76700
X-0.05300 Y-0.76700
X-0.05300 Y-0.76600
X-0.05200 Y-0.76600
X-0.05200 Y-0.76500
X-0.05100 Y-0.76500
X-0.05100 Y-0.76400
X-0.05000 Y-0.76400
X-0.05000 Y-0.76300
X-0.04900 Y-0.76300
X-0.04900 Y-0.76200
X-0.04800 Y-0.76200
X-0.04800 Y-0.76100
X-0.04700 Y-0.76100
X-0.04700 Y-0.76000
X-0.04600 Y-0.76000
X-0.04600 Y-0.75900
X-0.04500 Y-0.75900
X-0.04500 Y-0.75800
X-0.04400 Y-0.75800
X-0.04400 Y-0.75700
X-0.04300 Y-0.75700
X-0.04300 Y-0.75600
X-0.04200 Y-0.75600
X-0.04200 Y-0.75500
X-0.04100 Y-0.75500
X-0.04100 Y-0.75400
X-0.04000 Y-0.75400
X-0.04000 Y-0.75300
X-0.03900 Y-0.75300
X-0.03900 Y-0.75200
X-0.03800 Y-0.75200
X-0.03800 Y-0.75100
X-0.03700 Y-0.75100
X-0.03700 Y-0.75000
X-0.03600 Y-0.75000
X-0.03600 Y-0.74900
X-0.03500 Y-0.74900
X-0.03500 Y-0.74800
X-0.03400 Y-0.74800
X-0.03400 Y-0.74700
X-0.03300 Y-0.74700
X-0.03300 Y-0.74600
X-0.03200 Y-0.74600
X-0.03200 Y-0.74500
X-0.03100 Y-0.74500
X-0.03100 Y-0.74400
X-0.03000 Y-0.74400
X-0.03000 Y-0.74300
X-0.02900 Y-0.74300
X-0.02900 Y-0.74200
X-0.02800 Y-0.74200
X-0.02800 Y-0.74100
X-0.02700 Y-0.74100
X-0.02700 Y-0.74000
X-0.02600 Y-0.74000
X-0.02600 Y-0.73900
X-0.02500 Y-0.73900
X-0.02500 Y-0.73800
X-0.02400 Y-0.73800
X-0.02400 Y-0.73700
X-0.02300 Y-0.73700
X-0.02300 Y-0.73600
X-0.02200 Y-0.73600
X-0.02200 Y-0.73500
X-0.02100 Y-0.73500
X-0.02100 Y-0.73400
X-0.02000 Y-0.73400
X-0.02000 Y-0.73300
X-0.01900 Y-0.73300
X-0.01900 Y-0.73200
X-0.01800 Y-0.73200
X-0.01800 Y-0.73100
X-0.01700 Y-0.73100
X-0.01700 Y-0.73000
X-0.01600 Y-0.73000
X-0.01600 Y-0.72900
X-0.01500 Y-0.72900
X-0.01500 Y-0.72800
X-0.01400 Y-0.72800
X-0.01400 Y-0.72700
X-0.01300 Y-0.72700
X-0.01300 Y-0.72600
X-0.01200 Y-0.72600
X-0.01200 Y-0.72500
X-0.01100 Y-0.72500
X-0.01100 Y-0.72400
X-0.01000 Y-0.72400
X-0.01000 Y-0.72300
X-0.00900 Y-0.72300
X-0.00900 Y-0.72200
X-0.00800 Y-0.72200
X-0.00800 Y-0.72100
X-0.00700 Y-0.72100
X-0.00700 Y-0.72000
X-0.00600 Y-0.72000
X-0.00600 Y-0.71900
X-0.00500 Y-0.71900
X-0.00500 Y-0.71700
X-0.00400 Y-0.71700
X-0.00400 Y-0.71400
X-0.00300 Y-0.71400
X-0.00300 Y-0.71200
X-0.00200 Y-0.71200
X-0.00200 Y-0.68700
X-0.00100 Y-0.68700
X-0.00100 Y-0.68800
X-0.00000 Y-0.68800
X-0.00000 Y-0.68900
X0.00100 Y-0.68900
X0.00100 Y-0.69000
X0.00200 Y-0.69000
X0.00200 Y-0.69100
X0.00300 Y-0.69100
X0.00300 Y-0.69200
X0.00400 Y-0.69200
X0.00400 Y-0.69300
X0.00500 Y-0.69300
X0.00500 Y-0.69400
X0.00600 Y-0.69400
X0.00600 Y-0.69500
X0.00700 Y-0.69500
X0.00700 Y-0.69600
X0.00800 Y-0.69600
X0.00800 Y-0.69700
X0.00900 Y-0.69700
X0.00900 Y-0.69800
X0.01000 Y-0.69800
X0.01000 Y-0.69900
X0.01100 Y-0.69900
X0.01100 Y-0.70000
X0.01200 Y-0.70000
X0.01200 Y-0.70100
X0.01300 Y-0.70100
X0.01300 Y-0.70200
X0.01400 Y-0.70200
X0.01400 Y-0.70300
X0.01500 Y-0.70300
X0.01500 Y-0.70400
X0.01600 Y-0.70400
X0.01600 Y-0.70500
X0.01700 Y-0.70500
X0.01700 Y-0.70600
X0.01800 Y-0.70600
X0.01800 Y-0.70700
X0.01900 Y-0.70700
X0.01900 Y-0.70800
X0.02000 Y-0.70800
X0.02000 Y-0.70900
X0.02100 Y-0.70900
X0.02100 Y-0.71000
X0.02200 Y-0.71000
X0.02200 Y-0.71100
X0.02300 Y-0.71100
X0.02300 Y-0.71200
X0.02400 Y-0.71200
X0.02400 Y-0.71300
X0.02500 Y-0.71300
X0.02500 Y-0.71400
X0.02600 Y-0.71400
X0.02600 Y-0.71500
X0.02700 Y-0.71500
X0.02700 Y-0.71600
X0.02800 Y-0.71600
X0.02800 Y-0.71700
X0.02900 Y-0.71700
X0.02900 Y-0.71800
X0.03000 Y-0.71800
X0.03000 Y-0.71900
X0.03100 Y-0.71900
X0.03100 Y-0.72000
X0.03200 Y-0.72000
X0.03200 Y-0.72100
X0.03300 Y-0.72100
X0.03300 Y-0.72200
X0.03400 Y-0.72200
X0.03400 Y-0.72300
X0.03500 Y-0.72300
X0.03500 Y-0.72400
X0.03600 Y-0.72400
X0.03600 Y-0.72500
X0.03500 Y-0.72500
X0.03500 Y-0.72600
X0.03400 Y-0.72600
X0.03400 Y-0.72700
X0.03300 Y-0.72700
X0.03300 Y-0.72800
X0.03200 Y-0.72800
X0.03200 Y-0.72900
X0.03100 Y-0.72900
X0.03100 Y-0.73000
X0.03000 Y-0.73000
X0.03000 Y-0.73100
X0.02900 Y-0.73100
X0.02900 Y-0.73200
X0.02800 Y-0.73200
X0.02800 Y-0.73300
X0.02700 Y-0.73300
X0.02700 Y-0.73400
X0.02600 Y-0.73400
X0.02600 Y-0.73500
X0.02500 Y-0.73500
X0.02500 Y-0.73600
X0.02400 Y-0.73600
X0.02400 Y-0.73700
X0.02300 Y-0.73700
X0.02300 Y-0.73800
X0.02200 Y-0.73800
X0.02200 Y-0.73900
X0.02100 Y-0.73900
X0.02100 Y-0.74000
X0.02000 Y-0.74000
X0.02000 Y-0.74100
X0.01900 Y-0.74100
X0.01900 Y-0.74200
X0.01800 Y-0.74200
X0.01800 Y-0.74300
X0.01700 Y-0.74300
X0.01700 Y-0.74400
X0.01600 Y-0.74400
X0.01600 Y-0.74500
X0.01500 Y-0.74500
X0.01500 Y-0.74600
X0.01400 Y-0.74600
X0.01400 Y-0.74700
X0.01300 Y-0.74700
X0.01300 Y-0.74800
X0.01200 Y-0.74800
X0.01200 Y-0.74900
X0.01100 Y-0.74900
X0.01100 Y-0.75000
X0.01000 Y-0.75000
X0.01000 Y-0.75100
X0.00900 Y-0.75100
X0.00900 Y-0.75200
X0.00800 Y-0.75200
X0.00800 Y-0.75300
X0.00700 Y-0.75300
X0.00700 Y-0.75400
X0.00600 Y-0.75400
X0.00600 Y-0.75600
X0.00500 Y-0.75600
X0.00500 Y-0.75900
X0.00400 Y-0.75900
X0.00400 Y-0.76100
X0.00300 Y-0.76100
X0.00300 Y-0.98800
X0.00400 Y-0.98800
X0.00400 Y-0.99000
X0.00500 Y-0.99000
X0.00500 Y-0.99300
X0.00600 Y-0.99300
X0.00600 Y-0.99500
X0.00700 Y-0.99500
X0.00700 Y-0.99600
X0.00800 Y-0.99600
X0.00800 Y-0.99700
X0.00900 Y-0.99700
X0.00900 Y-0.99800
X0.01000 Y-0.99800
X0.01000 Y-0.99900
X0.01100 Y-0.99900
X0.01100 Y-1.00000
X0.01200 Y-1.00000
X0.01200 Y-1.00100
X0.01300 Y-1.00100
X0.01300 Y-1.00200
X0.01400 Y-1.00200
X0.01400 Y-1.00300
X0.01500 Y-1.00300
X0.01500 Y-1.00400
X0.01600 Y-1.00400
X0.01600 Y-1.00500
X0.01700 Y-1.00500
X0.01700 Y-1.00600
X0.01800 Y-1.00600
X0.01800 Y-1.00700
X0.01900 Y-1.00700
X0.01900 Y-1.00800
X0.02000 Y-1.00800
X0.02000 Y-1.00900
X0.02100 Y-1.00900
X0.02100 Y-1.01000
X0.02200 Y-1.01000
X0.02200 Y-1.01100
X0.02300 Y-1.01100
X0.02300 Y-1.01200
X0.02400 Y-1.01200
X0.02400 Y-1.01300
X0.02500 Y-1.01300
X0.02500 Y-1.01400
X0.02600 Y-1.01400
X0.02600 Y-1.01500
X0.02700 Y-1.01500
X0.02700 Y-1.01600
X0.02800 Y-1.01600
X0.02800 Y-1.01700
X0.02900 Y-1.01700
X0.02900 Y-1.01800
X0.03000 Y-1.01800
X0.03000 Y-1.01900
X0.03100 Y-1.01900
X0.03100 Y-1.02000
X0.03200 Y-1.02000
X0.03200 Y-1.02100
X0.03300 Y-1.02100
X0.03300 Y-1.02200
X0.03400 Y-1.02200
X0.03400 Y-1.02300
X0.03500 Y-1.02300
X0.03500 Y-1.02400
X0.03600 Y-1.02400
X0.03600 Y-1.02500
X0.03700 Y-1.02500
X0.03700 Y-1.02600
X0.03800 Y-1.02600
X0.03800 Y-1.02700
X0.03900 Y-1.02700
X0.03900 Y-1.02800
X0.04000 Y-1.02800
X0.04000 Y-1.03800
X0.04100 Y-1.03800
X0.04100 Y-1.04300
X0.04200 Y-1.04300
X0.04200 Y-1.04600
X0.04300 Y-1.04600
X0.04300 Y-1.04800
X0.04400 Y-1.04800
X0.04400 Y-1.04900
X0.04500 Y-1.04900
X0.04500 Y-1.05100
X0.04600 Y-1.05100
X0.04600 Y-1.05200
X0.04700 Y-1.05200
X0.04700 Y-1.05300
X0.04800 Y-1.05300
X0.04800 Y-1.05400
X0.04900 Y-1.05400
X0.04900 Y-1.05500
X0.05100 Y-1.05500
X0.05100 Y-1.05600
X0.05300 Y-1.05600
X0.05300 Y-1.05700
X0.05400 Y-1.05700
X0.05400 Y-1.05800
X0.05600 Y-1.05800
X0.05600 Y-1.05900
X0.06200 Y-1.05900
X0.06200 Y-1.06000
X0.08900 Y-1.06000
X0.08900 Y-1.05900
X0.09500 Y-1.05900
X0.09500 Y-1.05800
X0.09700 Y-1.05800
X0.09700 Y-1.05700
X0.09800 Y-1.05700
X0.09800 Y-1.05600
X0.10000 Y-1.05600
X0.10000 Y-1.05500
X0.10200 Y-1.05500
X0.10200 Y-1.05400
X0.10300 Y-1.05400
X0.10300 Y-1.05300
X0.10400 Y-1.05300
X0.10400 Y-1.05200
X0.10500 Y-1.05200
X0.10500 Y-1.05100
X0.10600 Y-1.05100
X0.10600 Y-1.04900
X0.10700 Y-1.04900
X0.10700 Y-1.04800
X0.23200 Y-1.04800
X0.23200 Y-1.04900
X0.23300 Y-1.04900
X0.23300 Y-1.05100
X0.23400 Y-1.05100
X0.23400 Y-1.05300
X0.23500 Y-1.05300
X0.23500 Y-1.05500
X0.23600 Y-1.05500
X0.23600 Y-1.05600
X0.23700 Y-1.05600
X0.23700 Y-1.05700
X0.23800 Y-1.05700
X0.23800 Y-1.05900
X0.23900 Y-1.05900
X0.23900 Y-1.06000
X0.24000 Y-1.06000
X0.24000 Y-1.06100
X0.24100 Y-1.06100
X0.24100 Y-1.06200
X0.24300 Y-1.06200
X0.24300 Y-1.06300
X0.24500 Y-1.06300
X0.24500 Y-1.06400
X0.24600 Y-1.06400
X0.24600 Y-1.06500
X0.24800 Y-1.06500
X0.24800 Y-1.06600
X0.25000 Y-1.06600
X0.25000 Y-1.06700
X0.25200 Y-1.06700
X0.25200 Y-1.06800
X0.25600 Y-1.06800
X0.25600 Y-1.06900
X0.26200 Y-1.06900
X0.26200 Y-1.07000
X0.28900 Y-1.07000
X0.28900 Y-1.06900
X0.29500 Y-1.06900
X0.29500 Y-1.06800
X0.29900 Y-1.06800
X0.29900 Y-1.06700
X0.30100 Y-1.06700
X0.30100 Y-1.06600
X0.30300 Y-1.06600
X0.30300 Y-1.06500
X0.30500 Y-1.06500
X0.30500 Y-1.06400
X0.30600 Y-1.06400
X0.30600 Y-1.06300
X0.30800 Y-1.06300
X0.30800 Y-1.06200
X0.31000 Y-1.06200
X0.31000 Y-1.06100
X0.31100 Y-1.06100
X0.31100 Y-1.06000
X0.31200 Y-1.06000
X0.31200 Y-1.05900
X0.31300 Y-1.05900
X0.31300 Y-1.05700
X0.31400 Y-1.05700
X0.31400 Y-1.05600
X0.31500 Y-1.05600
X0.31500 Y-1.05500
X0.31600 Y-1.05500
X0.31600 Y-1.05300
X0.31700 Y-1.05300
X0.31700 Y-1.05100
X0.31800 Y-1.05100
X0.31800 Y-1.04900
X0.31900 Y-1.04900
X0.31900 Y-1.04800
X0.45000 Y-1.04800
X0.45000 Y-1.07500
X0.55100 Y-1.07500
X0.55100 Y-0.97400
X0.45000 Y-0.97400
X0.45000 Y-1.00200
X0.31900 Y-1.00200
X0.31900 Y-1.00000
X0.31800 Y-1.00000
X0.31800 Y-0.99800
X0.31700 Y-0.99800
X0.31700 Y-0.99600
X0.31600 Y-0.99600
X0.31600 Y-0.99400
X0.31500 Y-0.99400
X0.31500 Y-0.99300
X0.31400 Y-0.99300
X0.31400 Y-0.99200
X0.31300 Y-0.99200
X0.31300 Y-0.99000
X0.31200 Y-0.99000
X0.31200 Y-0.98900
X0.31100 Y-0.98900
X0.31100 Y-0.98800
X0.31000 Y-0.98800
X0.31000 Y-0.98700
X0.30800 Y-0.98700
X0.30800 Y-0.98600
X0.30600 Y-0.98600
X0.30600 Y-0.98500
X0.30500 Y-0.98500
X0.30500 Y-0.98400
X0.30300 Y-0.98400
X0.30300 Y-0.98300
X0.30100 Y-0.98300
X0.30100 Y-0.98200
X0.29900 Y-0.98200
X0.29900 Y-0.98100
X0.29500 Y-0.98100
X0.29500 Y-0.98000
X0.28900 Y-0.98000
X0.28900 Y-0.97900
X0.26200 Y-0.97900
X0.26200 Y-0.98000
X0.25600 Y-0.98000
X0.25600 Y-0.98100
X0.25200 Y-0.98100
X0.25200 Y-0.98200
X0.25000 Y-0.98200
X0.25000 Y-0.98300
X0.24800 Y-0.98300
X0.24800 Y-0.98400
X0.24600 Y-0.98400
X0.24600 Y-0.98500
X0.24500 Y-0.98500
X0.24500 Y-0.98600
X0.24300 Y-0.98600
X0.24300 Y-0.98700
X0.24100 Y-0.98700
X0.24100 Y-0.98800
X0.24000 Y-0.98800
X0.24000 Y-0.98900
X0.23900 Y-0.98900
X0.23900 Y-0.99000
X0.23800 Y-0.99000
X0.23800 Y-0.99200
X0.23700 Y-0.99200
X0.23700 Y-0.99300
X0.23600 Y-0.99300
X0.23600 Y-0.99400
X0.23500 Y-0.99400
X0.23500 Y-0.99600
X0.23400 Y-0.99600
X0.23400 Y-0.99800
X0.23300 Y-0.99800
X0.23300 Y-1.00000
X0.23200 Y-1.00000
X0.23200 Y-1.00200
X0.10800 Y-1.00200
X0.10800 Y-1.00100
X0.10700 Y-1.00100
X0.10700 Y-1.00000
X0.10600 Y-1.00000
X0.10600 Y-0.99800
X0.10500 Y-0.99800
X0.10500 Y-0.99700
X0.10400 Y-0.99700
X0.10400 Y-0.99600
X0.10300 Y-0.99600
X0.10300 Y-0.99500
X0.10200 Y-0.99500
X0.10200 Y-0.99400
X0.10000 Y-0.99400
X0.10000 Y-0.99300
X0.09800 Y-0.99300
X0.09800 Y-0.99200
X0.09700 Y-0.99200
X0.09700 Y-0.99100
X0.09500 Y-0.99100
X0.09500 Y-0.99000
X0.08900 Y-0.99000
X0.08900 Y-0.98900
X0.07700 Y-0.98900
X0.07700 Y-0.98800
X0.07600 Y-0.98800
X0.07600 Y-0.98700
X0.07500 Y-0.98700
X0.07500 Y-0.98600
X0.07400 Y-0.98600
X0.07400 Y-0.98500
X0.07300 Y-0.98500
X0.07300 Y-0.98400
X0.07200 Y-0.98400
X0.07200 Y-0.98300
X0.07100 Y-0.98300
X0.07100 Y-0.98200
X0.07000 Y-0.98200
X0.07000 Y-0.98100
X0.06900 Y-0.98100
X0.06900 Y-0.98000
X0.06800 Y-0.98000
X0.06800 Y-0.97900
X0.06700 Y-0.97900
X0.06700 Y-0.97800
X0.06600 Y-0.97800
X0.06600 Y-0.97700
X0.06500 Y-0.97700
X0.06500 Y-0.97600
X0.06400 Y-0.97600
X0.06400 Y-0.97500
X0.06300 Y-0.97500
X0.06300 Y-0.97400
X0.06200 Y-0.97400
X0.06200 Y-0.97300
X0.06100 Y-0.97300
X0.06100 Y-0.97200
X0.06000 Y-0.97200
X0.06000 Y-0.97100
X0.05900 Y-0.97100
X0.05900 Y-0.97000
X0.05800 Y-0.97000
X0.05800 Y-0.96900
X0.05700 Y-0.96900
X0.05700 Y-0.96800
X0.05600 Y-0.96800
X0.05600 Y-0.96700
X0.05500 Y-0.96700
X0.05500 Y-0.96600
X0.05400 Y-0.96600
X0.05400 Y-0.96500
X0.05300 Y-0.96500
X0.05300 Y-0.96400
X0.05200 Y-0.96400
X0.05200 Y-0.96300
X0.05100 Y-0.96300
X0.05100 Y-0.96200
X0.05000 Y-0.96200
X0.05000 Y-0.96100
X0.04900 Y-0.96100
X0.04900 Y-0.95200
X0.04800 Y-0.95200
X0.04800 Y-0.94900
X0.04700 Y-0.94900
X0.04700 Y-0.94500
X0.04600 Y-0.94500
X0.04600 Y-0.93900
X0.04500 Y-0.93900
X0.04500 Y-0.91000
X0.04600 Y-0.91000
X0.04600 Y-0.90400
X0.04700 Y-0.90400
X0.04700 Y-0.90000
X0.04800 Y-0.90000
X0.04800 Y-0.89700
X0.04900 Y-0.89700
X0.04900 Y-0.85200
X0.04800 Y-0.85200
X0.04800 Y-0.84900
X0.04700 Y-0.84900
X0.04700 Y-0.84500
X0.04600 Y-0.84500
X0.04600 Y-0.83900
X0.04500 Y-0.83900
X0.04500 Y-0.81000
X0.04600 Y-0.81000
X0.04600 Y-0.80400
X0.04700 Y-0.80400
X0.04700 Y-0.80000
X0.04800 Y-0.80000
X0.04800 Y-0.79700
X0.04900 Y-0.79700
X0.04900 Y-0.78800
X0.05000 Y-0.78800
X0.05000 Y-0.78700
X0.05100 Y-0.78700
X0.05100 Y-0.78600
X0.05200 Y-0.78600
X0.05200 Y-0.78500
X0.05300 Y-0.78500
X0.05300 Y-0.78400
X0.05400 Y-0.78400
X0.05400 Y-0.78300
X0.05500 Y-0.78300
X0.05500 Y-0.78200
X0.05600 Y-0.78200
X0.05600 Y-0.78100
X0.05700 Y-0.78100
X0.05700 Y-0.78000
X0.05800 Y-0.78000
X0.05800 Y-0.77900
X0.05900 Y-0.77900
X0.05900 Y-0.77800
X0.06000 Y-0.77800
X0.06000 Y-0.77700
X0.06200 Y-0.77700
X0.06200 Y-0.77600
X0.06300 Y-0.77600
X0.06300 Y-0.77500
X0.06400 Y-0.77500
X0.06400 Y-0.77400
X0.06500 Y-0.77400
X0.06500 Y-0.77300
X0.06600 Y-0.77300
X0.06600 Y-0.77200
X0.06700 Y-0.77200
X0.06700 Y-0.77100
X0.06800 Y-0.77100
X0.06800 Y-0.77000
X0.06900 Y-0.77000
X0.06900 Y-0.76900
X0.07000 Y-0.76900
X0.07000 Y-0.76800
X0.07100 Y-0.76800
X0.07100 Y-0.76700
X0.07200 Y-0.76700
X0.07200 Y-0.76600
X0.07300 Y-0.76600
X0.07300 Y-0.76500
X0.07400 Y-0.76500
X0.07400 Y-0.76400
X0.07500 Y-0.76400
X0.07500 Y-0.76300
X0.07600 Y-0.76300
X0.07600 Y-0.76200
X0.07700 Y-0.76200
X0.07700 Y-0.76100
X0.07800 Y-0.76100
X0.07800 Y-0.76000
X0.11100 Y-0.76000
X0.11100 Y-0.68900
X0.07700 Y-0.68900
X0.07700 Y-0.68800
X0.07600 Y-0.68800
X0.07600 Y-0.68700
X0.07500 Y-0.68700
X0.07500 Y-0.68600
X0.07400 Y-0.68600
X0.07400 Y-0.68500
X0.07300 Y-0.68500
X0.07300 Y-0.68400
X0.07200 Y-0.68400
X0.07200 Y-0.68300
X0.07100 Y-0.68300
X0.07100 Y-0.68200
X0.07000 Y-0.68200
X0.07000 Y-0.68100
X0.06900 Y-0.68100
X0.06900 Y-0.68000
X0.06800 Y-0.68000
X0.06800 Y-0.67900
X0.06700 Y-0.67900
X0.06700 Y-0.67800
X0.06600 Y-0.67800
X0.06600 Y-0.67700
X0.06500 Y-0.67700
X0.06500 Y-0.67600
X0.06400 Y-0.67600
X0.06400 Y-0.67500
X0.06300 Y-0.67500
X0.06300 Y-0.67400
X0.06200 Y-0.67400
X0.06200 Y-0.67300
X0.06100 Y-0.67300
X0.06100 Y-0.67200
X0.06000 Y-0.67200
X0.06000 Y-0.67100
X0.05900 Y-0.67100
X0.05900 Y-0.67000
X0.05800 Y-0.67000
X0.05800 Y-0.66900
X0.05700 Y-0.66900
X0.05700 Y-0.66800
X0.05600 Y-0.66800
X0.05600 Y-0.66700
X0.05500 Y-0.66700
X0.05500 Y-0.66600
X0.05400 Y-0.66600
X0.05400 Y-0.66500
X0.05300 Y-0.66500
X0.05300 Y-0.66400
X0.05200 Y-0.66400
X0.05200 Y-0.66300
X0.05100 Y-0.66300
X0.05100 Y-0.66200
X0.05000 Y-0.66200
X0.05000 Y-0.66100
X0.04900 Y-0.66100
X0.04900 Y-0.66000
X0.04800 Y-0.66000
X0.04800 Y-0.65900
X0.04700 Y-0.65900
X0.04700 Y-0.65800
X0.04600 Y-0.65800
X0.04600 Y-0.65700
X0.04500 Y-0.65700
X0.04500 Y-0.65600
X0.04400 Y-0.65600
X0.04400 Y-0.65500
X0.04300 Y-0.65500
X0.04300 Y-0.65400
X0.04200 Y-0.65400
X0.04200 Y-0.65300
X0.04100 Y-0.65300
X0.04100 Y-0.65200
X0.04000 Y-0.65200
X0.04000 Y-0.65100
X0.03900 Y-0.65100
X0.03900 Y-0.65000
X0.03800 Y-0.65000
X0.03800 Y-0.64900
X0.03700 Y-0.64900
X0.03700 Y-0.64800
X0.03600 Y-0.64800
X0.03600 Y-0.64700
X0.03500 Y-0.64700
X0.03500 Y-0.64600
X0.03400 Y-0.64600
X0.03400 Y-0.64500
X0.03300 Y-0.64500
X0.03300 Y-0.64400
X0.03200 Y-0.64400
X0.03200 Y-0.64300
X0.03100 Y-0.64300
X0.03100 Y-0.64200
X0.03000 Y-0.64200
X0.03000 Y-0.64100
X0.02900 Y-0.64100
X0.02900 Y-0.64000
X0.02800 Y-0.64000
X0.02800 Y-0.63900
X0.02700 Y-0.63900
X0.02700 Y-0.63800
X0.02600 Y-0.63800
X0.02600 Y-0.63700
X0.02500 Y-0.63700
X0.02500 Y-0.63600
X0.02400 Y-0.63600
X0.02400 Y-0.63500
X0.02300 Y-0.63500
X0.02300 Y-0.63400
X0.02200 Y-0.63400
X0.02200 Y-0.63300
X0.02100 Y-0.63300
X0.02100 Y-0.63200
X0.02000 Y-0.63200
X0.02000 Y-0.63100
X0.01900 Y-0.63100
X0.01900 Y-0.63000
X0.01800 Y-0.63000
X0.01800 Y-0.62900
X0.01700 Y-0.62900
X0.01700 Y-0.62800
X0.01600 Y-0.62800
X0.01600 Y-0.62700
X0.01500 Y-0.62700
X0.01500 Y-0.62600
X0.01400 Y-0.62600
X0.01400 Y-0.62500
X0.01300 Y-0.62500
X0.01300 Y-0.62400
X0.01200 Y-0.62400
X0.01200 Y-0.62300
X0.01100 Y-0.62300
X0.01100 Y-0.62200
X0.01000 Y-0.62200
X0.01000 Y-0.62100
X0.00900 Y-0.62100
X0.00900 Y-0.62000
X0.00800 Y-0.62000
X0.00800 Y-0.61900
X0.00700 Y-0.61900
X0.00700 Y-0.61800
X0.00600 Y-0.61800
X0.00600 Y-0.61700
X0.00500 Y-0.61700
X0.00500 Y-0.61600
X0.00400 Y-0.61600
X0.00400 Y-0.61500
X0.00500 Y-0.61500
X0.00500 Y-0.61400
X0.00600 Y-0.61400
X0.00600 Y-0.61300
X0.00800 Y-0.61300
X0.00800 Y-0.61200
X0.01000 Y-0.61200
X0.01000 Y-0.61100
X0.01100 Y-0.61100
X0.01100 Y-0.61000
X0.01200 Y-0.61000
X0.01200 Y-0.60900
X0.01300 Y-0.60900
X0.01300 Y-0.60700
X0.01400 Y-0.60700
X0.01400 Y-0.60600
X0.01500 Y-0.60600
X0.01500 Y-0.60500
X0.01600 Y-0.60500
X0.01600 Y-0.60300
X0.01700 Y-0.60300
X0.01700 Y-0.60100
X0.01800 Y-0.60100
X0.01800 Y-0.59900
X0.01900 Y-0.59900
X0.01900 Y-0.59600
X0.02000 Y-0.59600
X0.02000 Y-0.59000
X0.02100 Y-0.59000
X0.02100 Y-0.56700
X0.02200 Y-0.56700
X0.02200 Y-0.56600
X0.02300 Y-0.56600
X0.02300 Y-0.56500
X0.02400 Y-0.56500
X0.02400 Y-0.56400
X0.02500 Y-0.56400
X0.02500 Y-0.56300
X0.02600 Y-0.56300
X0.02600 Y-0.56200
X0.02700 Y-0.56200
X0.02700 Y-0.56100
X0.02800 Y-0.56100
X0.02800 Y-0.56000
X0.02900 Y-0.56000
X0.02900 Y-0.55900
X0.03000 Y-0.55900
X0.03000 Y-0.55800
X0.03100 Y-0.55800
X0.03100 Y-0.55700
X0.03200 Y-0.55700
X0.03200 Y-0.55600
X0.03300 Y-0.55600
X0.03300 Y-0.55500
X0.03400 Y-0.55500
X0.03400 Y-0.55400
X0.03500 Y-0.55400
X0.03500 Y-0.55300
X0.03600 Y-0.55300
X0.03600 Y-0.55200
X0.03700 Y-0.55200
X0.03700 Y-0.55100
X0.03800 Y-0.55100
X0.03800 Y-0.55000
X0.03900 Y-0.55000
X0.03900 Y-0.54900
X0.04000 Y-0.54900
X0.04000 Y-0.54800
X0.04100 Y-0.54800
X0.04100 Y-0.54700
X0.04200 Y-0.54700
X0.04200 Y-0.54600
X0.04300 Y-0.54600
X0.04300 Y-0.54500
X0.04400 Y-0.54500
X0.04400 Y-0.54400
X0.04500 Y-0.54400
X0.04500 Y-0.54300
X0.04600 Y-0.54300
X0.04600 Y-0.54200
X0.04700 Y-0.54200
X0.04700 Y-0.54100
X0.04800 Y-0.54100
X0.04800 Y-0.54000
X0.04900 Y-0.54000
X0.04900 Y-0.53900
X0.05000 Y-0.53900
X0.05000 Y-0.53800
X0.05100 Y-0.53800
X0.05100 Y-0.53700
X0.05200 Y-0.53700
X0.05200 Y-0.53600
X0.05300 Y-0.53600
X0.05300 Y-0.53500
X0.05400 Y-0.53500
X0.05400 Y-0.53400
X0.05500 Y-0.53400
X0.05500 Y-0.53300
X0.05600 Y-0.53300
X0.05600 Y-0.53200
X0.05700 Y-0.53200
X0.05700 Y-0.53100
X0.05800 Y-0.53100
X0.05800 Y-0.53000
X0.05900 Y-0.53000
X0.05900 Y-0.52900
X0.06000 Y-0.52900
X0.06000 Y-0.52800
X0.06100 Y-0.52800
X0.06100 Y-0.52700
X0.06200 Y-0.52700
X0.06200 Y-0.52600
X0.06300 Y-0.52600
X0.06300 Y-0.52500
X0.06400 Y-0.52500
X0.06400 Y-0.52400
X0.06500 Y-0.52400
X0.06500 Y-0.52300
X0.06600 Y-0.52300
X0.06600 Y-0.52200
X0.06700 Y-0.52200
X0.06700 Y-0.52100
X0.06800 Y-0.52100
X0.06800 Y-0.52000
X0.06900 Y-0.52000
X0.06900 Y-0.51900
X0.07000 Y-0.51900
X0.07000 Y-0.51800
X0.07100 Y-0.51800
X0.07100 Y-0.51700
X0.07200 Y-0.51700
X0.07200 Y-0.51600
X0.07300 Y-0.51600
X0.07300 Y-0.51500
X0.07400 Y-0.51500
X0.07400 Y-0.51400
X0.07500 Y-0.51400
X0.07500 Y-0.51300
X0.07600 Y-0.51300
X0.07600 Y-0.51200
X0.07700 Y-0.51200
X0.07700 Y-0.51100
X0.07800 Y-0.51100
X0.07800 Y-0.51000
X0.07900 Y-0.51000
X0.07900 Y-0.50900
X0.08000 Y-0.50900
X0.08000 Y-0.50800
X0.08100 Y-0.50800
X0.08100 Y-0.50700
X0.08200 Y-0.50700
X0.08200 Y-0.50600
X0.08300 Y-0.50600
X0.08300 Y-0.50500
X0.08400 Y-0.50500
X0.08400 Y-0.50400
X0.08500 Y-0.50400
X0.08500 Y-0.50300
X0.08600 Y-0.50300
X0.08600 Y-0.50200
X0.08700 Y-0.50200
X0.08700 Y-0.50100
X0.08800 Y-0.50100
X0.08800 Y-0.50000
X0.08900 Y-0.50000
X0.08900 Y-0.49900
X0.09000 Y-0.49900
X0.09000 Y-0.49800
X0.09100 Y-0.49800
X0.09100 Y-0.49700
X0.09200 Y-0.49700
X0.09200 Y-0.49600
X0.09300 Y-0.49600
X0.09300 Y-0.49500
X0.09400 Y-0.49500
X0.09400 Y-0.49400
X0.09500 Y-0.49400
X0.09500 Y-0.49300
X0.09600 Y-0.49300
X0.09600 Y-0.49200
X0.09700 Y-0.49200
X0.09700 Y-0.49100
X0.09800 Y-0.49100
X0.09800 Y-0.49000
X0.09900 Y-0.49000
X0.09900 Y-0.48900
X0.10000 Y-0.48900
X0.10000 Y-0.48800
X0.10100 Y-0.48800
X0.10100 Y-0.48700
X0.10200 Y-0.48700
X0.10200 Y-0.48600
X0.10300 Y-0.48600
X0.10300 Y-0.48500
X0.10400 Y-0.48500
X0.10400 Y-0.48400
X0.10500 Y-0.48400
X0.10500 Y-0.48300
X0.10600 Y-0.48300
X0.10600 Y-0.48200
X0.10700 Y-0.48200
X0.10700 Y-0.48100
X0.10800 Y-0.48100
X0.10800 Y-0.48000
X0.10900 Y-0.48000
X0.10900 Y-0.47900
X0.11000 Y-0.47900
X0.11000 Y-0.47800
X0.11100 Y-0.47800
X0.11100 Y-0.47700
X0.11200 Y-0.47700
X0.11200 Y-0.47600
X0.11300 Y-0.47600
X0.11300 Y-0.47500
X0.11400 Y-0.47500
X0.11400 Y-0.47400
X0.11500 Y-0.47400
X0.11500 Y-0.47300
X0.11600 Y-0.47300
X0.11600 Y-0.47200
X0.11700 Y-0.47200
X0.11700 Y-0.47100
X0.11800 Y-0.47100
X0.11800 Y-0.47000
X0.11900 Y-0.47000
X0.11900 Y-0.46900
X0.12000 Y-0.46900
X0.12000 Y-0.46800
X0.12100 Y-0.46800
X0.12100 Y-0.46700
X0.12200 Y-0.46700
X0.12200 Y-0.46600
X0.12300 Y-0.46600
X0.12300 Y-0.46500
X0.12400 Y-0.46500
X0.12400 Y-0.46400
X0.12500 Y-0.46400
X0.12500 Y-0.46300
X0.12600 Y-0.46300
X0.12600 Y-0.46200
X0.12700 Y-0.46200
X0.12700 Y-0.46100
X0.12800 Y-0.46100
X0.12800 Y-0.46000
X0.12900 Y-0.46000
X0.12900 Y-0.45900
X0.13000 Y-0.45900
X0.13000 Y-0.45800
X0.13100 Y-0.45800
X0.13100 Y-0.45700
X0.13200 Y-0.45700
X0.13200 Y-0.45600
X0.13300 Y-0.45600
X0.13300 Y-0.45500
X0.13400 Y-0.45500
X0.13400 Y-0.45400
X0.13500 Y-0.45400
X0.13500 Y-0.45300
X0.13600 Y-0.45300
X0.13600 Y-0.45200
X0.13700 Y-0.45200
X0.13700 Y-0.45100
X0.13800 Y-0.45100
X0.13800 Y-0.45000
X0.13900 Y-0.45000
X0.13900 Y-0.44900
X0.14000 Y-0.44900
X0.14000 Y-0.44800
X0.15700 Y-0.44800
X0.15700 Y-0.44900
X0.15800 Y-0.44900
X0.15800 Y-0.45100
X0.15900 Y-0.45100
X0.15900 Y-0.45300
X0.16000 Y-0.45300
X0.16000 Y-0.45500
X0.16100 Y-0.45500
X0.16100 Y-0.45600
X0.16200 Y-0.45600
X0.16200 Y-0.45700
X0.16300 Y-0.45700
X0.16300 Y-0.45900
X0.16400 Y-0.45900
X0.16400 Y-0.46000
X0.16500 Y-0.46000
X0.16500 Y-0.46100
X0.16600 Y-0.46100
X0.16600 Y-0.46200
X0.16800 Y-0.46200
X0.16800 Y-0.46300
X0.17000 Y-0.46300
X0.17000 Y-0.46400
X0.17100 Y-0.46400
X0.17100 Y-0.46500
X0.17300 Y-0.46500
X0.17300 Y-0.46600
X0.17500 Y-0.46600
X0.17500 Y-0.46700
X0.17700 Y-0.46700
X0.17700 Y-0.46800
X0.18100 Y-0.46800
X0.18100 Y-0.46900
X0.18700 Y-0.46900
X0.18700 Y-0.47000
X0.21400 Y-0.47000
X0.21400 Y-0.46900
X0.22000 Y-0.46900
X0.22000 Y-0.46800
X0.22400 Y-0.46800
X0.22400 Y-0.46700
X0.22600 Y-0.46700
X0.22600 Y-0.46600
X0.22800 Y-0.46600
X0.22800 Y-0.46700
X0.22900 Y-0.46700
X0.22900 Y-0.46800
X0.23000 Y-0.46800
X0.23000 Y-0.46900
X0.23100 Y-0.46900
X0.23100 Y-0.47000
X0.23200 Y-0.47000
X0.23200 Y-0.47100
X0.23300 Y-0.47100
X0.23300 Y-0.47200
X0.23400 Y-0.47200
X0.23400 Y-0.47300
X0.23500 Y-0.47300
X0.23500 Y-0.47400
X0.23600 Y-0.47400
X0.23600 Y-0.47500
X0.23700 Y-0.47500
X0.23700 Y-0.47600
X0.23800 Y-0.47600
X0.23800 Y-0.47700
X0.23900 Y-0.47700
X0.23900 Y-0.47800
X0.24000 Y-0.47800
X0.24000 Y-0.47900
X0.24100 Y-0.47900
X0.24100 Y-0.48000
X0.24200 Y-0.48000
X0.24200 Y-0.48100
X0.24300 Y-0.48100
X0.24300 Y-0.48200
X0.24400 Y-0.48200
X0.24400 Y-0.48300
X0.24500 Y-0.48300
X0.24500 Y-0.48400
X0.24600 Y-0.48400
X0.24600 Y-0.48500
X0.24700 Y-0.48500
X0.24700 Y-0.48600
X0.24800 Y-0.48600
X0.24800 Y-0.48700
X0.24900 Y-0.48700
X0.24900 Y-0.48800
X0.25000 Y-0.48800
X0.25000 Y-0.48900
X0.25100 Y-0.48900
X0.25100 Y-0.49000
X0.25200 Y-0.49000
X0.25200 Y-0.49100
X0.25300 Y-0.49100
X0.25300 Y-0.49200
X0.25400 Y-0.49200
X0.25400 Y-0.49300
X0.25500 Y-0.49300
X0.25500 Y-0.49400
X0.25600 Y-0.49400
X0.25600 Y-0.49500
X0.25700 Y-0.49500
X0.25700 Y-0.49600
X0.25800 Y-0.49600
X0.25800 Y-0.49700
X0.25900 Y-0.49700
X0.25900 Y-0.49800
X0.26000 Y-0.49800
X0.26000 Y-0.49900
X0.26100 Y-0.49900
X0.26100 Y-0.50000
X0.26200 Y-0.50000
X0.26200 Y-0.50100
X0.26300 Y-0.50100
X0.26300 Y-0.50200
X0.26400 Y-0.50200
X0.26400 Y-0.50300
X0.26500 Y-0.50300
X0.26500 Y-0.50400
X0.26600 Y-0.50400
X0.26600 Y-0.50500
X0.26700 Y-0.50500
X0.26700 Y-0.50600
X0.26800 Y-0.50600
X0.26800 Y-0.50700
X0.26900 Y-0.50700
X0.26900 Y-0.50800
X0.27000 Y-0.50800
X0.27000 Y-0.50900
X0.27100 Y-0.50900
X0.27100 Y-0.51000
X0.27200 Y-0.51000
X0.27200 Y-0.51100
X0.27300 Y-0.51100
X0.27300 Y-0.51200
X0.27400 Y-0.51200
X0.27400 Y-0.51300
X0.27500 Y-0.51300
X0.27500 Y-0.51400
X0.27600 Y-0.51400
X0.27600 Y-0.51500
X0.27700 Y-0.51500
X0.27700 Y-0.51600
X0.27800 Y-0.51600
X0.27800 Y-0.51700
X0.27900 Y-0.51700
X0.27900 Y-0.51800
X0.28000 Y-0.51800
X0.28000 Y-0.54000
X0.28100 Y-0.54000
X0.28100 Y-0.54500
X0.28200 Y-0.54500
X0.28200 Y-0.54900
X0.28300 Y-0.54900
X0.28300 Y-0.55100
X0.28400 Y-0.55100
X0.28400 Y-0.55300
X0.28500 Y-0.55300
X0.28500 Y-0.55500
X0.28600 Y-0.55500
X0.28600 Y-0.55600
X0.28700 Y-0.55600
X0.28700 Y-0.55700
X0.28800 Y-0.55700
X0.28800 Y-0.55900
X0.28900 Y-0.55900
X0.28900 Y-0.56000
X0.29000 Y-0.56000
X0.29000 Y-0.56100
X0.29100 Y-0.56100
X0.29100 Y-0.56200
X0.29300 Y-0.56200
X0.29300 Y-0.56300
X0.29500 Y-0.56300
X0.29500 Y-0.56400
X0.29600 Y-0.56400
X0.29600 Y-0.56500
X0.29800 Y-0.56500
X0.29800 Y-0.56600
X0.30000 Y-0.56600
X0.30000 Y-0.56700
X0.30200 Y-0.56700
X0.30200 Y-0.56800
X0.30600 Y-0.56800
X0.30600 Y-0.56900
X0.31200 Y-0.56900
X0.31200 Y-0.57000
X0.33900 Y-0.57000
X0.33900 Y-0.56900
X0.34500 Y-0.56900
X0.34500 Y-0.56800
X0.34900 Y-0.56800
X0.34900 Y-0.56700
X0.35100 Y-0.56700
X0.35100 Y-0.56600
X0.35300 Y-0.56600
X0.35300 Y-0.56500
X0.35500 Y-0.56500
X0.35500 Y-0.56400
X0.35600 Y-0.56400
X0.35600 Y-0.56300
X0.35800 Y-0.56300
X0.35800 Y-0.56200
X0.36000 Y-0.56200
X0.36000 Y-0.56100
X0.36100 Y-0.56100
X0.36100 Y-0.56000
X0.36200 Y-0.56000
X0.36200 Y-0.55900
X0.36300 Y-0.55900
X0.36300 Y-0.55700
X0.36400 Y-0.55700
X0.36400 Y-0.55600
X0.36500 Y-0.55600
X0.36500 Y-0.55500
X0.36600 Y-0.55500
X0.36600 Y-0.55300
X0.36700 Y-0.55300
X0.36700 Y-0.55100
X0.36800 Y-0.55100
X0.36800 Y-0.54900
X0.36900 Y-0.54900
X0.36900 Y-0.54600
X0.37000 Y-0.54600
X0.37000 Y-0.54000
X0.37100 Y-0.54000
X0.37100 Y-0.50900
X0.37000 Y-0.50900
X0.37000 Y-0.50300
X0.36900 Y-0.50300
X0.36900 Y-0.50000
X0.36800 Y-0.50000
X0.36800 Y-0.49800
X0.36700 Y-0.49800
X0.36700 Y-0.49600
X0.36600 Y-0.49600
X0.36600 Y-0.49400
X0.36500 Y-0.49400
X0.36500 Y-0.49300
X0.36400 Y-0.49300
X0.36400 Y-0.49200
X0.36300 Y-0.49200
X0.36300 Y-0.49000
X0.36200 Y-0.49000
X0.36200 Y-0.48900
X0.36100 Y-0.48900
X0.36100 Y-0.48800
X0.36000 Y-0.48800
X0.36000 Y-0.48700
X0.35800 Y-0.48700
X0.35800 Y-0.48600
X0.35600 Y-0.48600
X0.35600 Y-0.48500
X0.35500 Y-0.48500
X0.35500 Y-0.48400
X0.35300 Y-0.48400
X0.35300 Y-0.48300
X0.35100 Y-0.48300
X0.35100 Y-0.48200
X0.34900 Y-0.48200
X0.34900 Y-0.48100
X0.34500 Y-0.48100
X0.34500 Y-0.48000
X0.33900 Y-0.48000
X0.33900 Y-0.47900
X0.31700 Y-0.47900
X0.31700 Y-0.47800
X0.31600 Y-0.47800
X0.31600 Y-0.47700
X0.31500 Y-0.47700
X0.31500 Y-0.47600
X0.31400 Y-0.47600
X0.31400 Y-0.47500
X0.31300 Y-0.47500
X0.31300 Y-0.47400
X0.31200 Y-0.47400
X0.31200 Y-0.47300
X0.31100 Y-0.47300
X0.31100 Y-0.47200
X0.31000 Y-0.47200
X0.31000 Y-0.47100
X0.30900 Y-0.47100
X0.30900 Y-0.47000
X0.30800 Y-0.47000
X0.30800 Y-0.46900
X0.30700 Y-0.46900
X0.30700 Y-0.46800
X0.30600 Y-0.46800
X0.30600 Y-0.46700
X0.30500 Y-0.46700
X0.30500 Y-0.46600
X0.30400 Y-0.46600
X0.30400 Y-0.46500
X0.30300 Y-0.46500
X0.30300 Y-0.46400
X0.30200 Y-0.46400
X0.30200 Y-0.46300
X0.30100 Y-0.46300
X0.30100 Y-0.46200
X0.30000 Y-0.46200
X0.30000 Y-0.46100
X0.29900 Y-0.46100
X0.29900 Y-0.46000
X0.29800 Y-0.46000
X0.29800 Y-0.45900
X0.29700 Y-0.45900
X0.29700 Y-0.45800
X0.29600 Y-0.45800
X0.29600 Y-0.45700
X0.29500 Y-0.45700
X0.29500 Y-0.45600
X0.29400 Y-0.45600
X0.29400 Y-0.45500
X0.29300 Y-0.45500
X0.29300 Y-0.45400
X0.29200 Y-0.45400
X0.29200 Y-0.45300
X0.29100 Y-0.45300
X0.29100 Y-0.45200
X0.29000 Y-0.45200
X0.29000 Y-0.45100
X0.28900 Y-0.45100
X0.28900 Y-0.45000
X0.28800 Y-0.45000
X0.28800 Y-0.44900
X0.28700 Y-0.44900
X0.28700 Y-0.44800
X0.28600 Y-0.44800
X0.28600 Y-0.44700
X0.28500 Y-0.44700
X0.28500 Y-0.44600
X0.28400 Y-0.44600
X0.28400 Y-0.44500
X0.28300 Y-0.44500
X0.28300 Y-0.44400
X0.28200 Y-0.44400
X0.28200 Y-0.44300
X0.28100 Y-0.44300
X0.28100 Y-0.44200
X0.28000 Y-0.44200
X0.28000 Y-0.44100
X0.27900 Y-0.44100
X0.27900 Y-0.44000
X0.27800 Y-0.44000
X0.27800 Y-0.43900
X0.27700 Y-0.43900
X0.27700 Y-0.43800
X0.27600 Y-0.43800
X0.27600 Y-0.43700
X0.27500 Y-0.43700
X0.27500 Y-0.43600
X0.27400 Y-0.43600
X0.27400 Y-0.43500
X0.27300 Y-0.43500
X0.27300 Y-0.43400
X0.27200 Y-0.43400
X0.27200 Y-0.43300
X0.27100 Y-0.43300
X0.27100 Y-0.43200
X0.27000 Y-0.43200
X0.27000 Y-0.43100
X0.26900 Y-0.43100
X0.26900 Y-0.43000
X0.26800 Y-0.43000
X0.26800 Y-0.42900
X0.26700 Y-0.42900
X0.26700 Y-0.42800
X0.26600 Y-0.42800
X0.26600 Y-0.42700
X0.26500 Y-0.42700
X0.26500 Y-0.42600
X0.26400 Y-0.42600
X0.26400 Y-0.42500
X0.26300 Y-0.42500
X0.26300 Y-0.42400
X0.26200 Y-0.42400
X0.26200 Y-0.42300
X0.26100 Y-0.42300
X0.26100 Y-0.42200
X0.26000 Y-0.42200
X0.26000 Y-0.42100
X0.25900 Y-0.42100
X0.25900 Y-0.42000
X0.25800 Y-0.42000
X0.25800 Y-0.41900
X0.25700 Y-0.41900
X0.25700 Y-0.41800
X0.25600 Y-0.41800
X0.25600 Y-0.41700
X0.25500 Y-0.41700
X0.25500 Y-0.41600
X0.25400 Y-0.41600
X0.25400 Y-0.41500
X0.25300 Y-0.41500
X0.25300 Y-0.41400
X0.25200 Y-0.41400
X0.25200 Y-0.41300
X0.25100 Y-0.41300
X0.25100 Y-0.41200
X0.25000 Y-0.41200
X0.25000 Y-0.41100
X0.24900 Y-0.41100
X0.24900 Y-0.41000
X0.24800 Y-0.41000
X0.24800 Y-0.40900
X0.24700 Y-0.40900
X0.24700 Y-0.40800
X0.24600 Y-0.40800
X0.24600 Y-0.40700
X0.24500 Y-0.40700
X0.24500 Y-0.40300
X0.24400 Y-0.40300
X0.24400 Y-0.40000
X0.24300 Y-0.40000
X0.24300 Y-0.39800
X0.24200 Y-0.39800
X0.24200 Y-0.39600
X0.24100 Y-0.39600
X0.24100 Y-0.39400
X0.24000 Y-0.39400
X0.24000 Y-0.39300
X0.23900 Y-0.39300
X0.23900 Y-0.39200
X0.23800 Y-0.39200
X0.23800 Y-0.39000
X0.23700 Y-0.39000
X0.23700 Y-0.38900
X0.23600 Y-0.38900
X0.23600 Y-0.38800
X0.23500 Y-0.38800
X0.23500 Y-0.38700
X0.23300 Y-0.38700
X0.23300 Y-0.38600
X0.23100 Y-0.38600
X0.23100 Y-0.38500
X0.23000 Y-0.38500
X0.23000 Y-0.38400
X0.22800 Y-0.38400
X0.22800 Y-0.38300
X0.22600 Y-0.38300
X0.22600 Y-0.38200
X0.22400 Y-0.38200
X0.22400 Y-0.38100
X0.22300 Y-0.38100
X0.22300 Y0.26200
X0.22200 Y0.26200
X0.22200 Y0.26400
X0.22100 Y0.26400
X0.22100 Y0.26700
X0.22000 Y0.26700
X0.22000 Y0.26900
X0.21900 Y0.26900
X0.21900 Y0.27000
X0.21800 Y0.27000
X0.21800 Y0.27100
X0.21700 Y0.27100
X0.21700 Y0.27200
X0.21600 Y0.27200
X0.21600 Y0.27300
X0.21500 Y0.27300
X0.21500 Y0.27400
X0.21400 Y0.27400
X0.21400 Y0.27500
X0.21300 Y0.27500
X0.21300 Y0.27600
X0.21200 Y0.27600
X0.21200 Y0.27700
X0.21100 Y0.27700
X0.21100 Y0.27800
X0.21000 Y0.27800
X0.21000 Y0.27900
X0.20900 Y0.27900
X0.20900 Y0.28000
X0.20800 Y0.28000
X0.20800 Y0.28100
X0.20700 Y0.28100
X0.20700 Y0.28200
X0.20600 Y0.28200
X0.20600 Y0.28300
X0.20500 Y0.28300
X0.20500 Y0.28400
X0.20400 Y0.28400
X0.20400 Y0.28500
X0.20300 Y0.28500
X0.20300 Y0.28600
X0.20200 Y0.28600
X0.20200 Y0.28700
X0.20100 Y0.28700
X0.20100 Y0.28800
X0.20000 Y0.28800
X0.20000 Y0.28900
X0.19900 Y0.28900
X0.19900 Y0.29000
X0.19800 Y0.29000
X0.19800 Y0.29100
X0.19700 Y0.29100
X0.19700 Y0.29200
X0.19600 Y0.29200
X0.19600 Y0.29300
X0.19500 Y0.29300
X0.19500 Y0.29400
X0.19400 Y0.29400
X0.19400 Y0.29500
X0.19300 Y0.29500
X0.19300 Y0.29600
X0.19200 Y0.29600
X0.19200 Y0.29700
X0.19100 Y0.29700
X0.19100 Y0.29800
X0.19000 Y0.29800
X0.19000 Y0.29900
X0.18900 Y0.29900
X0.18900 Y0.30000
X0.18800 Y0.30000
X0.18800 Y0.30100
X0.18700 Y0.30100
X0.18700 Y0.30200
X0.18600 Y0.30200
X0.18600 Y0.30300
X0.18500 Y0.30300
X0.18500 Y0.30400
X0.18400 Y0.30400
X0.18400 Y0.30500
X0.18300 Y0.30500
X0.18300 Y0.30600
X0.18200 Y0.30600
X0.18200 Y0.30700
X0.18100 Y0.30700
X0.18100 Y0.30800
X0.18000 Y0.30800
X0.18000 Y0.30900
X0.17900 Y0.30900
X0.17900 Y0.31000
X0.17800 Y0.31000
X0.17800 Y0.31100
X0.17700 Y0.31100
X0.17700 Y0.31200
X0.17600 Y0.31200
X0.17600 Y0.31300
X0.17500 Y0.31300
X0.17500 Y0.31400
X0.17400 Y0.31400
X0.17400 Y0.31500
X0.17300 Y0.31500
X0.17300 Y0.31600
X0.17200 Y0.31600
X0.17200 Y0.31700
X0.17100 Y0.31700
X0.17100 Y0.31800
X0.17000 Y0.31800
X0.17000 Y0.31900
X0.16900 Y0.31900
X0.16900 Y0.32000
X0.16800 Y0.32000
X0.16800 Y0.32100
X0.16700 Y0.32100
X0.16700 Y0.32200
X0.16600 Y0.32200
X0.16600 Y0.32300
X0.16500 Y0.32300
X0.16500 Y0.32400
X0.16400 Y0.32400
X0.16400 Y0.32500
X0.16300 Y0.32500
X0.16300 Y0.32600
X0.16200 Y0.32600
X0.16200 Y0.32700
X0.16100 Y0.32700
X0.16100 Y0.32800
X0.16000 Y0.32800
X0.16000 Y0.32900
X0.15900 Y0.32900
X0.15900 Y0.33000
X0.15800 Y0.33000
X0.15800 Y0.33100
X0.15700 Y0.33100
X0.15700 Y0.33200
X0.15600 Y0.33200
X0.15600 Y0.33300
X0.15500 Y0.33300
X0.15500 Y0.33400
X0.15400 Y0.33400
X0.15400 Y0.33500
X0.15300 Y0.33500
X0.15300 Y0.33600
X0.15200 Y0.33600
X0.15200 Y0.33700
X0.15100 Y0.33700
X0.15100 Y0.33800
X0.15000 Y0.33800
X0.15000 Y0.33900
X0.14900 Y0.33900
X0.14900 Y0.34000
X0.14800 Y0.34000
X0.14800 Y0.34100
X0.14700 Y0.34100
X0.14700 Y0.34200
X0.14600 Y0.34200
X0.14600 Y0.34300
X0.14500 Y0.34300
X0.14500 Y0.34400
X0.14400 Y0.34400
X0.14400 Y0.34500
X0.14300 Y0.34500
X0.14300 Y0.34600
X0.14200 Y0.34600
X0.14200 Y0.34700
X0.14100 Y0.34700
X0.14100 Y0.34800
X0.14000 Y0.34800
X0.14000 Y0.34900
X0.13900 Y0.34900
X0.13900 Y0.35000
X0.13800 Y0.35000
X0.13800 Y0.35100
X0.13700 Y0.35100
X0.13700 Y0.35200
X0.13600 Y0.35200
X0.13600 Y0.35300
X0.13500 Y0.35300
X0.13500 Y0.35400
X0.13400 Y0.35400
X0.13400 Y0.35500
X0.13300 Y0.35500
X0.13300 Y0.35600
X0.13200 Y0.35600
X0.13200 Y0.35700
X0.13100 Y0.35700
X0.13100 Y0.35800
X0.13000 Y0.35800
X0.13000 Y0.35900
X0.12900 Y0.35900
X0.12900 Y0.36000
X0.12800 Y0.36000
X0.12800 Y0.36100
X0.12700 Y0.36100
X0.12700 Y0.36200
X0.12600 Y0.36200
X0.12600 Y0.36300
X0.12500 Y0.36300
X0.12500 Y0.36400
X0.12400 Y0.36400
X0.12400 Y0.36500
X0.12300 Y0.36500
X0.12300 Y0.36600
X0.12200 Y0.36600
X0.12200 Y0.36700
X0.12100 Y0.36700
X0.12100 Y0.36800
X0.12000 Y0.36800
X0.12000 Y0.36900
X0.11900 Y0.36900
X0.11900 Y0.37000
X0.11800 Y0.37000
X0.11800 Y0.37100
X0.11700 Y0.37100
X0.11700 Y0.37200
X0.11600 Y0.37200
X0.11600 Y0.37300
X0.11500 Y0.37300
X0.11500 Y0.37400
X0.11400 Y0.37400
X0.11400 Y0.37500
X0.11300 Y0.37500
X0.11300 Y0.37600
X0.11200 Y0.37600
X0.11200 Y0.37700
X0.11100 Y0.37700
X0.11100 Y0.38900
X0.11000 Y0.38900
X0.11000 Y0.39400
X0.10900 Y0.39400
X0.10900 Y0.39700
X0.10800 Y0.39700
X0.10800 Y0.39900
X0.10700 Y0.39900
X0.10700 Y0.40000
X0.10600 Y0.40000
X0.10600 Y0.40200
X0.10500 Y0.40200
X0.10500 Y0.40300
X0.10400 Y0.40300
X0.10400 Y0.40400
X0.10300 Y0.40400
X0.10300 Y0.40500
X0.10200 Y0.40500
X0.10200 Y0.40600
X0.10000 Y0.40600
X0.10000 Y0.40700
X0.09800 Y0.40700
X0.09800 Y0.40800
X0.09700 Y0.40800
X0.09700 Y0.40900
X0.09500 Y0.40900
X0.09500 Y0.41000
X0.08900 Y0.41000
X0.08900 Y0.41100
X0.07700 Y0.41100
X0.07700 Y0.41200
X0.07600 Y0.41200
X0.07600 Y0.41300
X0.07500 Y0.41300
X0.07500 Y0.41400
X0.07400 Y0.41400
X0.07400 Y0.41500
X0.07300 Y0.41500
X0.07300 Y0.41600
X0.07200 Y0.41600
X0.07200 Y0.41700
X0.07100 Y0.41700
X0.07100 Y0.41800
X0.07000 Y0.41800
X0.07000 Y0.41900
X0.06900 Y0.41900
X0.06900 Y0.42000
X0.06800 Y0.42000
X0.06800 Y0.42100
X0.06700 Y0.42100
X0.06700 Y0.42200
X0.06600 Y0.42200
X0.06600 Y0.42300
X0.06500 Y0.42300
X0.06500 Y0.42400
X0.06400 Y0.42400
X0.06400 Y0.42500
X0.06300 Y0.42500
X0.06300 Y0.42600
X0.06200 Y0.42600
X0.06200 Y0.42700
X0.06100 Y0.42700
X0.06100 Y0.42800
X0.06000 Y0.42800
X0.06000 Y0.42900
X0.05900 Y0.42900
X0.05900 Y0.43000
X0.05800 Y0.43000
X0.05800 Y0.43100
X0.05700 Y0.43100
X0.05700 Y0.43200
X0.05600 Y0.43200
X0.05600 Y0.43300
X0.05500 Y0.43300
X0.05500 Y0.43400
X0.05400 Y0.43400
X0.05400 Y0.43500
X0.05300 Y0.43500
X0.05300 Y0.43600
X0.05200 Y0.43600
X0.05200 Y0.43700
X0.05100 Y0.43700
X0.05100 Y0.43800
X0.05000 Y0.43800
X0.05000 Y0.44700
X0.04900 Y0.44700
X0.04900 Y0.45000
X0.04800 Y0.45000
X0.04800 Y0.45400
X0.04700 Y0.45400
X0.04700 Y0.45800
X0.04600 Y0.45800
X0.04600 Y0.46700
X0.04500 Y0.46700
X0.04500 Y0.48400
X0.04600 Y0.48400
X0.04600 Y0.49300
X0.04700 Y0.49300
X0.04700 Y0.49700
X0.04800 Y0.49700
X0.04800 Y0.50100
X0.04900 Y0.50100
X0.04900 Y0.50400
X0.05000 Y0.50400
X0.05000 Y0.54700
X0.04900 Y0.54700
X0.04900 Y0.55000
X0.04800 Y0.55000
X0.04800 Y0.55400
X0.04700 Y0.55400
X0.04700 Y0.55800
X0.04600 Y0.55800
X0.04600 Y0.56700
X0.04500 Y0.56700
X0.04500 Y0.58400
X0.04600 Y0.58400
X0.04600 Y0.59300
X0.04700 Y0.59300
X0.04700 Y0.59700
X0.04800 Y0.59700
X0.04800 Y0.60100
X0.04900 Y0.60100
X0.04900 Y0.60400
X0.05000 Y0.60400
X0.05000 Y0.61200
X0.05100 Y0.61200
X0.05100 Y0.61300
X0.05200 Y0.61300
X0.05200 Y0.61400
X0.05300 Y0.61400
X0.05300 Y0.61500
X0.05400 Y0.61500
X0.05400 Y0.61600
X0.05500 Y0.61600
X0.05500 Y0.61700
X0.05600 Y0.61700
X0.05600 Y0.61800
X0.05700 Y0.61800
X0.05700 Y0.61900
X0.05800 Y0.61900
X0.05800 Y0.62000
X0.05900 Y0.62000
X0.05900 Y0.62100
X0.06000 Y0.62100
X0.06000 Y0.62200
X0.06100 Y0.62200
X0.06100 Y0.62300
X0.06200 Y0.62300
X0.06200 Y0.62400
X0.06300 Y0.62400
X0.06300 Y0.62500
X0.06400 Y0.62500
X0.06400 Y0.62600
X0.06500 Y0.62600
X0.06500 Y0.62700
X0.06600 Y0.62700
X0.06600 Y0.62800
X0.06700 Y0.62800
X0.06700 Y0.62900
X0.06800 Y0.62900
X0.06800 Y0.63000
X0.06900 Y0.63000
X0.06900 Y0.63100
X0.07000 Y0.63100
X0.07000 Y0.63200
X0.07100 Y0.63200
X0.07100 Y0.63300
X0.07200 Y0.63300
X0.07200 Y0.63400
X0.07300 Y0.63400
X0.07300 Y0.63500
X0.07400 Y0.63500
X0.07400 Y0.63600
X0.07500 Y0.63600
X0.07500 Y0.63700
X0.07600 Y0.63700
X0.07600 Y0.63800
X0.07700 Y0.63800
X0.07700 Y0.63900
X0.07800 Y0.63900
X0.07800 Y0.64000
X0.11100 Y0.64000
X0.11100 Y0.71100
X0.07700 Y0.71100
X0.07700 Y0.71200
X0.07600 Y0.71200
X0.07600 Y0.71300
X0.07500 Y0.71300
X0.07500 Y0.71400
X0.07400 Y0.71400
X0.07400 Y0.71500
X0.07300 Y0.71500
X0.07300 Y0.71600
X0.07200 Y0.71600
X0.07200 Y0.71700
X0.07100 Y0.71700
X0.07100 Y0.71800
X0.07000 Y0.71800
X0.07000 Y0.71900
X0.06900 Y0.71900
X0.06900 Y0.72000
X0.06800 Y0.72000
X0.06800 Y0.72100
X0.06700 Y0.72100
X0.06700 Y0.72200
X0.06600 Y0.72200
X0.06600 Y0.72300
X0.06500 Y0.72300
X0.06500 Y0.72400
X0.06400 Y0.72400
X0.06400 Y0.72500
X0.06300 Y0.72500
X0.06300 Y0.72600
X0.06200 Y0.72600
X0.06200 Y0.72700
X0.06100 Y0.72700
X0.06100 Y0.72800
X0.06000 Y0.72800
X0.06000 Y0.72900
X0.05900 Y0.72900
X0.05900 Y0.73000
X0.05800 Y0.73000
X0.05800 Y0.73100
X0.05700 Y0.73100
X0.05700 Y0.73200
X0.05600 Y0.73200
X0.05600 Y0.73300
X0.05500 Y0.73300
X0.05500 Y0.73400
X0.05400 Y0.73400
X0.05400 Y0.73500
X0.05300 Y0.73500
X0.05300 Y0.73600
X0.05200 Y0.73600
X0.05200 Y0.73700
X0.05100 Y0.73700
X0.05100 Y0.73800
X0.05000 Y0.73800
X0.05000 Y0.73900
X0.04900 Y0.73900
X0.04900 Y0.74000
X0.04800 Y0.74000
X0.04800 Y0.74100
X0.04700 Y0.74100
X0.04700 Y0.74200
X0.04600 Y0.74200
X0.04600 Y0.74300
X0.04500 Y0.74300
X0.04500 Y0.74400
X0.04400 Y0.74400
X0.04400 Y0.74500
X0.04300 Y0.74500
X0.04300 Y0.74600
X0.04200 Y0.74600
X0.04200 Y0.74700
X0.04100 Y0.74700
X0.04100 Y0.74800
X0.04000 Y0.74800
X0.04000 Y0.74900
X0.03900 Y0.74900
X0.03900 Y0.75000
X0.03800 Y0.75000
X0.03800 Y0.75100
X0.03700 Y0.75100
X0.03700 Y0.75200
X0.03600 Y0.75200
X0.03600 Y0.75300
X0.03500 Y0.75300
X0.03500 Y0.75400
X0.03400 Y0.75400
X0.03400 Y0.75500
X0.03300 Y0.75500
X0.03300 Y0.75600
X0.03200 Y0.75600
X0.03200 Y0.75700
X0.03100 Y0.75700
X0.03100 Y0.75800
X0.03000 Y0.75800
X0.03000 Y0.75900
X0.02900 Y0.75900
X0.02900 Y0.76000
X0.02800 Y0.76000
X0.02800 Y0.76100
X0.02700 Y0.76100
X0.02700 Y0.76200
X0.02600 Y0.76200
X0.02600 Y0.76300
X0.02500 Y0.76300
X0.02500 Y0.76400
X0.02400 Y0.76400
X0.02400 Y0.76500
X0.02300 Y0.76500
X0.02300 Y0.76600
X0.02200 Y0.76600
X0.02200 Y0.76700
X0.02100 Y0.76700
X0.02100 Y0.76800
X0.02000 Y0.76800
X0.02000 Y0.76900
X0.01900 Y0.76900
X0.01900 Y0.77000
X0.01800 Y0.77000
X0.01800 Y0.77100
X0.01700 Y0.77100
X0.01700 Y0.77200
X0.01600 Y0.77200
X0.01600 Y0.77300
X0.01500 Y0.77300
X0.01500 Y0.77400
X0.01400 Y0.77400
X0.01400 Y0.77500
X0.01300 Y0.77500
X0.01300 Y0.77600
X0.01200 Y0.77600
X0.01200 Y0.77700
X0.01100 Y0.77700
X0.01100 Y0.77800
X0.01000 Y0.77800
X0.01000 Y0.77900
X0.00900 Y0.77900
X0.00900 Y0.78000
X0.00800 Y0.78000
X0.00800 Y0.78100
X0.00700 Y0.78100
X0.00700 Y0.78200
X0.00600 Y0.78200
X0.00600 Y0.78300
X0.00500 Y0.78300
X0.00500 Y0.78400
X0.00400 Y0.78400
X0.00400 Y0.78500
X0.00500 Y0.78500
X0.00500 Y0.78600
X0.00600 Y0.78600
X0.00600 Y0.78700
X0.00800 Y0.78700
X0.00800 Y0.78800
X0.01000 Y0.78800
X0.01000 Y0.78900
X0.01100 Y0.78900
X0.01100 Y0.79000
X0.01200 Y0.79000
X0.01200 Y0.79100
X0.01300 Y0.79100
X0.01300 Y0.79300
X0.01400 Y0.79300
X0.01400 Y0.79400
X0.01500 Y0.79400
X0.01500 Y0.79500
X0.01600 Y0.79500
X0.01600 Y0.79700
X0.01700 Y0.79700
X0.01700 Y0.79900
X0.01800 Y0.79900
X0.01800 Y0.80100
X0.01900 Y0.80100
X0.01900 Y0.80400
X0.02000 Y0.80400
X0.02000 Y0.81000
X0.02100 Y0.81000
X0.02100 Y0.84100
X0.02000 Y0.84100
X0.02000 Y0.84700
X0.01900 Y0.84700
X0.01900 Y0.85000
X0.01800 Y0.85000
X0.01800 Y0.85200
X0.01700 Y0.85200
X0.01700 Y0.85400
X0.01600 Y0.85400
X0.01600 Y0.85600
X0.01500 Y0.85600
X0.01500 Y0.85700
X0.01400 Y0.85700
X0.01400 Y0.85800
X0.01300 Y0.85800
X0.01300 Y0.86000
X0.01200 Y0.86000
X0.01200 Y0.86100
X0.01100 Y0.86100
X0.01100 Y0.86200
X0.01000 Y0.86200
X0.01000 Y0.86300
X0.00800 Y0.86300
X0.00800 Y0.86400
X0.00600 Y0.86400
X0.00600 Y0.86500
X0.00500 Y0.86500
X0.00500 Y0.86600
X0.00300 Y0.86600
X0.00300 Y0.86700
X0.00100 Y0.86700
X0.00100 Y0.86800
X-0.00100 Y0.86800
X-0.00100 Y0.86900
X-0.00200 Y0.86900
X-0.00200 Y0.97700
X0.00100 Y0.97700
X0.00100 Y0.97800
X0.00200 Y0.97800
X0.00200 Y0.97900
X0.00400 Y0.97900
X0.00400 Y0.98000
X0.00600 Y0.98000
X0.00600 Y0.98100
X0.00800 Y0.98100
X0.00800 Y0.98200
X0.00900 Y0.98200
X0.00900 Y0.98300
X0.01100 Y0.98300
X0.01100 Y0.98400
X0.01300 Y0.98400
X0.01300 Y0.98500
X0.01400 Y0.98500
X0.01400 Y0.98600
X0.01500 Y0.98600
X0.01500 Y0.98700
X0.01600 Y0.98700
X0.01600 Y0.98800
X0.01700 Y0.98800
X0.01700 Y0.98900
X0.01800 Y0.98900
X0.01800 Y0.99000
X0.01900 Y0.99000
X0.01900 Y0.99200
X0.02000 Y0.99200
X0.02000 Y0.99400
X0.02100 Y0.99400
X0.02100 Y0.99600
X0.02200 Y0.99600
X0.02200 Y0.99700
X0.02300 Y0.99700
X0.02300 Y1.00000
X0.02400 Y1.00000
X0.02400 Y1.00200
X0.10000 Y1.00200
X0.10000 Y0.97500
X0.20100 Y0.97500
X0.20100 Y1.07600
X0.10000 Y1.07600
X0.10000 Y1.06500
G04 P0 ( dwell for no time -- G64 should not smooth over this point )
G00 Z0.08000 ( retract )

G00 X-0.16300 Y1.06500 ( rapid move to begin. )
G01 Z-0.00800 F6.00000 ( plunge. )
G04 P0 ( dwell for no time -- G64 should not smooth over this point )
X-0.16300 Y1.06500
X-0.16400 Y1.06500
X-0.16400 Y1.06400
X-0.16500 Y1.06400
X-0.16500 Y1.06300
X-0.16600 Y1.06300
X-0.16600 Y1.06200
X-0.16700 Y1.06200
X-0.16700 Y1.06100
X-0.16800 Y1.06100
X-0.16800 Y1.05900
X-0.16900 Y1.05900
X-0.16900 Y1.05700
X-0.17000 Y1.05700
X-0.17000 Y1.05500
X-0.17100 Y1.05500
X-0.17100 Y1.05400
X-0.17200 Y1.05400
X-0.17200 Y1.05000
X-0.17300 Y1.05000
X-0.17300 Y1.04800
X-0.22400 Y1.04800
X-0.22400 Y1.07600
X-0.32500 Y1.07600
X-0.32500 Y0.87500
X-0.22400 Y0.87500
X-0.22400 Y1.00200
X-0.17300 Y1.00200
X-0.17300 Y1.00100
X-0.17200 Y1.00100
X-0.17200 Y0.99700
X-0.17100 Y0.99700
X-0.17100 Y0.99600
X-0.17000 Y0.99600
X-0.17000 Y0.99400
X-0.16900 Y0.99400
X-0.16900 Y0.99200
X-0.16800 Y0.99200
X-0.16800 Y0.99100
X-0.16700 Y0.99100
X-0.16700 Y0.98900
X-0.16600 Y0.98900
X-0.16600 Y0.98800
X-0.16500 Y0.98800
X-0.16500 Y0.98700
X-0.16400 Y0.98700
X-0.16400 Y0.98600
X-0.16300 Y0.98600
X-0.16300 Y0.98500
X-0.16200 Y0.98500
X-0.16200 Y0.98400
X-0.16000 Y0.98400
X-0.16000 Y0.98300
X-0.15800 Y0.98300
X-0.15800 Y0.98200
X-0.15700 Y0.98200
X-0.15700 Y0.98100
X-0.15500 Y0.98100
X-0.15500 Y0.98000
X-0.15300 Y0.98000
X-0.15300 Y0.97900
X-0.15100 Y0.97900
X-0.15100 Y0.97800
X-0.15000 Y0.97800
X-0.15000 Y0.97700
X-0.14800 Y0.97700
X-0.14800 Y0.86800
X-0.15000 Y0.86800
X-0.15000 Y0.86700
X-0.15200 Y0.86700
X-0.15200 Y0.86600
X-0.15400 Y0.86600
X-0.15400 Y0.86500
X-0.15500 Y0.86500
X-0.15500 Y0.86400
X-0.15700 Y0.86400
X-0.15700 Y0.86300
X-0.15900 Y0.86300
X-0.15900 Y0.86200
X-0.16000 Y0.86200
X-0.16000 Y0.86100
X-0.16100 Y0.86100
X-0.16100 Y0.86000
X-0.16200 Y0.86000
X-0.16200 Y0.85800
X-0.16300 Y0.85800
X-0.16300 Y0.85700
X-0.16400 Y0.85700
X-0.16400 Y0.85600
X-0.16500 Y0.85600
X-0.16500 Y0.85400
X-0.16600 Y0.85400
X-0.16600 Y0.85200
X-0.16700 Y0.85200
X-0.16700 Y0.85000
X-0.16800 Y0.85000
X-0.16800 Y0.84600
X-0.16900 Y0.84600
X-0.16900 Y0.84100
X-0.17000 Y0.84100
X-0.17000 Y0.81000
X-0.16900 Y0.81000
X-0.16900 Y0.80500
X-0.16800 Y0.80500
X-0.16800 Y0.80100
X-0.16700 Y0.80100
X-0.16700 Y0.79900
X-0.16600 Y0.79900
X-0.16600 Y0.79700
X-0.16500 Y0.79700
X-0.16500 Y0.79500
X-0.16400 Y0.79500
X-0.16400 Y0.79400
X-0.16300 Y0.79400
X-0.16300 Y0.79300
X-0.16200 Y0.79300
X-0.16200 Y0.79100
X-0.16100 Y0.79100
X-0.16100 Y0.79000
X-0.16000 Y0.79000
X-0.16000 Y0.78900
X-0.15900 Y0.78900
X-0.15900 Y0.78800
X-0.15700 Y0.78800
X-0.15700 Y0.78700
X-0.15500 Y0.78700
X-0.15500 Y0.78600
X-0.15400 Y0.78600
X-0.15400 Y0.78500
X-0.15400 Y0.78500
X-0.15400 Y0.78400
X-0.15500 Y0.78400
X-0.15500 Y0.78300
X-0.15600 Y0.78300
X-0.15600 Y0.78200
X-0.15700 Y0.78200
X-0.15700 Y0.78100
X-0.15800 Y0.78100
X-0.15800 Y0.78000
X-0.15900 Y0.78000
X-0.15900 Y0.77900
X-0.16000 Y0.77900
X-0.16000 Y0.77800
X-0.16100 Y0.77800
X-0.16100 Y0.77700
X-0.16200 Y0.77700
X-0.16200 Y0.77600
X-0.16300 Y0.77600
