( pcb2gcode 1.1.4 )

G94     ( Inches per minute feed rate. )
G20     ( Units == INCHES.             )
G90     ( Absolute coordinates.        )
S30000  ( RPM spindle speed.           )
M3      ( Spindle on clockwise.        )

G64 P0.00500 ( set maximum deviation from commanded toolpath )

G04 P0 ( dwell for no time -- G64 should not smooth over this point )
G00 Z0.08000 ( retract )

G00 X0.25000 Y1.29000 ( rapid move to begin. )
G01 Z-0.00800 F6.00000 ( plunge. )
G04 P0 ( dwell for no time -- G64 should not smooth over this point )
X0.25000 Y1.29000
X0.25000 Y1.20000
X0.14900 Y1.20000
X0.14900 Y1.30100
X0.25000 Y1.30100
X0.25000 Y1.29000
G04 P0 ( dwell for no time -- G64 should not smooth over this point )
G00 Z0.08000 ( retract )

G00 X0.25000 Y1.19000 ( rapid move to begin. )
G01 Z-0.00800 F6.00000 ( plunge. )
G04 P0 ( dwell for no time -- G64 should not smooth over this point )
X0.25000 Y1.19000
X0.25000 Y1.10000
X0.14900 Y1.10000
X0.14900 Y1.20000
X0.25000 Y1.20000
X0.25000 Y1.19000
G04 P0 ( dwell for no time -- G64 should not smooth over this point )
G00 Z0.08000 ( retract )

G00 X-0.17500 Y1.06500 ( rapid move to begin. )
G01 Z-0.00800 F6.00000 ( plunge. )
G04 P0 ( dwell for no time -- G64 should not smooth over this point )
X-0.17500 Y1.06500
X-0.17500 Y0.97500
X-0.27600 Y0.97500
X-0.27600 Y1.07600
X-0.17500 Y1.07600
X-0.17500 Y1.06500
G04 P0 ( dwell for no time -- G64 should not smooth over this point )
G00 Z0.08000 ( retract )

G00 X-0.01200 Y1.06500 ( rapid move to begin. )
G01 Z-0.00800 F6.00000 ( plunge. )
G04 P0 ( dwell for no time -- G64 should not smooth over this point )
X-0.01200 Y1.06500
X-0.01100 Y1.06500
X-0.01100 Y1.06400
X-0.01000 Y1.06400
X-0.01000 Y1.06300
X-0.00900 Y1.06300
X-0.00900 Y1.06200
X-0.00800 Y1.06200
X-0.00800 Y1.06100
X-0.00700 Y1.06100
X-0.00700 Y1.05900
X-0.00600 Y1.05900
X-0.00600 Y1.05700
X-0.00500 Y1.05700
X-0.00500 Y1.05500
X-0.00400 Y1.05500
X-0.00400 Y1.05400
X-0.00300 Y1.05400
X-0.00300 Y1.05000
X-0.00200 Y1.05000
X-0.00200 Y1.04700
X-0.00100 Y1.04700
X-0.00100 Y1.04100
X0.00000 Y1.04100
X0.00000 Y1.01000
X-0.00100 Y1.01000
X-0.00100 Y1.00400
X-0.00200 Y1.00400
X-0.00200 Y1.00100
X-0.00300 Y1.00100
X-0.00300 Y0.99700
X-0.00400 Y0.99700
X-0.00400 Y0.99600
X-0.00500 Y0.99600
X-0.00500 Y0.99400
X-0.00600 Y0.99400
X-0.00600 Y0.99200
X-0.00700 Y0.99200
X-0.00700 Y0.99100
X-0.00800 Y0.99100
X-0.00800 Y0.98900
X-0.00900 Y0.98900
X-0.00900 Y0.98800
X-0.01000 Y0.98800
X-0.01000 Y0.98700
X-0.01100 Y0.98700
X-0.01100 Y0.98600
X-0.01200 Y0.98600
X-0.01200 Y0.98500
X-0.01300 Y0.98500
X-0.01300 Y0.98400
X-0.01500 Y0.98400
X-0.01500 Y0.98300
X-0.01700 Y0.98300
X-0.01700 Y0.98200
X-0.01800 Y0.98200
X-0.01800 Y0.98100
X-0.02000 Y0.98100
X-0.02000 Y0.98000
X-0.02200 Y0.98000
X-0.02200 Y0.97900
X-0.02400 Y0.97900
X-0.02400 Y0.97800
X-0.02500 Y0.97800
X-0.02500 Y0.97700
X-0.03100 Y0.97700
X-0.03100 Y0.97600
X-0.03700 Y0.97600
X-0.03700 Y0.97500
X-0.06400 Y0.97500
X-0.06400 Y0.97600
X-0.07000 Y0.97600
X-0.07000 Y0.97700
X-0.07600 Y0.97700
X-0.07600 Y0.97800
X-0.07700 Y0.97800
X-0.07700 Y0.97900
X-0.07900 Y0.97900
X-0.07900 Y0.98000
X-0.08100 Y0.98000
X-0.08100 Y0.98100
X-0.08300 Y0.98100
X-0.08300 Y0.98200
X-0.08400 Y0.98200
X-0.08400 Y0.98300
X-0.08600 Y0.98300
X-0.08600 Y0.98400
X-0.08800 Y0.98400
X-0.08800 Y0.98500
X-0.08900 Y0.98500
X-0.08900 Y0.98600
X-0.09000 Y0.98600
X-0.09000 Y0.98700
X-0.09100 Y0.98700
X-0.09100 Y0.98800
X-0.09200 Y0.98800
X-0.09200 Y0.98900
X-0.09300 Y0.98900
X-0.09300 Y0.99000
X-0.09400 Y0.99000
X-0.09400 Y0.99200
X-0.09500 Y0.99200
X-0.09500 Y0.99400
X-0.09600 Y0.99400
X-0.09600 Y0.99600
X-0.09700 Y0.99600
X-0.09700 Y0.99700
X-0.09800 Y0.99700
X-0.09800 Y1.00000
X-0.09900 Y1.00000
X-0.09900 Y1.00400
X-0.10000 Y1.00400
X-0.10000 Y1.01000
X-0.10100 Y1.01000
X-0.10100 Y1.04100
X-0.10000 Y1.04100
X-0.10000 Y1.04700
X-0.09900 Y1.04700
X-0.09900 Y1.05100
X-0.09800 Y1.05100
X-0.09800 Y1.05400
X-0.09700 Y1.05400
X-0.09700 Y1.05500
X-0.09600 Y1.05500
X-0.09600 Y1.05700
X-0.09500 Y1.05700
X-0.09500 Y1.05900
X-0.09400 Y1.05900
X-0.09400 Y1.06100
X-0.09300 Y1.06100
X-0.09300 Y1.06200
X-0.09200 Y1.06200
X-0.09200 Y1.06300
X-0.09100 Y1.06300
X-0.09100 Y1.06400
X-0.09000 Y1.06400
X-0.09000 Y1.06500
X-0.08900 Y1.06500
X-0.08900 Y1.06600
X-0.08800 Y1.06600
X-0.08800 Y1.06700
X-0.08600 Y1.06700
X-0.08600 Y1.06800
X-0.08400 Y1.06800
X-0.08400 Y1.06900
X-0.08300 Y1.06900
X-0.08300 Y1.07000
X-0.08100 Y1.07000
X-0.08100 Y1.07100
X-0.07900 Y1.07100
X-0.07900 Y1.07200
X-0.07700 Y1.07200
X-0.07700 Y1.07300
X-0.07600 Y1.07300
X-0.07600 Y1.07400
X-0.07000 Y1.07400
X-0.07000 Y1.07500
X-0.06400 Y1.07500
X-0.06400 Y1.07600
X-0.03700 Y1.07600
X-0.03700 Y1.07500
X-0.03100 Y1.07500
X-0.03100 Y1.07400
X-0.02500 Y1.07400
X-0.02500 Y1.07300
X-0.02400 Y1.07300
X-0.02400 Y1.07200
X-0.02200 Y1.07200
X-0.02200 Y1.07100
X-0.02000 Y1.07100
X-0.02000 Y1.07000
X-0.01800 Y1.07000
X-0.01800 Y1.06900
X-0.01700 Y1.06900
X-0.01700 Y1.06800
X-0.01500 Y1.06800
X-0.01500 Y1.06700
X-0.01300 Y1.06700
X-0.01300 Y1.06600
X-0.01200 Y1.06600
X-0.01200 Y1.06500
G04 P0 ( dwell for no time -- G64 should not smooth over this point )
G00 Z0.08000 ( retract )

G00 X0.08800 Y1.06500 ( rapid move to begin. )
G01 Z-0.00800 F6.00000 ( plunge. )
G04 P0 ( dwell for no time -- G64 should not smooth over this point )
X0.08800 Y1.06500
X0.08900 Y1.06500
X0.08900 Y1.06400
X0.09000 Y1.06400
X0.09000 Y1.06300
X0.09100 Y1.06300
X0.09100 Y1.06200
X0.09200 Y1.06200
X0.09200 Y1.06100
X0.09300 Y1.06100
X0.09300 Y1.05900
X0.09400 Y1.05900
X0.09400 Y1.05700
X0.09500 Y1.05700
X0.09500 Y1.05500
X0.09600 Y1.05500
X0.09600 Y1.05400
X0.09700 Y1.05400
X0.09700 Y1.05000
X0.09800 Y1.05000
X0.09800 Y1.04700
X0.09900 Y1.04700
X0.09900 Y1.04100
X0.10000 Y1.04100
X0.10000 Y1.01000
X0.09900 Y1.01000
X0.09900 Y1.00400
X0.09800 Y1.00400
X0.09800 Y1.00100
X0.09700 Y1.00100
X0.09700 Y0.99700
X0.09600 Y0.99700
X0.09600 Y0.99600
X0.09500 Y0.99600
X0.09500 Y0.99400
X0.09400 Y0.99400
X0.09400 Y0.99200
X0.09300 Y0.99200
X0.09300 Y0.99100
X0.09200 Y0.99100
X0.09200 Y0.98900
X0.09100 Y0.98900
X0.09100 Y0.98800
X0.09000 Y0.98800
X0.09000 Y0.98700
X0.08900 Y0.98700
X0.08900 Y0.98600
X0.08800 Y0.98600
X0.08800 Y0.98500
X0.08700 Y0.98500
X0.08700 Y0.98400
X0.08500 Y0.98400
X0.08500 Y0.98300
X0.08300 Y0.98300
X0.08300 Y0.98200
X0.08200 Y0.98200
X0.08200 Y0.98100
X0.08000 Y0.98100
X0.08000 Y0.98000
X0.07800 Y0.98000
X0.07800 Y0.97900
X0.07600 Y0.97900
X0.07600 Y0.97800
X0.07500 Y0.97800
X0.07500 Y0.97700
X0.06900 Y0.97700
X0.06900 Y0.97600
X0.06300 Y0.97600
X0.06300 Y0.97500
X0.03600 Y0.97500
X0.03600 Y0.97600
X0.03000 Y0.97600
X0.03000 Y0.97700
X0.02400 Y0.97700
X0.02400 Y0.97800
X0.02300 Y0.97800
X0.02300 Y0.97900
X0.02100 Y0.97900
X0.02100 Y0.98000
X0.01900 Y0.98000
X0.01900 Y0.98100
X0.01700 Y0.98100
X0.01700 Y0.98200
X0.01600 Y0.98200
X0.01600 Y0.98300
X0.01400 Y0.98300
X0.01400 Y0.98400
X0.01200 Y0.98400
X0.01200 Y0.98500
X0.01100 Y0.98500
X0.01100 Y0.98600
X0.01000 Y0.98600
X0.01000 Y0.98700
X0.00900 Y0.98700
X0.00900 Y0.98800
X0.00800 Y0.98800
X0.00800 Y0.98900
X0.00700 Y0.98900
X0.00700 Y0.99000
X0.00600 Y0.99000
X0.00600 Y0.99200
X0.00500 Y0.99200
X0.00500 Y0.99400
X0.00400 Y0.99400
X0.00400 Y0.99600
X0.00300 Y0.99600
X0.00300 Y0.99700
X0.00200 Y0.99700
X0.00200 Y1.00000
X0.00100 Y1.00000
X0.00100 Y1.00400
X0.00000 Y1.00400
X0.00000 Y1.04700
X0.00100 Y1.04700
X0.00100 Y1.05100
X0.00200 Y1.05100
X0.00200 Y1.05400
X0.00300 Y1.05400
X0.00300 Y1.05500
X0.00400 Y1.05500
X0.00400 Y1.05700
X0.00500 Y1.05700
X0.00500 Y1.05900
X0.00600 Y1.05900
X0.00600 Y1.06100
X0.00700 Y1.06100
X0.00700 Y1.06200
X0.00800 Y1.06200
X0.00800 Y1.06300
X0.00900 Y1.06300
X0.00900 Y1.06400
X0.01000 Y1.06400
X0.01000 Y1.06500
X0.01100 Y1.06500
X0.01100 Y1.06600
X0.01200 Y1.06600
X0.01200 Y1.06700
X0.01400 Y1.06700
X0.01400 Y1.06800
X0.01600 Y1.06800
X0.01600 Y1.06900
X0.01700 Y1.06900
X0.01700 Y1.07000
X0.01900 Y1.07000
X0.01900 Y1.07100
X0.02100 Y1.07100
X0.02100 Y1.07200
X0.02300 Y1.07200
X0.02300 Y1.07300
X0.02400 Y1.07300
X0.02400 Y1.07400
X0.03000 Y1.07400
X0.03000 Y1.07500
X0.03600 Y1.07500
X0.03600 Y1.07600
X0.06300 Y1.07600
X0.06300 Y1.07500
X0.06900 Y1.07500
X0.06900 Y1.07400
X0.07500 Y1.07400
X0.07500 Y1.07300
X0.07600 Y1.07300
X0.07600 Y1.07200
X0.07800 Y1.07200
X0.07800 Y1.07100
X0.08000 Y1.07100
X0.08000 Y1.07000
X0.08200 Y1.07000
X0.08200 Y1.06900
X0.08300 Y1.06900
X0.08300 Y1.06800
X0.08500 Y1.06800
X0.08500 Y1.06700
X0.08700 Y1.06700
X0.08700 Y1.06600
X0.08800 Y1.06600
X0.08800 Y1.06500
G04 P0 ( dwell for no time -- G64 should not smooth over this point )
G00 Z0.08000 ( retract )

G00 X0.25000 Y1.06500 ( rapid move to begin. )
G01 Z-0.00800 F6.00000 ( plunge. )
G04 P0 ( dwell for no time -- G64 should not smooth over this point )
X0.25000 Y1.06500
X0.25000 Y0.97500
X0.14900 Y0.97500
X0.14900 Y1.07600
X0.25000 Y1.07600
X0.25000 Y1.06500
G04 P0 ( dwell for no time -- G64 should not smooth over this point )
G00 Z0.08000 ( retract )

G00 X0.25000 Y0.96500 ( rapid move to begin. )
G01 Z-0.00800 F6.00000 ( plunge. )
G04 P0 ( dwell for no time -- G64 should not smooth over this point )
X0.25000 Y0.96500
X0.25000 Y0.87500
X0.14900 Y0.87500
X0.14900 Y0.97500
X0.25000 Y0.97500
X0.25000 Y0.96500
G04 P0 ( dwell for no time -- G64 should not smooth over this point )
G00 Z0.08000 ( retract )

G00 X-0.01400 Y0.86000 ( rapid move to begin. )
G01 Z-0.00800 F6.00000 ( plunge. )
G04 P0 ( dwell for no time -- G64 should not smooth over this point )
X-0.01400 Y0.86000
X-0.01300 Y0.86000
X-0.01300 Y0.85800
X-0.01200 Y0.85800
X-0.01200 Y0.85700
X-0.01100 Y0.85700
X-0.01100 Y0.85600
X-0.01000 Y0.85600
X-0.01000 Y0.85400
X-0.00900 Y0.85400
X-0.00900 Y0.85200
X-0.00800 Y0.85200
X-0.00800 Y0.85000
X-0.00700 Y0.85000
X-0.00700 Y0.84600
X-0.00600 Y0.84600
X-0.00600 Y0.84100
X-0.00500 Y0.84100
X-0.00500 Y0.81000
X-0.00600 Y0.81000
X-0.00600 Y0.80500
X-0.00700 Y0.80500
X-0.00700 Y0.80100
X-0.00800 Y0.80100
X-0.00800 Y0.79900
X-0.00900 Y0.79900
X-0.00900 Y0.79700
X-0.01000 Y0.79700
X-0.01000 Y0.79500
X-0.01100 Y0.79500
X-0.01100 Y0.79400
X-0.01200 Y0.79400
X-0.01200 Y0.79300
X-0.01300 Y0.79300
X-0.01300 Y0.79100
X-0.01400 Y0.79100
X-0.01400 Y0.79000
X-0.01500 Y0.79000
X-0.01500 Y0.78900
X-0.01600 Y0.78900
X-0.01600 Y0.78800
X-0.01800 Y0.78800
X-0.01800 Y0.78700
X-0.02000 Y0.78700
X-0.02000 Y0.78600
X-0.02100 Y0.78600
X-0.02100 Y0.78500
X-0.02300 Y0.78500
X-0.02300 Y0.78400
X-0.02500 Y0.78400
X-0.02500 Y0.78300
X-0.02700 Y0.78300
X-0.02700 Y0.78200
X-0.03100 Y0.78200
X-0.03100 Y0.78100
X-0.03700 Y0.78100
X-0.03700 Y0.78000
X-0.06400 Y0.78000
X-0.06400 Y0.78100
X-0.07000 Y0.78100
X-0.07000 Y0.78200
X-0.07400 Y0.78200
X-0.07400 Y0.78300
X-0.07600 Y0.78300
X-0.07600 Y0.78400
X-0.07800 Y0.78400
X-0.07800 Y0.78500
X-0.08000 Y0.78500
X-0.08000 Y0.78600
X-0.08100 Y0.78600
X-0.08100 Y0.78700
X-0.08300 Y0.78700
X-0.08300 Y0.78800
X-0.08500 Y0.78800
X-0.08500 Y0.78900
X-0.08600 Y0.78900
X-0.08600 Y0.79000
X-0.08700 Y0.79000
X-0.08700 Y0.79100
X-0.08800 Y0.79100
X-0.08800 Y0.79300
X-0.08900 Y0.79300
X-0.08900 Y0.79400
X-0.09000 Y0.79400
X-0.09000 Y0.79500
X-0.09100 Y0.79500
X-0.09100 Y0.79700
X-0.09200 Y0.79700
X-0.09200 Y0.79900
X-0.09300 Y0.79900
X-0.09300 Y0.80100
X-0.09400 Y0.80100
X-0.09400 Y0.80400
X-0.09500 Y0.80400
X-0.09500 Y0.81000
X-0.09600 Y0.81000
X-0.09600 Y0.84100
X-0.09500 Y0.84100
X-0.09500 Y0.84700
X-0.09400 Y0.84700
X-0.09400 Y0.85000
X-0.09300 Y0.85000
X-0.09300 Y0.85200
X-0.09200 Y0.85200
X-0.09200 Y0.85400
X-0.09100 Y0.85400
X-0.09100 Y0.85600
X-0.09000 Y0.85600
X-0.09000 Y0.85700
X-0.08900 Y0.85700
X-0.08900 Y0.85800
X-0.08800 Y0.85800
X-0.08800 Y0.86000
X-0.08700 Y0.86000
X-0.08700 Y0.86100
X-0.08600 Y0.86100
X-0.08600 Y0.86200
X-0.08500 Y0.86200
X-0.08500 Y0.86300
X-0.08300 Y0.86300
X-0.08300 Y0.86400
X-0.08100 Y0.86400
X-0.08100 Y0.86500
X-0.08000 Y0.86500
X-0.08000 Y0.86600
X-0.07800 Y0.86600
X-0.07800 Y0.86700
X-0.07600 Y0.86700
X-0.07600 Y0.86800
X-0.07400 Y0.86800
X-0.07400 Y0.86900
X-0.07000 Y0.86900
X-0.07000 Y0.87000
X-0.06400 Y0.87000
X-0.06400 Y0.87100
X-0.03700 Y0.87100
X-0.03700 Y0.87000
X-0.03100 Y0.87000
X-0.03100 Y0.86900
X-0.02700 Y0.86900
X-0.02700 Y0.86800
X-0.02500 Y0.86800
X-0.02500 Y0.86700
X-0.02300 Y0.86700
X-0.02300 Y0.86600
X-0.02100 Y0.86600
X-0.02100 Y0.86500
X-0.02000 Y0.86500
X-0.02000 Y0.86400
X-0.01800 Y0.86400
X-0.01800 Y0.86300
X-0.01600 Y0.86300
X-0.01600 Y0.86200
X-0.01500 Y0.86200
X-0.01500 Y0.86100
X-0.01400 Y0.86100
X-0.01400 Y0.86000
G04 P0 ( dwell for no time -- G64 should not smooth over this point )
G00 Z0.08000 ( retract )

G00 X0.08600 Y0.86000 ( rapid move to begin. )
G01 Z-0.00800 F6.00000 ( plunge. )
G04 P0 ( dwell for no time -- G64 should not smooth over this point )
X0.08600 Y0.86000
X0.08700 Y0.86000
X0.08700 Y0.85800
X0.08800 Y0.85800
X0.08800 Y0.85700
X0.08900 Y0.85700
X0.08900 Y0.85600
X0.09000 Y0.85600
X0.09000 Y0.85400
X0.09100 Y0.85400
X0.09100 Y0.85200
X0.09200 Y0.85200
X0.09200 Y0.85000
X0.09300 Y0.85000
X0.09300 Y0.84600
X0.09400 Y0.84600
X0.09400 Y0.84100
X0.09500 Y0.84100
X0.09500 Y0.81000
X0.09400 Y0.81000
X0.09400 Y0.80500
X0.09300 Y0.80500
X0.09300 Y0.80100
X0.09200 Y0.80100
X0.09200 Y0.79900
X0.09100 Y0.79900
X0.09100 Y0.79700
X0.09000 Y0.79700
X0.09000 Y0.79500
X0.08900 Y0.79500
X0.08900 Y0.79400
X0.08800 Y0.79400
X0.08800 Y0.79300
X0.08700 Y0.79300
X0.08700 Y0.79100
X0.08600 Y0.79100
X0.08600 Y0.79000
X0.08500 Y0.79000
X0.08500 Y0.78900
X0.08400 Y0.78900
X0.08400 Y0.78800
X0.08200 Y0.78800
X0.08200 Y0.78700
X0.08000 Y0.78700
X0.08000 Y0.78600
X0.07900 Y0.78600
X0.07900 Y0.78500
X0.07700 Y0.78500
X0.07700 Y0.78400
X0.07500 Y0.78400
X0.07500 Y0.78300
X0.07300 Y0.78300
X0.07300 Y0.78200
X0.06900 Y0.78200
X0.06900 Y0.78100
X0.06300 Y0.78100
X0.06300 Y0.78000
X0.03600 Y0.78000
X0.03600 Y0.78100
X0.03000 Y0.78100
X0.03000 Y0.78200
X0.02600 Y0.78200
X0.02600 Y0.78300
X0.02400 Y0.78300
X0.02400 Y0.78400
X0.02200 Y0.78400
X0.02200 Y0.78500
X0.02000 Y0.78500
X0.02000 Y0.78600
X0.01900 Y0.78600
X0.01900 Y0.78700
X0.01700 Y0.78700
X0.01700 Y0.78800
X0.01500 Y0.78800
X0.01500 Y0.78900
X0.01400 Y0.78900
X0.01400 Y0.79000
X0.01300 Y0.79000
X0.01300 Y0.79100
X0.01200 Y0.79100
X0.01200 Y0.79300
X0.01100 Y0.79300
X0.01100 Y0.79400
X0.01000 Y0.79400
X0.01000 Y0.79500
X0.00900 Y0.79500
X0.00900 Y0.79700
X0.00800 Y0.79700
X0.00800 Y0.79900
X0.00700 Y0.79900
X0.00700 Y0.80100
X0.00600 Y0.80100
X0.00600 Y0.80400
X0.00500 Y0.80400
X0.00500 Y0.81000
X0.00400 Y0.81000
X0.00400 Y0.84100
X0.00500 Y0.84100
X0.00500 Y0.84700
X0.00600 Y0.84700
X0.00600 Y0.85000
X0.00700 Y0.85000
X0.00700 Y0.85200
X0.00800 Y0.85200
X0.00800 Y0.85400
X0.00900 Y0.85400
X0.00900 Y0.85600
X0.01000 Y0.85600
X0.01000 Y0.85700
X0.01100 Y0.85700
X0.01100 Y0.85800
X0.01200 Y0.85800
X0.01200 Y0.86000
X0.01300 Y0.86000
X0.01300 Y0.86100
X0.01400 Y0.86100
X0.01400 Y0.86200
X0.01500 Y0.86200
X0.01500 Y0.86300
X0.01700 Y0.86300
X0.01700 Y0.86400
X0.01900 Y0.86400
X0.01900 Y0.86500
X0.02000 Y0.86500
X0.02000 Y0.86600
X0.02200 Y0.86600
X0.02200 Y0.86700
X0.02400 Y0.86700
X0.02400 Y0.86800
X0.02600 Y0.86800
X0.02600 Y0.86900
X0.03000 Y0.86900
X0.03000 Y0.87000
X0.03600 Y0.87000
X0.03600 Y0.87100
X0.06300 Y0.87100
X0.06300 Y0.87000
X0.06900 Y0.87000
X0.06900 Y0.86900
X0.07300 Y0.86900
X0.07300 Y0.86800
X0.07500 Y0.86800
X0.07500 Y0.86700
X0.07700 Y0.86700
X0.07700 Y0.86600
X0.07900 Y0.86600
X0.07900 Y0.86500
X0.08000 Y0.86500
X0.08000 Y0.86400
X0.08200 Y0.86400
X0.08200 Y0.86300
X0.08400 Y0.86300
X0.08400 Y0.86200
X0.08500 Y0.86200
X0.08500 Y0.86100
X0.08600 Y0.86100
X0.08600 Y0.86000
G04 P0 ( dwell for no time -- G64 should not smooth over this point )
G00 Z0.08000 ( retract )

G00 X-0.11500 Y0.70000 ( rapid move to begin. )
G01 Z-0.00800 F6.00000 ( plunge. )
G04 P0 ( dwell for no time -- G64 should not smooth over this point )
X-0.11500 Y0.70000
X-0.11500 Y0.64000
X-0.18600 Y0.64000
X-0.18600 Y0.71100
X-0.11500 Y0.71100
X-0.11500 Y0.70000
G04 P0 ( dwell for no time -- G64 should not smooth over this point )
G00 Z0.08000 ( retract )

G00 X0.18000 Y0.70000 ( rapid move to begin. )
G01 Z-0.00800 F6.00000 ( plunge. )
G04 P0 ( dwell for no time -- G64 should not smooth over this point )
X0.18000 Y0.70000
X0.18100 Y0.70000
X0.18100 Y0.69900
X0.18200 Y0.69900
X0.18200 Y0.69700
X0.18300 Y0.69700
X0.18300 Y0.69400
X0.18400 Y0.69400
X0.18400 Y0.68900
X0.18500 Y0.68900
X0.18500 Y0.66200
X0.18400 Y0.66200
X0.18400 Y0.65700
X0.18300 Y0.65700
X0.18300 Y0.65400
X0.18200 Y0.65400
X0.18200 Y0.65200
X0.18100 Y0.65200
X0.18100 Y0.65100
X0.18000 Y0.65100
X0.18000 Y0.64900
X0.17900 Y0.64900
X0.17900 Y0.64800
X0.17800 Y0.64800
X0.17800 Y0.64700
X0.17700 Y0.64700
X0.17700 Y0.64600
X0.17600 Y0.64600
X0.17600 Y0.64500
X0.17400 Y0.64500
X0.17400 Y0.64400
X0.17200 Y0.64400
X0.17200 Y0.64300
X0.17100 Y0.64300
X0.17100 Y0.64200
X0.16900 Y0.64200
X0.16900 Y0.64100
X0.16300 Y0.64100
X0.16300 Y0.64000
X0.13600 Y0.64000
X0.13600 Y0.64100
X0.13000 Y0.64100
X0.13000 Y0.64200
X0.12800 Y0.64200
X0.12800 Y0.64300
X0.12700 Y0.64300
X0.12700 Y0.64400
X0.12500 Y0.64400
X0.12500 Y0.64500
X0.12300 Y0.64500
X0.12300 Y0.64600
X0.12200 Y0.64600
X0.12200 Y0.64700
X0.12100 Y0.64700
X0.12100 Y0.64800
X0.12000 Y0.64800
X0.12000 Y0.64900
X0.11900 Y0.64900
X0.11900 Y0.65100
X0.11800 Y0.65100
X0.11800 Y0.65200
X0.11700 Y0.65200
X0.11700 Y0.65400
X0.11600 Y0.65400
X0.11600 Y0.65700
X0.11500 Y0.65700
X0.11500 Y0.66200
X0.11400 Y0.66200
X0.11400 Y0.68900
X0.11500 Y0.68900
X0.11500 Y0.69400
X0.11600 Y0.69400
X0.11600 Y0.69700
X0.11700 Y0.69700
X0.11700 Y0.69900
X0.11800 Y0.69900
X0.11800 Y0.70000
X0.11900 Y0.70000
X0.11900 Y0.70200
X0.12000 Y0.70200
X0.12000 Y0.70300
X0.12100 Y0.70300
X0.12100 Y0.70400
X0.12200 Y0.70400
X0.12200 Y0.70500
X0.12300 Y0.70500
X0.12300 Y0.70600
X0.12500 Y0.70600
X0.12500 Y0.70700
X0.12700 Y0.70700
X0.12700 Y0.70800
X0.12800 Y0.70800
X0.12800 Y0.70900
X0.13000 Y0.70900
X0.13000 Y0.71000
X0.13600 Y0.71000
X0.13600 Y0.71100
X0.16300 Y0.71100
X0.16300 Y0.71000
X0.16900 Y0.71000
X0.16900 Y0.70900
X0.17100 Y0.70900
X0.17100 Y0.70800
X0.17200 Y0.70800
X0.17200 Y0.70700
X0.17400 Y0.70700
X0.17400 Y0.70600
X0.17600 Y0.70600
X0.17600 Y0.70500
X0.17700 Y0.70500
X0.17700 Y0.70400
X0.17800 Y0.70400
X0.17800 Y0.70300
X0.17900 Y0.70300
X0.17900 Y0.70200
X0.18000 Y0.70200
X0.18000 Y0.70000
G04 P0 ( dwell for no time -- G64 should not smooth over this point )
G00 Z0.08000 ( retract )

G00 X0.37500 Y0.61500 ( rapid move to begin. )
G01 Z-0.00800 F6.00000 ( plunge. )
G04 P0 ( dwell for no time -- G64 should not smooth over this point )
X0.37500 Y0.61500
X0.37500 Y0.52500
X0.27400 Y0.52500
X0.27400 Y0.62600
X0.37500 Y0.62600
X0.37500 Y0.61500
G04 P0 ( dwell for no time -- G64 should not smooth over this point )
G00 Z0.08000 ( retract )

G00 X-0.12000 Y0.60000 ( rapid move to begin. )
G01 Z-0.00800 F6.00000 ( plunge. )
G04 P0 ( dwell for no time -- G64 should not smooth over this point )
X-0.12000 Y0.60000
X-0.11900 Y0.60000
X-0.11900 Y0.59900
X-0.11800 Y0.59900
X-0.11800 Y0.59700
X-0.11700 Y0.59700
X-0.11700 Y0.59400
X-0.11600 Y0.59400
X-0.11600 Y0.58900
X-0.11500 Y0.58900
X-0.11500 Y0.56200
X-0.11600 Y0.56200
X-0.11600 Y0.55700
X-0.11700 Y0.55700
X-0.11700 Y0.55400
X-0.11800 Y0.55400
X-0.11800 Y0.55200
X-0.11900 Y0.55200
X-0.11900 Y0.55100
X-0.12000 Y0.55100
X-0.12000 Y0.54900
X-0.12100 Y0.54900
X-0.12100 Y0.54800
X-0.12200 Y0.54800
X-0.12200 Y0.54700
X-0.12300 Y0.54700
X-0.12300 Y0.54600
X-0.12400 Y0.54600
X-0.12400 Y0.54500
X-0.12600 Y0.54500
X-0.12600 Y0.54400
X-0.12800 Y0.54400
X-0.12800 Y0.54300
X-0.12900 Y0.54300
X-0.12900 Y0.54200
X-0.13100 Y0.54200
X-0.13100 Y0.54100
X-0.13700 Y0.54100
X-0.13700 Y0.54000
X-0.16400 Y0.54000
X-0.16400 Y0.54100
X-0.17000 Y0.54100
X-0.17000 Y0.54200
X-0.17200 Y0.54200
X-0.17200 Y0.54300
X-0.17300 Y0.54300
X-0.17300 Y0.54400
X-0.17500 Y0.54400
X-0.17500 Y0.54500
X-0.17700 Y0.54500
X-0.17700 Y0.54600
X-0.17800 Y0.54600
X-0.17800 Y0.54700
X-0.17900 Y0.54700
X-0.17900 Y0.54800
X-0.18000 Y0.54800
X-0.18000 Y0.54900
X-0.18100 Y0.54900
X-0.18100 Y0.55100
X-0.18200 Y0.55100
X-0.18200 Y0.55200
X-0.18300 Y0.55200
X-0.18300 Y0.55400
X-0.18400 Y0.55400
X-0.18400 Y0.55700
X-0.18500 Y0.55700
X-0.18500 Y0.56200
X-0.18600 Y0.56200
X-0.18600 Y0.58900
X-0.18500 Y0.58900
X-0.18500 Y0.59400
X-0.18400 Y0.59400
X-0.18400 Y0.59700
X-0.18300 Y0.59700
X-0.18300 Y0.59900
X-0.18200 Y0.59900
X-0.18200 Y0.60000
X-0.18100 Y0.60000
X-0.18100 Y0.60200
X-0.18000 Y0.60200
X-0.18000 Y0.60300
X-0.17900 Y0.60300
X-0.17900 Y0.60400
X-0.17800 Y0.60400
X-0.17800 Y0.60500
X-0.17700 Y0.60500
X-0.17700 Y0.60600
X-0.17500 Y0.60600
X-0.17500 Y0.60700
X-0.17300 Y0.60700
X-0.17300 Y0.60800
X-0.17200 Y0.60800
X-0.17200 Y0.60900
X-0.17000 Y0.60900
X-0.17000 Y0.61000
X-0.16400 Y0.61000
X-0.16400 Y0.61100
X-0.13700 Y0.61100
X-0.13700 Y0.61000
X-0.13100 Y0.61000
X-0.13100 Y0.60900
X-0.12900 Y0.60900
X-0.12900 Y0.60800
X-0.12800 Y0.60800
X-0.12800 Y0.60700
X-0.12600 Y0.60700
X-0.12600 Y0.60600
X-0.12400 Y0.60600
X-0.12400 Y0.60500
X-0.12300 Y0.60500
X-0.12300 Y0.60400
X-0.12200 Y0.60400
X-0.12200 Y0.60300
X-0.12100 Y0.60300
X-0.12100 Y0.60200
X-0.12000 Y0.60200
X-0.12000 Y0.60000
G04 P0 ( dwell for no time -- G64 should not smooth over this point )
G00 Z0.08000 ( retract )

G00 X0.18000 Y0.60000 ( rapid move to begin. )
G01 Z-0.00800 F6.00000 ( plunge. )
G04 P0 ( dwell for no time -- G64 should not smooth over this point )
X0.18000 Y0.60000
X0.18100 Y0.60000
X0.18100 Y0.59900
X0.18200 Y0.59900
X0.18200 Y0.59700
X0.18300 Y0.59700
X0.18300 Y0.59400
X0.18400 Y0.59400
X0.18400 Y0.58900
X0.18500 Y0.58900
X0.18500 Y0.56200
X0.18400 Y0.56200
X0.18400 Y0.55700
X0.18300 Y0.55700
X0.18300 Y0.55400
X0.18200 Y0.55400
X0.18200 Y0.55200
X0.18100 Y0.55200
X0.18100 Y0.55100
X0.18000 Y0.55100
X0.18000 Y0.54900
X0.17900 Y0.54900
X0.17900 Y0.54800
X0.17800 Y0.54800
X0.17800 Y0.54700
X0.17700 Y0.54700
X0.17700 Y0.54600
X0.17600 Y0.54600
X0.17600 Y0.54500
X0.17400 Y0.54500
X0.17400 Y0.54400
X0.17200 Y0.54400
X0.17200 Y0.54300
X0.17100 Y0.54300
X0.17100 Y0.54200
X0.16900 Y0.54200
X0.16900 Y0.54100
X0.16300 Y0.54100
X0.16300 Y0.54000
X0.13600 Y0.54000
X0.13600 Y0.54100
X0.13000 Y0.54100
X0.13000 Y0.54200
X0.12800 Y0.54200
X0.12800 Y0.54300
X0.12700 Y0.54300
X0.12700 Y0.54400
X0.12500 Y0.54400
X0.12500 Y0.54500
X0.12300 Y0.54500
X0.12300 Y0.54600
X0.12200 Y0.54600
X0.12200 Y0.54700
X0.12100 Y0.54700
X0.12100 Y0.54800
X0.12000 Y0.54800
X0.12000 Y0.54900
X0.11900 Y0.54900
X0.11900 Y0.55100
X0.11800 Y0.55100
X0.11800 Y0.55200
X0.11700 Y0.55200
X0.11700 Y0.55400
X0.11600 Y0.55400
X0.11600 Y0.55700
X0.11500 Y0.55700
X0.11500 Y0.56200
X0.11400 Y0.56200
X0.11400 Y0.58900
X0.11500 Y0.58900
X0.11500 Y0.59400
X0.11600 Y0.59400
X0.11600 Y0.59700
X0.11700 Y0.59700
X0.11700 Y0.59900
X0.11800 Y0.59900
X0.11800 Y0.60000
X0.11900 Y0.60000
X0.11900 Y0.60200
X0.12000 Y0.60200
X0.12000 Y0.60300
X0.12100 Y0.60300
X0.12100 Y0.60400
X0.12200 Y0.60400
X0.12200 Y0.60500
X0.12300 Y0.60500
X0.12300 Y0.60600
X0.12500 Y0.60600
X0.12500 Y0.60700
X0.12700 Y0.60700
X0.12700 Y0.60800
X0.12800 Y0.60800
X0.12800 Y0.60900
X0.13000 Y0.60900
X0.13000 Y0.61000
X0.13600 Y0.61000
X0.13600 Y0.61100
X0.16300 Y0.61100
X0.16300 Y0.61000
X0.16900 Y0.61000
X0.16900 Y0.60900
X0.17100 Y0.60900
X0.17100 Y0.60800
X0.17200 Y0.60800
X0.17200 Y0.60700
X0.17400 Y0.60700
X0.17400 Y0.60600
X0.17600 Y0.60600
X0.17600 Y0.60500
X0.17700 Y0.60500
X0.17700 Y0.60400
X0.17800 Y0.60400
X0.17800 Y0.60300
X0.17900 Y0.60300
X0.17900 Y0.60200
X0.18000 Y0.60200
X0.18000 Y0.60000
G04 P0 ( dwell for no time -- G64 should not smooth over this point )
G00 Z0.08000 ( retract )

G00 X-0.12000 Y0.50000 ( rapid move to begin. )
G01 Z-0.00800 F6.00000 ( plunge. )
G04 P0 ( dwell for no time -- G64 should not smooth over this point )
X-0.12000 Y0.50000
X-0.11900 Y0.50000
X-0.11900 Y0.49900
X-0.11800 Y0.49900
X-0.11800 Y0.49700
X-0.11700 Y0.49700
X-0.11700 Y0.49400
X-0.11600 Y0.49400
X-0.11600 Y0.48900
X-0.11500 Y0.48900
X-0.11500 Y0.46200
X-0.11600 Y0.46200
X-0.11600 Y0.45700
X-0.11700 Y0.45700
X-0.11700 Y0.45400
X-0.11800 Y0.45400
X-0.11800 Y0.45200
X-0.11900 Y0.45200
X-0.11900 Y0.45100
X-0.12000 Y0.45100
X-0.12000 Y0.44900
X-0.12100 Y0.44900
X-0.12100 Y0.44800
X-0.12200 Y0.44800
X-0.12200 Y0.44700
X-0.12300 Y0.44700
X-0.12300 Y0.44600
X-0.12400 Y0.44600
X-0.12400 Y0.44500
X-0.12600 Y0.44500
X-0.12600 Y0.44400
X-0.12800 Y0.44400
X-0.12800 Y0.44300
X-0.12900 Y0.44300
X-0.12900 Y0.44200
X-0.13100 Y0.44200
X-0.13100 Y0.44100
X-0.13700 Y0.44100
X-0.13700 Y0.44000
X-0.16400 Y0.44000
X-0.16400 Y0.44100
X-0.17000 Y0.44100
X-0.17000 Y0.44200
X-0.17200 Y0.44200
X-0.17200 Y0.44300
X-0.17300 Y0.44300
X-0.17300 Y0.44400
X-0.17500 Y0.44400
X-0.17500 Y0.44500
X-0.17700 Y0.44500
X-0.17700 Y0.44600
X-0.17800 Y0.44600
X-0.17800 Y0.44700
X-0.17900 Y0.44700
X-0.17900 Y0.44800
X-0.18000 Y0.44800
X-0.18000 Y0.44900
X-0.18100 Y0.44900
X-0.18100 Y0.45100
X-0.18200 Y0.45100
X-0.18200 Y0.45200
X-0.18300 Y0.45200
X-0.18300 Y0.45400
X-0.18400 Y0.45400
X-0.18400 Y0.45700
X-0.18500 Y0.45700
X-0.18500 Y0.46200
X-0.18600 Y0.46200
X-0.18600 Y0.48900
X-0.18500 Y0.48900
X-0.18500 Y0.49400
X-0.18400 Y0.49400
X-0.18400 Y0.49700
X-0.18300 Y0.49700
X-0.18300 Y0.49900
X-0.18200 Y0.49900
X-0.18200 Y0.50000
X-0.18100 Y0.50000
X-0.18100 Y0.50200
X-0.18000 Y0.50200
X-0.18000 Y0.50300
X-0.17900 Y0.50300
X-0.17900 Y0.50400
X-0.17800 Y0.50400
X-0.17800 Y0.50500
X-0.17700 Y0.50500
X-0.17700 Y0.50600
X-0.17500 Y0.50600
X-0.17500 Y0.50700
X-0.17300 Y0.50700
X-0.17300 Y0.50800
X-0.17200 Y0.50800
X-0.17200 Y0.50900
X-0.17000 Y0.50900
X-0.17000 Y0.51000
X-0.16400 Y0.51000
X-0.16400 Y0.51100
X-0.13700 Y0.51100
X-0.13700 Y0.51000
X-0.13100 Y0.51000
X-0.13100 Y0.50900
X-0.12900 Y0.50900
X-0.12900 Y0.50800
X-0.12800 Y0.50800
X-0.12800 Y0.50700
X-0.12600 Y0.50700
X-0.12600 Y0.50600
X-0.12400 Y0.50600
X-0.12400 Y0.50500
X-0.12300 Y0.50500
X-0.12300 Y0.50400
X-0.12200 Y0.50400
X-0.12200 Y0.50300
X-0.12100 Y0.50300
X-0.12100 Y0.50200
X-0.12000 Y0.50200
X-0.12000 Y0.50000
G04 P0 ( dwell for no time -- G64 should not smooth over this point )
G00 Z0.08000 ( retract )

G00 X0.18000 Y0.50000 ( rapid move to begin. )
G01 Z-0.00800 F6.00000 ( plunge. )
G04 P0 ( dwell for no time -- G64 should not smooth over this point )
X0.18000 Y0.50000
X0.18100 Y0.50000
X0.18100 Y0.49900
X0.18200 Y0.49900
X0.18200 Y0.49700
X0.18300 Y0.49700
X0.18300 Y0.49400
X0.18400 Y0.49400
X0.18400 Y0.48900
X0.18500 Y0.48900
X0.18500 Y0.46200
X0.18400 Y0.46200
X0.18400 Y0.45700
X0.18300 Y0.45700
X0.18300 Y0.45400
X0.18200 Y0.45400
X0.18200 Y0.45200
X0.18100 Y0.45200
X0.18100 Y0.45100
X0.18000 Y0.45100
X0.18000 Y0.44900
X0.17900 Y0.44900
X0.17900 Y0.44800
X0.17800 Y0.44800
X0.17800 Y0.44700
X0.17700 Y0.44700
X0.17700 Y0.44600
X0.17600 Y0.44600
X0.17600 Y0.44500
X0.17400 Y0.44500
X0.17400 Y0.44400
X0.17200 Y0.44400
X0.17200 Y0.44300
X0.17100 Y0.44300
X0.17100 Y0.44200
X0.16900 Y0.44200
X0.16900 Y0.44100
X0.16300 Y0.44100
X0.16300 Y0.44000
X0.13600 Y0.44000
X0.13600 Y0.44100
X0.13000 Y0.44100
X0.13000 Y0.44200
X0.12800 Y0.44200
X0.12800 Y0.44300
X0.12700 Y0.44300
X0.12700 Y0.44400
X0.12500 Y0.44400
X0.12500 Y0.44500
X0.12300 Y0.44500
X0.12300 Y0.44600
X0.12200 Y0.44600
X0.12200 Y0.44700
X0.12100 Y0.44700
X0.12100 Y0.44800
X0.12000 Y0.44800
X0.12000 Y0.44900
X0.11900 Y0.44900
X0.11900 Y0.45100
X0.11800 Y0.45100
X0.11800 Y0.45200
X0.11700 Y0.45200
X0.11700 Y0.45400
X0.11600 Y0.45400
X0.11600 Y0.45700
X0.11500 Y0.45700
X0.11500 Y0.46200
X0.11400 Y0.46200
X0.11400 Y0.48900
X0.11500 Y0.48900
X0.11500 Y0.49400
X0.11600 Y0.49400
X0.11600 Y0.49700
X0.11700 Y0.49700
X0.11700 Y0.49900
X0.11800 Y0.49900
X0.11800 Y0.50000
X0.11900 Y0.50000
X0.11900 Y0.50200
X0.12000 Y0.50200
X0.12000 Y0.50300
X0.12100 Y0.50300
X0.12100 Y0.50400
X0.12200 Y0.50400
X0.12200 Y0.50500
X0.12300 Y0.50500
X0.12300 Y0.50600
X0.12500 Y0.50600
X0.12500 Y0.50700
X0.12700 Y0.50700
X0.12700 Y0.50800
X0.12800 Y0.50800
X0.12800 Y0.50900
X0.13000 Y0.50900
X0.13000 Y0.51000
X0.13600 Y0.51000
X0.13600 Y0.51100
X0.16300 Y0.51100
X0.16300 Y0.51000
X0.16900 Y0.51000
X0.16900 Y0.50900
X0.17100 Y0.50900
X0.17100 Y0.50800
X0.17200 Y0.50800
X0.17200 Y0.50700
X0.17400 Y0.50700
X0.17400 Y0.50600
X0.17600 Y0.50600
X0.17600 Y0.50500
X0.17700 Y0.50500
X0.17700 Y0.50400
X0.17800 Y0.50400
X0.17800 Y0.50300
X0.17900 Y0.50300
X0.17900 Y0.50200
X0.18000 Y0.50200
X0.18000 Y0.50000
G04 P0 ( dwell for no time -- G64 should not smooth over this point )
G00 Z0.08000 ( retract )

G00 X0.43800 Y0.41500 ( rapid move to begin. )
G01 Z-0.00800 F6.00000 ( plunge. )
G04 P0 ( dwell for no time -- G64 should not smooth over this point )
X0.43800 Y0.41500
X0.43900 Y0.41500
X0.43900 Y0.41400
X0.44000 Y0.41400
X0.44000 Y0.41300
X0.44100 Y0.41300
X0.44100 Y0.41200
X0.44200 Y0.41200
X0.44200 Y0.41100
X0.44300 Y0.41100
X0.44300 Y0.40900
X0.44400 Y0.40900
X0.44400 Y0.40700
X0.44500 Y0.40700
X0.44500 Y0.40500
X0.44600 Y0.40500
X0.44600 Y0.40400
X0.44700 Y0.40400
X0.44700 Y0.40000
X0.44800 Y0.40000
X0.44800 Y0.39700
X0.44900 Y0.39700
X0.44900 Y0.39100
X0.45000 Y0.39100
X0.45000 Y0.36000
X0.44900 Y0.36000
X0.44900 Y0.35400
X0.44800 Y0.35400
X0.44800 Y0.35100
X0.44700 Y0.35100
X0.44700 Y0.34700
X0.44600 Y0.34700
X0.44600 Y0.34600
X0.44500 Y0.34600
X0.44500 Y0.34400
X0.44400 Y0.34400
X0.44400 Y0.34200
X0.44300 Y0.34200
X0.44300 Y0.34100
X0.44200 Y0.34100
X0.44200 Y0.33900
X0.44100 Y0.33900
X0.44100 Y0.33800
X0.44000 Y0.33800
X0.44000 Y0.33700
X0.43900 Y0.33700
X0.43900 Y0.33600
X0.43800 Y0.33600
X0.43800 Y0.33500
X0.43700 Y0.33500
X0.43700 Y0.33400
X0.43500 Y0.33400
X0.43500 Y0.33300
X0.43300 Y0.33300
X0.43300 Y0.33200
X0.43200 Y0.33200
X0.43200 Y0.33100
X0.43000 Y0.33100
X0.43000 Y0.33000
X0.42800 Y0.33000
X0.42800 Y0.32900
X0.42600 Y0.32900
X0.42600 Y0.32800
X0.42500 Y0.32800
X0.42500 Y0.32700
X0.41900 Y0.32700
X0.41900 Y0.32600
X0.41300 Y0.32600
X0.41300 Y0.32500
X0.38600 Y0.32500
X0.38600 Y0.32600
X0.38000 Y0.32600
X0.38000 Y0.32700
X0.37400 Y0.32700
X0.37400 Y0.32800
X0.37300 Y0.32800
X0.37300 Y0.32900
X0.37100 Y0.32900
X0.37100 Y0.33000
X0.36900 Y0.33000
X0.36900 Y0.33100
X0.36700 Y0.33100
X0.36700 Y0.33200
X0.36600 Y0.33200
X0.36600 Y0.33300
X0.36400 Y0.33300
X0.36400 Y0.33400
X0.36200 Y0.33400
X0.36200 Y0.33500
X0.36100 Y0.33500
X0.36100 Y0.33600
X0.36000 Y0.33600
X0.36000 Y0.33700
X0.35900 Y0.33700
X0.35900 Y0.33800
X0.35800 Y0.33800
X0.35800 Y0.33900
X0.35700 Y0.33900
X0.35700 Y0.34000
X0.35600 Y0.34000
X0.35600 Y0.34200
X0.35500 Y0.34200
X0.35500 Y0.34400
X0.35400 Y0.34400
X0.35400 Y0.34600
X0.35300 Y0.34600
X0.35300 Y0.34700
X0.35200 Y0.34700
X0.35200 Y0.35000
X0.35100 Y0.35000
X0.35100 Y0.35400
X0.35000 Y0.35400
X0.35000 Y0.36000
X0.34900 Y0.36000
X0.34900 Y0.39100
X0.35000 Y0.39100
X0.35000 Y0.39700
X0.35100 Y0.39700
X0.35100 Y0.40100
X0.35200 Y0.40100
X0.35200 Y0.40400
X0.35300 Y0.40400
X0.35300 Y0.40500
X0.35400 Y0.40500
X0.35400 Y0.40700
X0.35500 Y0.40700
X0.35500 Y0.40900
X0.35600 Y0.40900
X0.35600 Y0.41100
X0.35700 Y0.41100
X0.35700 Y0.41200
X0.35800 Y0.41200
X0.35800 Y0.41300
X0.35900 Y0.41300
X0.35900 Y0.41400
X0.36000 Y0.41400
X0.36000 Y0.41500
X0.36100 Y0.41500
X0.36100 Y0.41600
X0.36200 Y0.41600
X0.36200 Y0.41700
X0.36400 Y0.41700
X0.36400 Y0.41800
X0.36600 Y0.41800
X0.36600 Y0.41900
X0.36700 Y0.41900
X0.36700 Y0.42000
X0.36900 Y0.42000
X0.36900 Y0.42100
X0.37100 Y0.42100
X0.37100 Y0.42200
X0.37300 Y0.42200
X0.37300 Y0.42300
X0.37400 Y0.42300
X0.37400 Y0.42400
X0.38000 Y0.42400
X0.38000 Y0.42500
X0.38600 Y0.42500
X0.38600 Y0.42600
X0.41300 Y0.42600
X0.41300 Y0.42500
X0.41900 Y0.42500
X0.41900 Y0.42400
X0.42500 Y0.42400
X0.42500 Y0.42300
X0.42600 Y0.42300
X0.42600 Y0.42200
X0.42800 Y0.42200
X0.42800 Y0.42100
X0.43000 Y0.42100
X0.43000 Y0.42000
X0.43200 Y0.42000
X0.43200 Y0.41900
X0.43300 Y0.41900
X0.43300 Y0.41800
X0.43500 Y0.41800
X0.43500 Y0.41700
X0.43700 Y0.41700
X0.43700 Y0.41600
X0.43800 Y0.41600
X0.43800 Y0.41500
G04 P0 ( dwell for no time -- G64 should not smooth over this point )
G00 Z0.08000 ( retract )

G00 X0.53800 Y0.41500 ( rapid move to begin. )
G01 Z-0.00800 F6.00000 ( plunge. )
G04 P0 ( dwell for no time -- G64 should not smooth over this point )
X0.53800 Y0.41500
X0.53900 Y0.41500
X0.53900 Y0.41400
X0.54000 Y0.41400
X0.54000 Y0.41300
X0.54100 Y0.41300
X0.54100 Y0.41200
X0.54200 Y0.41200
X0.54200 Y0.41100
X0.54300 Y0.41100
X0.54300 Y0.40900
X0.54400 Y0.40900
X0.54400 Y0.40700
X0.54500 Y0.40700
X0.54500 Y0.40500
X0.54600 Y0.40500
X0.54600 Y0.40400
X0.54700 Y0.40400
X0.54700 Y0.40000
X0.54800 Y0.40000
X0.54800 Y0.39700
X0.54900 Y0.39700
X0.54900 Y0.39100
X0.55000 Y0.39100
X0.55000 Y0.36000
X0.54900 Y0.36000
X0.54900 Y0.35400
X0.54800 Y0.35400
X0.54800 Y0.35100
X0.54700 Y0.35100
X0.54700 Y0.34700
X0.54600 Y0.34700
X0.54600 Y0.34600
X0.54500 Y0.34600
X0.54500 Y0.34400
X0.54400 Y0.34400
X0.54400 Y0.34200
X0.54300 Y0.34200
X0.54300 Y0.34100
X0.54200 Y0.34100
X0.54200 Y0.33900
X0.54100 Y0.33900
X0.54100 Y0.33800
X0.54000 Y0.33800
X0.54000 Y0.33700
X0.53900 Y0.33700
X0.53900 Y0.33600
X0.53800 Y0.33600
X0.53800 Y0.33500
X0.53700 Y0.33500
X0.53700 Y0.33400
X0.53500 Y0.33400
X0.53500 Y0.33300
X0.53300 Y0.33300
X0.53300 Y0.33200
X0.53200 Y0.33200
X0.53200 Y0.33100
X0.53000 Y0.33100
X0.53000 Y0.33000
X0.52800 Y0.33000
X0.52800 Y0.32900
X0.52600 Y0.32900
X0.52600 Y0.32800
X0.52500 Y0.32800
X0.52500 Y0.32700
X0.51900 Y0.32700
X0.51900 Y0.32600
X0.51300 Y0.32600
X0.51300 Y0.32500
X0.48600 Y0.32500
X0.48600 Y0.32600
X0.48000 Y0.32600
X0.48000 Y0.32700
X0.47400 Y0.32700
X0.47400 Y0.32800
X0.47300 Y0.32800
X0.47300 Y0.32900
X0.47100 Y0.32900
X0.47100 Y0.33000
X0.46900 Y0.33000
X0.46900 Y0.33100
X0.46700 Y0.33100
X0.46700 Y0.33200
X0.46600 Y0.33200
X0.46600 Y0.33300
X0.46400 Y0.33300
X0.46400 Y0.33400
X0.46200 Y0.33400
X0.46200 Y0.33500
X0.46100 Y0.33500
X0.46100 Y0.33600
X0.46000 Y0.33600
X0.46000 Y0.33700
X0.45900 Y0.33700
X0.45900 Y0.33800
X0.45800 Y0.33800
X0.45800 Y0.33900
X0.45700 Y0.33900
X0.45700 Y0.34000
X0.45600 Y0.34000
X0.45600 Y0.34200
X0.45500 Y0.34200
X0.45500 Y0.34400
X0.45400 Y0.34400
X0.45400 Y0.34600
X0.45300 Y0.34600
X0.45300 Y0.34700
X0.45200 Y0.34700
X0.45200 Y0.35000
X0.45100 Y0.35000
X0.45100 Y0.35400
X0.45000 Y0.35400
X0.45000 Y0.39700
X0.45100 Y0.39700
X0.45100 Y0.40100
X0.45200 Y0.40100
X0.45200 Y0.40400
X0.45300 Y0.40400
X0.45300 Y0.40500
X0.45400 Y0.40500
X0.45400 Y0.40700
X0.45500 Y0.40700
X0.45500 Y0.40900
X0.45600 Y0.40900
X0.45600 Y0.41100
X0.45700 Y0.41100
X0.45700 Y0.41200
X0.45800 Y0.41200
X0.45800 Y0.41300
X0.45900 Y0.41300
X0.45900 Y0.41400
X0.46000 Y0.41400
X0.46000 Y0.41500
X0.46100 Y0.41500
X0.46100 Y0.41600
X0.46200 Y0.41600
X0.46200 Y0.41700
X0.46400 Y0.41700
X0.46400 Y0.41800
X0.46600 Y0.41800
X0.46600 Y0.41900
X0.46700 Y0.41900
X0.46700 Y0.42000
X0.46900 Y0.42000
X0.46900 Y0.42100
X0.47100 Y0.42100
X0.47100 Y0.42200
X0.47300 Y0.42200
X0.47300 Y0.42300
X0.47400 Y0.42300
X0.47400 Y0.42400
X0.48000 Y0.42400
X0.48000 Y0.42500
X0.48600 Y0.42500
X0.48600 Y0.42600
X0.51300 Y0.42600
X0.51300 Y0.42500
X0.51900 Y0.42500
X0.51900 Y0.42400
X0.52500 Y0.42400
X0.52500 Y0.42300
X0.52600 Y0.42300
X0.52600 Y0.42200
X0.52800 Y0.42200
X0.52800 Y0.42100
X0.53000 Y0.42100
X0.53000 Y0.42000
X0.53200 Y0.42000
X0.53200 Y0.41900
X0.53300 Y0.41900
X0.53300 Y0.41800
X0.53500 Y0.41800
X0.53500 Y0.41700
X0.53700 Y0.41700
X0.53700 Y0.41600
X0.53800 Y0.41600
X0.53800 Y0.41500
G04 P0 ( dwell for no time -- G64 should not smooth over this point )
G00 Z0.08000 ( retract )

G00 X0.31100 Y0.41000 ( rapid move to begin. )
G01 Z-0.00800 F6.00000 ( plunge. )
G04 P0 ( dwell for no time -- G64 should not smooth over this point )
X0.31100 Y0.41000
X0.31200 Y0.41000
X0.31200 Y0.40800
X0.31300 Y0.40800
X0.31300 Y0.40700
X0.31400 Y0.40700
X0.31400 Y0.40600
X0.31500 Y0.40600
X0.31500 Y0.40400
X0.31600 Y0.40400
X0.31600 Y0.40200
X0.31700 Y0.40200
X0.31700 Y0.40000
X0.31800 Y0.40000
X0.31800 Y0.39600
X0.31900 Y0.39600
X0.31900 Y0.39100
X0.32000 Y0.39100
X0.32000 Y0.36000
X0.31900 Y0.36000
X0.31900 Y0.35500
X0.31800 Y0.35500
X0.31800 Y0.35100
X0.31700 Y0.35100
X0.31700 Y0.34900
X0.31600 Y0.34900
X0.31600 Y0.34700
X0.31500 Y0.34700
X0.31500 Y0.34500
X0.31400 Y0.34500
X0.31400 Y0.34400
X0.31300 Y0.34400
X0.31300 Y0.34300
X0.31200 Y0.34300
X0.31200 Y0.34100
X0.31100 Y0.34100
X0.31100 Y0.34000
X0.31000 Y0.34000
X0.31000 Y0.33900
X0.30900 Y0.33900
X0.30900 Y0.33800
X0.30700 Y0.33800
X0.30700 Y0.33700
X0.30500 Y0.33700
X0.30500 Y0.33600
X0.30400 Y0.33600
X0.30400 Y0.33500
X0.30200 Y0.33500
X0.30200 Y0.33400
X0.30000 Y0.33400
X0.30000 Y0.33300
X0.29800 Y0.33300
X0.29800 Y0.33200
X0.29400 Y0.33200
X0.29400 Y0.33100
X0.28800 Y0.33100
X0.28800 Y0.33000
X0.26100 Y0.33000
X0.26100 Y0.33100
X0.25500 Y0.33100
X0.25500 Y0.33200
X0.25100 Y0.33200
X0.25100 Y0.33300
X0.24900 Y0.33300
X0.24900 Y0.33400
X0.24700 Y0.33400
X0.24700 Y0.33500
X0.24500 Y0.33500
X0.24500 Y0.33600
X0.24400 Y0.33600
X0.24400 Y0.33700
X0.24200 Y0.33700
X0.24200 Y0.33800
X0.24000 Y0.33800
X0.24000 Y0.33900
X0.23900 Y0.33900
X0.23900 Y0.34000
X0.23800 Y0.34000
X0.23800 Y0.34100
X0.23700 Y0.34100
X0.23700 Y0.34300
X0.23600 Y0.34300
X0.23600 Y0.34400
X0.23500 Y0.34400
X0.23500 Y0.34500
X0.23400 Y0.34500
X0.23400 Y0.34700
X0.23300 Y0.34700
X0.23300 Y0.34900
X0.23200 Y0.34900
X0.23200 Y0.35100
X0.23100 Y0.35100
X0.23100 Y0.35400
X0.23000 Y0.35400
X0.23000 Y0.36000
X0.22900 Y0.36000
X0.22900 Y0.39100
X0.23000 Y0.39100
X0.23000 Y0.39700
X0.23100 Y0.39700
X0.23100 Y0.40000
X0.23200 Y0.40000
X0.23200 Y0.40200
X0.23300 Y0.40200
X0.23300 Y0.40400
X0.23400 Y0.40400
X0.23400 Y0.40600
X0.23500 Y0.40600
X0.23500 Y0.40700
X0.23600 Y0.40700
X0.23600 Y0.40800
X0.23700 Y0.40800
X0.23700 Y0.41000
X0.23800 Y0.41000
X0.23800 Y0.41100
X0.23900 Y0.41100
X0.23900 Y0.41200
X0.24000 Y0.41200
X0.24000 Y0.41300
X0.24200 Y0.41300
X0.24200 Y0.41400
X0.24400 Y0.41400
X0.24400 Y0.41500
X0.24500 Y0.41500
X0.24500 Y0.41600
X0.24700 Y0.41600
X0.24700 Y0.41700
X0.24900 Y0.41700
X0.24900 Y0.41800
X0.25100 Y0.41800
X0.25100 Y0.41900
X0.25500 Y0.41900
X0.25500 Y0.42000
X0.26100 Y0.42000
X0.26100 Y0.42100
X0.28800 Y0.42100
X0.28800 Y0.42000
X0.29400 Y0.42000
X0.29400 Y0.41900
X0.29800 Y0.41900
X0.29800 Y0.41800
X0.30000 Y0.41800
X0.30000 Y0.41700
X0.30200 Y0.41700
X0.30200 Y0.41600
X0.30400 Y0.41600
X0.30400 Y0.41500
X0.30500 Y0.41500
X0.30500 Y0.41400
X0.30700 Y0.41400
X0.30700 Y0.41300
X0.30900 Y0.41300
X0.30900 Y0.41200
X0.31000 Y0.41200
X0.31000 Y0.41100
X0.31100 Y0.41100
X0.31100 Y0.41000
G04 P0 ( dwell for no time -- G64 should not smooth over this point )
G00 Z0.08000 ( retract )

G00 X-0.12000 Y0.40000 ( rapid move to begin. )
G01 Z-0.00800 F6.00000 ( plunge. )
G04 P0 ( dwell for no time -- G64 should not smooth over this point )
X-0.12000 Y0.40000
X-0.11900 Y0.40000
X-0.11900 Y0.39900
X-0.11800 Y0.39900
X-0.11800 Y0.39700
X-0.11700 Y0.39700
X-0.11700 Y0.39400
X-0.11600 Y0.39400
X-0.11600 Y0.38900
X-0.11500 Y0.38900
X-0.11500 Y0.36200
X-0.11600 Y0.36200
X-0.11600 Y0.35700
X-0.11700 Y0.35700
X-0.11700 Y0.35400
X-0.11800 Y0.35400
X-0.11800 Y0.35200
X-0.11900 Y0.35200
X-0.11900 Y0.35100
X-0.12000 Y0.35100
X-0.12000 Y0.34900
X-0.12100 Y0.34900
X-0.12100 Y0.34800
X-0.12200 Y0.34800
X-0.12200 Y0.34700
X-0.12300 Y0.34700
X-0.12300 Y0.34600
X-0.12400 Y0.34600
X-0.12400 Y0.34500
X-0.12600 Y0.34500
X-0.12600 Y0.34400
X-0.12800 Y0.34400
X-0.12800 Y0.34300
X-0.12900 Y0.34300
X-0.12900 Y0.34200
X-0.13100 Y0.34200
X-0.13100 Y0.34100
X-0.13700 Y0.34100
X-0.13700 Y0.34000
X-0.16400 Y0.34000
X-0.16400 Y0.34100
X-0.17000 Y0.34100
X-0.17000 Y0.34200
X-0.17200 Y0.34200
X-0.17200 Y0.34300
X-0.17300 Y0.34300
X-0.17300 Y0.34400
X-0.17500 Y0.34400
X-0.17500 Y0.34500
X-0.17700 Y0.34500
X-0.17700 Y0.34600
X-0.17800 Y0.34600
X-0.17800 Y0.34700
X-0.17900 Y0.34700
X-0.17900 Y0.34800
X-0.18000 Y0.34800
X-0.18000 Y0.34900
X-0.18100 Y0.34900
X-0.18100 Y0.35100
X-0.18200 Y0.35100
X-0.18200 Y0.35200
X-0.18300 Y0.35200
X-0.18300 Y0.35400
X-0.18400 Y0.35400
X-0.18400 Y0.35700
X-0.18500 Y0.35700
X-0.18500 Y0.36200
X-0.18600 Y0.36200
X-0.18600 Y0.38900
X-0.18500 Y0.38900
X-0.18500 Y0.39400
X-0.18400 Y0.39400
X-0.18400 Y0.39700
X-0.18300 Y0.39700
X-0.18300 Y0.39900
X-0.18200 Y0.39900
X-0.18200 Y0.40000
X-0.18100 Y0.40000
X-0.18100 Y0.40200
X-0.18000 Y0.40200
X-0.18000 Y0.40300
X-0.17900 Y0.40300
X-0.17900 Y0.40400
X-0.17800 Y0.40400
X-0.17800 Y0.40500
X-0.17700 Y0.40500
X-0.17700 Y0.40600
X-0.17500 Y0.40600
X-0.17500 Y0.40700
X-0.17300 Y0.40700
X-0.17300 Y0.40800
X-0.17200 Y0.40800
X-0.17200 Y0.40900
X-0.17000 Y0.40900
X-0.17000 Y0.41000
X-0.16400 Y0.41000
X-0.16400 Y0.41100
X-0.13700 Y0.41100
X-0.13700 Y0.41000
X-0.13100 Y0.41000
X-0.13100 Y0.40900
X-0.12900 Y0.40900
X-0.12900 Y0.40800
X-0.12800 Y0.40800
X-0.12800 Y0.40700
X-0.12600 Y0.40700
X-0.12600 Y0.40600
X-0.12400 Y0.40600
X-0.12400 Y0.40500
X-0.12300 Y0.40500
X-0.12300 Y0.40400
X-0.12200 Y0.40400
X-0.12200 Y0.40300
X-0.12100 Y0.40300
X-0.12100 Y0.40200
X-0.12000 Y0.40200
X-0.12000 Y0.40000
G04 P0 ( dwell for no time -- G64 should not smooth over this point )
G00 Z0.08000 ( retract )

G00 X0.18000 Y0.40000 ( rapid move to begin. )
G01 Z-0.00800 F6.00000 ( plunge. )
G04 P0 ( dwell for no time -- G64 should not smooth over this point )
X0.18000 Y0.40000
X0.18100 Y0.40000
X0.18100 Y0.39900
X0.18200 Y0.39900
X0.18200 Y0.39700
X0.18300 Y0.39700
X0.18300 Y0.39400
X0.18400 Y0.39400
X0.18400 Y0.38900
X0.18500 Y0.38900
X0.18500 Y0.36200
X0.18400 Y0.36200
X0.18400 Y0.35700
X0.18300 Y0.35700
X0.18300 Y0.35400
X0.18200 Y0.35400
X0.18200 Y0.35200
X0.18100 Y0.35200
X0.18100 Y0.35100
X0.18000 Y0.35100
X0.18000 Y0.34900
X0.17900 Y0.34900
X0.17900 Y0.34800
X0.17800 Y0.34800
X0.17800 Y0.34700
X0.17700 Y0.34700
X0.17700 Y0.34600
X0.17600 Y0.34600
X0.17600 Y0.34500
X0.17400 Y0.34500
X0.17400 Y0.34400
X0.17200 Y0.34400
X0.17200 Y0.34300
X0.17100 Y0.34300
X0.17100 Y0.34200
X0.16900 Y0.34200
X0.16900 Y0.34100
X0.16300 Y0.34100
X0.16300 Y0.34000
X0.13600 Y0.34000
X0.13600 Y0.34100
X0.13000 Y0.34100
X0.13000 Y0.34200
X0.12800 Y0.34200
X0.12800 Y0.34300
X0.12700 Y0.34300
X0.12700 Y0.34400
X0.12500 Y0.34400
X0.12500 Y0.34500
X0.12300 Y0.34500
X0.12300 Y0.34600
X0.12200 Y0.34600
X0.12200 Y0.34700
X0.12100 Y0.34700
X0.12100 Y0.34800
X0.12000 Y0.34800
X0.12000 Y0.34900
X0.11900 Y0.34900
X0.11900 Y0.35100
X0.11800 Y0.35100
X0.11800 Y0.35200
X0.11700 Y0.35200
X0.11700 Y0.35400
X0.11600 Y0.35400
X0.11600 Y0.35700
X0.11500 Y0.35700
X0.11500 Y0.36200
X0.11400 Y0.36200
X0.11400 Y0.38900
X0.11500 Y0.38900
X0.11500 Y0.39400
X0.11600 Y0.39400
X0.11600 Y0.39700
X0.11700 Y0.39700
X0.11700 Y0.39900
X0.11800 Y0.39900
X0.11800 Y0.40000
X0.11900 Y0.40000
X0.11900 Y0.40200
X0.12000 Y0.40200
X0.12000 Y0.40300
X0.12100 Y0.40300
X0.12100 Y0.40400
X0.12200 Y0.40400
X0.12200 Y0.40500
X0.12300 Y0.40500
X0.12300 Y0.40600
X0.12500 Y0.40600
X0.12500 Y0.40700
X0.12700 Y0.40700
X0.12700 Y0.40800
X0.12800 Y0.40800
X0.12800 Y0.40900
X0.13000 Y0.40900
X0.13000 Y0.41000
X0.13600 Y0.41000
X0.13600 Y0.41100
X0.16300 Y0.41100
X0.16300 Y0.41000
X0.16900 Y0.41000
X0.16900 Y0.40900
X0.17100 Y0.40900
X0.17100 Y0.40800
X0.17200 Y0.40800
X0.17200 Y0.40700
X0.17400 Y0.40700
X0.17400 Y0.40600
X0.17600 Y0.40600
X0.17600 Y0.40500
X0.17700 Y0.40500
X0.17700 Y0.40400
X0.17800 Y0.40400
X0.17800 Y0.40300
X0.17900 Y0.40300
X0.17900 Y0.40200
X0.18000 Y0.40200
X0.18000 Y0.40000
G04 P0 ( dwell for no time -- G64 should not smooth over this point )
G00 Z0.08000 ( retract )

G00 X-0.12000 Y0.30000 ( rapid move to begin. )
G01 Z-0.00800 F6.00000 ( plunge. )
G04 P0 ( dwell for no time -- G64 should not smooth over this point )
X-0.12000 Y0.30000
X-0.11900 Y0.30000
X-0.11900 Y0.29900
X-0.11800 Y0.29900
X-0.11800 Y0.29700
X-0.11700 Y0.29700
X-0.11700 Y0.29400
X-0.11600 Y0.29400
X-0.11600 Y0.28900
X-0.11500 Y0.28900
X-0.11500 Y0.26200
X-0.11600 Y0.26200
X-0.11600 Y0.25700
X-0.11700 Y0.25700
X-0.11700 Y0.25400
X-0.11800 Y0.25400
X-0.11800 Y0.25200
X-0.11900 Y0.25200
X-0.11900 Y0.25100
X-0.12000 Y0.25100
X-0.12000 Y0.24900
X-0.12100 Y0.24900
X-0.12100 Y0.24800
X-0.12200 Y0.24800
X-0.12200 Y0.24700
X-0.12300 Y0.24700
X-0.12300 Y0.24600
X-0.12400 Y0.24600
X-0.12400 Y0.24500
X-0.12600 Y0.24500
X-0.12600 Y0.24400
X-0.12800 Y0.24400
X-0.12800 Y0.24300
X-0.12900 Y0.24300
X-0.12900 Y0.24200
X-0.13100 Y0.24200
X-0.13100 Y0.24100
X-0.13700 Y0.24100
X-0.13700 Y0.24000
X-0.16400 Y0.24000
X-0.16400 Y0.24100
X-0.17000 Y0.24100
X-0.17000 Y0.24200
X-0.17200 Y0.24200
X-0.17200 Y0.24300
X-0.17300 Y0.24300
X-0.17300 Y0.24400
X-0.17500 Y0.24400
X-0.17500 Y0.24500
X-0.17700 Y0.24500
X-0.17700 Y0.24600
X-0.17800 Y0.24600
X-0.17800 Y0.24700
X-0.17900 Y0.24700
X-0.17900 Y0.24800
X-0.18000 Y0.24800
X-0.18000 Y0.24900
X-0.18100 Y0.24900
X-0.18100 Y0.25100
X-0.18200 Y0.25100
X-0.18200 Y0.25200
X-0.18300 Y0.25200
X-0.18300 Y0.25400
X-0.18400 Y0.25400
X-0.18400 Y0.25700
X-0.18500 Y0.25700
X-0.18500 Y0.26200
X-0.18600 Y0.26200
X-0.18600 Y0.28900
X-0.18500 Y0.28900
X-0.18500 Y0.29400
X-0.18400 Y0.29400
X-0.18400 Y0.29700
X-0.18300 Y0.29700
X-0.18300 Y0.29900
X-0.18200 Y0.29900
X-0.18200 Y0.30000
X-0.18100 Y0.30000
X-0.18100 Y0.30200
X-0.18000 Y0.30200
X-0.18000 Y0.30300
X-0.17900 Y0.30300
X-0.17900 Y0.30400
X-0.17800 Y0.30400
X-0.17800 Y0.30500
X-0.17700 Y0.30500
X-0.17700 Y0.30600
X-0.17500 Y0.30600
X-0.17500 Y0.30700
X-0.17300 Y0.30700
X-0.17300 Y0.30800
X-0.17200 Y0.30800
X-0.17200 Y0.30900
X-0.17000 Y0.30900
X-0.17000 Y0.31000
X-0.16400 Y0.31000
X-0.16400 Y0.31100
X-0.13700 Y0.31100
X-0.13700 Y0.31000
X-0.13100 Y0.31000
X-0.13100 Y0.30900
X-0.12900 Y0.30900
X-0.12900 Y0.30800
X-0.12800 Y0.30800
X-0.12800 Y0.30700
X-0.12600 Y0.30700
X-0.12600 Y0.30600
X-0.12400 Y0.30600
X-0.12400 Y0.30500
X-0.12300 Y0.30500
X-0.12300 Y0.30400
X-0.12200 Y0.30400
X-0.12200 Y0.30300
X-0.12100 Y0.30300
X-0.12100 Y0.30200
X-0.12000 Y0.30200
X-0.12000 Y0.30000
G04 P0 ( dwell for no time -- G64 should not smooth over this point )
G00 Z0.08000 ( retract )

G00 X0.18000 Y0.30000 ( rapid move to begin. )
G01 Z-0.00800 F6.00000 ( plunge. )
G04 P0 ( dwell for no time -- G64 should not smooth over this point )
X0.18000 Y0.30000
X0.18100 Y0.30000
X0.18100 Y0.29900
X0.18200 Y0.29900
X0.18200 Y0.29700
X0.18300 Y0.29700
X0.18300 Y0.29400
X0.18400 Y0.29400
X0.18400 Y0.28900
X0.18500 Y0.28900
X0.18500 Y0.26200
X0.18400 Y0.26200
X0.18400 Y0.25700
X0.18300 Y0.25700
X0.18300 Y0.25400
X0.18200 Y0.25400
X0.18200 Y0.25200
X0.18100 Y0.25200
X0.18100 Y0.25100
X0.18000 Y0.25100
X0.18000 Y0.24900
X0.17900 Y0.24900
X0.17900 Y0.24800
X0.17800 Y0.24800
X0.17800 Y0.24700
X0.17700 Y0.24700
X0.17700 Y0.24600
X0.17600 Y0.24600
X0.17600 Y0.24500
X0.17400 Y0.24500
X0.17400 Y0.24400
X0.17200 Y0.24400
X0.17200 Y0.24300
X0.17100 Y0.24300
X0.17100 Y0.24200
X0.16900 Y0.24200
X0.16900 Y0.24100
X0.16300 Y0.24100
X0.16300 Y0.24000
X0.13600 Y0.24000
X0.13600 Y0.24100
X0.13000 Y0.24100
X0.13000 Y0.24200
X0.12800 Y0.24200
X0.12800 Y0.24300
X0.12700 Y0.24300
X0.12700 Y0.24400
X0.12500 Y0.24400
X0.12500 Y0.24500
X0.12300 Y0.24500
X0.12300 Y0.24600
X0.12200 Y0.24600
X0.12200 Y0.24700
X0.12100 Y0.24700
X0.12100 Y0.24800
X0.12000 Y0.24800
X0.12000 Y0.24900
X0.11900 Y0.24900
X0.11900 Y0.25100
X0.11800 Y0.25100
X0.11800 Y0.25200
X0.11700 Y0.25200
X0.11700 Y0.25400
X0.11600 Y0.25400
X0.11600 Y0.25700
X0.11500 Y0.25700
X0.11500 Y0.26200
X0.11400 Y0.26200
X0.11400 Y0.28900
X0.11500 Y0.28900
X0.11500 Y0.29400
X0.11600 Y0.29400
X0.11600 Y0.29700
X0.11700 Y0.29700
X0.11700 Y0.29900
X0.11800 Y0.29900
X0.11800 Y0.30000
X0.11900 Y0.30000
X0.11900 Y0.30200
X0.12000 Y0.30200
X0.12000 Y0.30300
X0.12100 Y0.30300
X0.12100 Y0.30400
X0.12200 Y0.30400
X0.12200 Y0.30500
X0.12300 Y0.30500
X0.12300 Y0.30600
X0.12500 Y0.30600
X0.12500 Y0.30700
X0.12700 Y0.30700
X0.12700 Y0.30800
X0.12800 Y0.30800
X0.12800 Y0.30900
X0.13000 Y0.30900
X0.13000 Y0.31000
X0.13600 Y0.31000
X0.13600 Y0.31100
X0.16300 Y0.31100
X0.16300 Y0.31000
X0.16900 Y0.31000
X0.16900 Y0.30900
X0.17100 Y0.30900
X0.17100 Y0.30800
X0.17200 Y0.30800
X0.17200 Y0.30700
X0.17400 Y0.30700
X0.17400 Y0.30600
X0.17600 Y0.30600
X0.17600 Y0.30500
X0.17700 Y0.30500
X0.17700 Y0.30400
X0.17800 Y0.30400
X0.17800 Y0.30300
X0.17900 Y0.30300
X0.17900 Y0.30200
X0.18000 Y0.30200
X0.18000 Y0.30000
G04 P0 ( dwell for no time -- G64 should not smooth over this point )
G00 Z0.08000 ( retract )

G00 X-0.12000 Y0.20000 ( rapid move to begin. )
G01 Z-0.00800 F6.00000 ( plunge. )
G04 P0 ( dwell for no time -- G64 should not smooth over this point )
X-0.12000 Y0.20000
X-0.11900 Y0.20000
X-0.11900 Y0.19900
X-0.11800 Y0.19900
X-0.11800 Y0.19700
X-0.11700 Y0.19700
X-0.11700 Y0.19400
X-0.11600 Y0.19400
X-0.11600 Y0.18900
X-0.11500 Y0.18900
X-0.11500 Y0.16200
X-0.11600 Y0.16200
X-0.11600 Y0.15700
X-0.11700 Y0.15700
X-0.11700 Y0.15400
X-0.11800 Y0.15400
X-0.11800 Y0.15200
X-0.11900 Y0.15200
X-0.11900 Y0.15100
X-0.12000 Y0.15100
X-0.12000 Y0.14900
X-0.12100 Y0.14900
X-0.12100 Y0.14800
X-0.12200 Y0.14800
X-0.12200 Y0.14700
X-0.12300 Y0.14700
X-0.12300 Y0.14600
X-0.12400 Y0.14600
X-0.12400 Y0.14500
X-0.12600 Y0.14500
X-0.12600 Y0.14400
X-0.12800 Y0.14400
X-0.12800 Y0.14300
X-0.12900 Y0.14300
X-0.12900 Y0.14200
X-0.13100 Y0.14200
X-0.13100 Y0.14100
X-0.13700 Y0.14100
X-0.13700 Y0.14000
X-0.16400 Y0.14000
X-0.16400 Y0.14100
X-0.17000 Y0.14100
X-0.17000 Y0.14200
X-0.17200 Y0.14200
X-0.17200 Y0.14300
X-0.17300 Y0.14300
X-0.17300 Y0.14400
X-0.17500 Y0.14400
X-0.17500 Y0.14500
X-0.17700 Y0.14500
X-0.17700 Y0.14600
X-0.17800 Y0.14600
X-0.17800 Y0.14700
X-0.17900 Y0.14700
X-0.17900 Y0.14800
X-0.18000 Y0.14800
X-0.18000 Y0.14900
X-0.18100 Y0.14900
X-0.18100 Y0.15100
X-0.18200 Y0.15100
X-0.18200 Y0.15200
X-0.18300 Y0.15200
X-0.18300 Y0.15400
X-0.18400 Y0.15400
X-0.18400 Y0.15700
X-0.18500 Y0.15700
X-0.18500 Y0.16200
X-0.18600 Y0.16200
X-0.18600 Y0.18900
X-0.18500 Y0.18900
X-0.18500 Y0.19400
X-0.18400 Y0.19400
X-0.18400 Y0.19700
X-0.18300 Y0.19700
X-0.18300 Y0.19900
X-0.18200 Y0.19900
X-0.18200 Y0.20000
X-0.18100 Y0.20000
X-0.18100 Y0.20200
X-0.18000 Y0.20200
X-0.18000 Y0.20300
X-0.17900 Y0.20300
X-0.17900 Y0.20400
X-0.17800 Y0.20400
X-0.17800 Y0.20500
X-0.17700 Y0.20500
X-0.17700 Y0.20600
X-0.17500 Y0.20600
X-0.17500 Y0.20700
X-0.17300 Y0.20700
X-0.17300 Y0.20800
X-0.17200 Y0.20800
X-0.17200 Y0.20900
X-0.17000 Y0.20900
X-0.17000 Y0.21000
X-0.16400 Y0.21000
X-0.16400 Y0.21100
X-0.13700 Y0.21100
X-0.13700 Y0.21000
X-0.13100 Y0.21000
X-0.13100 Y0.20900
X-0.12900 Y0.20900
X-0.12900 Y0.20800
X-0.12800 Y0.20800
X-0.12800 Y0.20700
X-0.12600 Y0.20700
X-0.12600 Y0.20600
X-0.12400 Y0.20600
X-0.12400 Y0.20500
X-0.12300 Y0.20500
X-0.12300 Y0.20400
X-0.12200 Y0.20400
X-0.12200 Y0.20300
X-0.12100 Y0.20300
X-0.12100 Y0.20200
X-0.12000 Y0.20200
X-0.12000 Y0.20000
G04 P0 ( dwell for no time -- G64 should not smooth over this point )
G00 Z0.08000 ( retract )

G00 X0.18000 Y0.20000 ( rapid move to begin. )
G01 Z-0.00800 F6.00000 ( plunge. )
G04 P0 ( dwell for no time -- G64 should not smooth over this point )
X0.18000 Y0.20000
X0.18100 Y0.20000
X0.18100 Y0.19900
X0.18200 Y0.19900
X0.18200 Y0.19700
X0.18300 Y0.19700
X0.18300 Y0.19400
X0.18400 Y0.19400
X0.18400 Y0.18900
X0.18500 Y0.18900
X0.18500 Y0.16200
X0.18400 Y0.16200
X0.18400 Y0.15700
X0.18300 Y0.15700
X0.18300 Y0.15400
X0.18200 Y0.15400
X0.18200 Y0.15200
X0.18100 Y0.15200
X0.18100 Y0.15100
X0.18000 Y0.15100
X0.18000 Y0.14900
X0.17900 Y0.14900
X0.17900 Y0.14800
X0.17800 Y0.14800
X0.17800 Y0.14700
X0.17700 Y0.14700
X0.17700 Y0.14600
X0.17600 Y0.14600
X0.17600 Y0.14500
X0.17400 Y0.14500
X0.17400 Y0.14400
X0.17200 Y0.14400
X0.17200 Y0.14300
X0.17100 Y0.14300
X0.17100 Y0.14200
X0.16900 Y0.14200
X0.16900 Y0.14100
X0.16300 Y0.14100
X0.16300 Y0.14000
X0.13600 Y0.14000
X0.13600 Y0.14100
X0.13000 Y0.14100
X0.13000 Y0.14200
X0.12800 Y0.14200
X0.12800 Y0.14300
X0.12700 Y0.14300
X0.12700 Y0.14400
X0.12500 Y0.14400
X0.12500 Y0.14500
X0.12300 Y0.14500
X0.12300 Y0.14600
X0.12200 Y0.14600
X0.12200 Y0.14700
X0.12100 Y0.14700
X0.12100 Y0.14800
X0.12000 Y0.14800
X0.12000 Y0.14900
X0.11900 Y0.14900
X0.11900 Y0.15100
X0.11800 Y0.15100
X0.11800 Y0.15200
X0.11700 Y0.15200
X0.11700 Y0.15400
X0.11600 Y0.15400
X0.11600 Y0.15700
X0.11500 Y0.15700
X0.11500 Y0.16200
X0.11400 Y0.16200
X0.11400 Y0.18900
X0.11500 Y0.18900
X0.11500 Y0.19400
X0.11600 Y0.19400
X0.11600 Y0.19700
X0.11700 Y0.19700
X0.11700 Y0.19900
X0.11800 Y0.19900
X0.11800 Y0.20000
X0.11900 Y0.20000
X0.11900 Y0.20200
X0.12000 Y0.20200
X0.12000 Y0.20300
X0.12100 Y0.20300
X0.12100 Y0.20400
X0.12200 Y0.20400
X0.12200 Y0.20500
X0.12300 Y0.20500
X0.12300 Y0.20600
X0.12500 Y0.20600
X0.12500 Y0.20700
X0.12700 Y0.20700
X0.12700 Y0.20800
X0.12800 Y0.20800
X0.12800 Y0.20900
X0.13000 Y0.20900
X0.13000 Y0.21000
X0.13600 Y0.21000
X0.13600 Y0.21100
X0.16300 Y0.21100
X0.16300 Y0.21000
X0.16900 Y0.21000
X0.16900 Y0.20900
X0.17100 Y0.20900
X0.17100 Y0.20800
X0.17200 Y0.20800
X0.17200 Y0.20700
X0.17400 Y0.20700
X0.17400 Y0.20600
X0.17600 Y0.20600
X0.17600 Y0.20500
X0.17700 Y0.20500
X0.17700 Y0.20400
X0.17800 Y0.20400
X0.17800 Y0.20300
X0.17900 Y0.20300
X0.17900 Y0.20200
X0.18000 Y0.20200
X0.18000 Y0.20000
G04 P0 ( dwell for no time -- G64 should not smooth over this point )
G00 Z0.08000 ( retract )

G00 X-0.12000 Y0.10000 ( rapid move to begin. )
G01 Z-0.00800 F6.00000 ( plunge. )
G04 P0 ( dwell for no time -- G64 should not smooth over this point )
X-0.12000 Y0.10000
X-0.11900 Y0.10000
X-0.11900 Y0.09900
X-0.11800 Y0.09900
X-0.11800 Y0.09700
X-0.11700 Y0.09700
X-0.11700 Y0.09400
X-0.11600 Y0.09400
X-0.11600 Y0.08900
X-0.11500 Y0.08900
X-0.11500 Y0.06200
X-0.11600 Y0.06200
X-0.11600 Y0.05700
X-0.11700 Y0.05700
X-0.11700 Y0.05400
X-0.11800 Y0.05400
X-0.11800 Y0.05200
X-0.11900 Y0.05200
X-0.11900 Y0.05100
X-0.12000 Y0.05100
X-0.12000 Y0.04900
X-0.12100 Y0.04900
X-0.12100 Y0.04800
X-0.12200 Y0.04800
X-0.12200 Y0.04700
X-0.12300 Y0.04700
X-0.12300 Y0.04600
X-0.12400 Y0.04600
X-0.12400 Y0.04500
X-0.12600 Y0.04500
X-0.12600 Y0.04400
X-0.12800 Y0.04400
X-0.12800 Y0.04300
X-0.12900 Y0.04300
X-0.12900 Y0.04200
X-0.13100 Y0.04200
X-0.13100 Y0.04100
X-0.13700 Y0.04100
X-0.13700 Y0.04000
X-0.16400 Y0.04000
X-0.16400 Y0.04100
X-0.17000 Y0.04100
X-0.17000 Y0.04200
X-0.17200 Y0.04200
X-0.17200 Y0.04300
X-0.17300 Y0.04300
X-0.17300 Y0.04400
X-0.17500 Y0.04400
X-0.17500 Y0.04500
X-0.17700 Y0.04500
X-0.17700 Y0.04600
X-0.17800 Y0.04600
X-0.17800 Y0.04700
X-0.17900 Y0.04700
X-0.17900 Y0.04800
X-0.18000 Y0.04800
X-0.18000 Y0.04900
X-0.18100 Y0.04900
X-0.18100 Y0.05100
X-0.18200 Y0.05100
X-0.18200 Y0.05200
X-0.18300 Y0.05200
X-0.18300 Y0.05400
X-0.18400 Y0.05400
X-0.18400 Y0.05700
X-0.18500 Y0.05700
X-0.18500 Y0.06200
X-0.18600 Y0.06200
X-0.18600 Y0.08900
X-0.18500 Y0.08900
X-0.18500 Y0.09400
X-0.18400 Y0.09400
X-0.18400 Y0.09700
X-0.18300 Y0.09700
X-0.18300 Y0.09900
X-0.18200 Y0.09900
X-0.18200 Y0.10000
X-0.18100 Y0.10000
X-0.18100 Y0.10200
X-0.18000 Y0.10200
X-0.18000 Y0.10300
X-0.17900 Y0.10300
X-0.17900 Y0.10400
X-0.17800 Y0.10400
X-0.17800 Y0.10500
X-0.17700 Y0.10500
X-0.17700 Y0.10600
X-0.17500 Y0.10600
X-0.17500 Y0.10700
X-0.17300 Y0.10700
X-0.17300 Y0.10800
X-0.17200 Y0.10800
X-0.17200 Y0.10900
X-0.17000 Y0.10900
X-0.17000 Y0.11000
X-0.16400 Y0.11000
X-0.16400 Y0.11100
X-0.13700 Y0.11100
X-0.13700 Y0.11000
X-0.13100 Y0.11000
X-0.13100 Y0.10900
X-0.12900 Y0.10900
X-0.12900 Y0.10800
X-0.12800 Y0.10800
X-0.12800 Y0.10700
X-0.12600 Y0.10700
X-0.12600 Y0.10600
X-0.12400 Y0.10600
X-0.12400 Y0.10500
X-0.12300 Y0.10500
X-0.12300 Y0.10400
X-0.12200 Y0.10400
X-0.12200 Y0.10300
X-0.12100 Y0.10300
X-0.12100 Y0.10200
X-0.12000 Y0.10200
X-0.12000 Y0.10000
G04 P0 ( dwell for no time -- G64 should not smooth over this point )
G00 Z0.08000 ( retract )

G00 X0.18000 Y0.10000 ( rapid move to begin. )
G01 Z-0.00800 F6.00000 ( plunge. )
G04 P0 ( dwell for no time -- G64 should not smooth over this point )
X0.18000 Y0.10000
X0.18100 Y0.10000
X0.18100 Y0.09900
X0.18200 Y0.09900
X0.18200 Y0.09700
X0.18300 Y0.09700
X0.18300 Y0.09400
X0.18400 Y0.09400
X0.18400 Y0.08900
X0.18500 Y0.08900
X0.18500 Y0.06200
X0.18400 Y0.06200
X0.18400 Y0.05700
X0.18300 Y0.05700
X0.18300 Y0.05400
X0.18200 Y0.05400
X0.18200 Y0.05200
X0.18100 Y0.05200
X0.18100 Y0.05100
X0.18000 Y0.05100
X0.18000 Y0.04900
X0.17900 Y0.04900
X0.17900 Y0.04800
X0.17800 Y0.04800
X0.17800 Y0.04700
X0.17700 Y0.04700
X0.17700 Y0.04600
X0.17600 Y0.04600
X0.17600 Y0.04500
X0.17400 Y0.04500
X0.17400 Y0.04400
X0.17200 Y0.04400
X0.17200 Y0.04300
X0.17100 Y0.04300
X0.17100 Y0.04200
X0.16900 Y0.04200
X0.16900 Y0.04100
X0.16300 Y0.04100
X0.16300 Y0.04000
X0.13600 Y0.04000
X0.13600 Y0.04100
X0.13000 Y0.04100
X0.13000 Y0.04200
X0.12800 Y0.04200
X0.12800 Y0.04300
X0.12700 Y0.04300
X0.12700 Y0.04400
X0.12500 Y0.04400
X0.12500 Y0.04500
X0.12300 Y0.04500
X0.12300 Y0.04600
X0.12200 Y0.04600
X0.12200 Y0.04700
X0.12100 Y0.04700
X0.12100 Y0.04800
X0.12000 Y0.04800
X0.12000 Y0.04900
X0.11900 Y0.04900
X0.11900 Y0.05100
X0.11800 Y0.05100
X0.11800 Y0.05200
X0.11700 Y0.05200
X0.11700 Y0.05400
X0.11600 Y0.05400
X0.11600 Y0.05700
X0.11500 Y0.05700
X0.11500 Y0.06200
X0.11400 Y0.06200
X0.11400 Y0.08900
X0.11500 Y0.08900
X0.11500 Y0.09400
X0.11600 Y0.09400
X0.11600 Y0.09700
X0.11700 Y0.09700
X0.11700 Y0.09900
X0.11800 Y0.09900
X0.11800 Y0.10000
X0.11900 Y0.10000
X0.11900 Y0.10200
X0.12000 Y0.10200
X0.12000 Y0.10300
X0.12100 Y0.10300
X0.12100 Y0.10400
X0.12200 Y0.10400
X0.12200 Y0.10500
X0.12300 Y0.10500
X0.12300 Y0.10600
X0.12500 Y0.10600
X0.12500 Y0.10700
X0.12700 Y0.10700
X0.12700 Y0.10800
X0.12800 Y0.10800
X0.12800 Y0.10900
X0.13000 Y0.10900
X0.13000 Y0.11000
X0.13600 Y0.11000
X0.13600 Y0.11100
X0.16300 Y0.11100
X0.16300 Y0.11000
X0.16900 Y0.11000
X0.16900 Y0.10900
X0.17100 Y0.10900
X0.17100 Y0.10800
X0.17200 Y0.10800
X0.17200 Y0.10700
X0.17400 Y0.10700
X0.17400 Y0.10600
X0.17600 Y0.10600
X0.17600 Y0.10500
X0.17700 Y0.10500
X0.17700 Y0.10400
X0.17800 Y0.10400
X0.17800 Y0.10300
X0.17900 Y0.10300
X0.17900 Y0.10200
X0.18000 Y0.10200
X0.18000 Y0.10000
G04 P0 ( dwell for no time -- G64 should not smooth over this point )
G00 Z0.08000 ( retract )

G00 X0.31100 Y0.01000 ( rapid move to begin. )
G01 Z-0.00800 F6.00000 ( plunge. )
G04 P0 ( dwell for no time -- G64 should not smooth over this point )
X0.31100 Y0.01000
X0.31200 Y0.01000
X0.31200 Y0.00800
X0.31300 Y0.00800
X0.31300 Y0.00700
X0.31400 Y0.00700
X0.31400 Y0.00600
X0.31500 Y0.00600
X0.31500 Y0.00400
X0.31600 Y0.00400
X0.31600 Y0.00200
X0.31700 Y0.00200
X0.31700 Y-0.00000
X0.31800 Y-0.00000
X0.31800 Y-0.00400
X0.31900 Y-0.00400
X0.31900 Y-0.00900
X0.32000 Y-0.00900
X0.32000 Y-0.04000
X0.31900 Y-0.04000
X0.31900 Y-0.04500
X0.31800 Y-0.04500
X0.31800 Y-0.04900
X0.31700 Y-0.04900
X0.31700 Y-0.05100
X0.31600 Y-0.05100
X0.31600 Y-0.05300
X0.31500 Y-0.05300
X0.31500 Y-0.05500
X0.31400 Y-0.05500
X0.31400 Y-0.05600
X0.31300 Y-0.05600
X0.31300 Y-0.05700
X0.31200 Y-0.05700
X0.31200 Y-0.05900
X0.31100 Y-0.05900
X0.31100 Y-0.06000
X0.31000 Y-0.06000
X0.31000 Y-0.06100
X0.30900 Y-0.06100
X0.30900 Y-0.06200
X0.30700 Y-0.06200
X0.30700 Y-0.06300
X0.30500 Y-0.06300
X0.30500 Y-0.06400
X0.30400 Y-0.06400
X0.30400 Y-0.06500
X0.30200 Y-0.06500
X0.30200 Y-0.06600
X0.30000 Y-0.06600
X0.30000 Y-0.06700
X0.29800 Y-0.06700
X0.29800 Y-0.06800
X0.29400 Y-0.06800
X0.29400 Y-0.06900
X0.28800 Y-0.06900
X0.28800 Y-0.07000
X0.26100 Y-0.07000
X0.26100 Y-0.06900
X0.25500 Y-0.06900
X0.25500 Y-0.06800
X0.25100 Y-0.06800
X0.25100 Y-0.06700
X0.24900 Y-0.06700
X0.24900 Y-0.06600
X0.24700 Y-0.06600
X0.24700 Y-0.06500
X0.24500 Y-0.06500
X0.24500 Y-0.06400
X0.24400 Y-0.06400
X0.24400 Y-0.06300
X0.24200 Y-0.06300
X0.24200 Y-0.06200
X0.24000 Y-0.06200
X0.24000 Y-0.06100
X0.23900 Y-0.06100
X0.23900 Y-0.06000
X0.23800 Y-0.06000
X0.23800 Y-0.05900
X0.23700 Y-0.05900
X0.23700 Y-0.05700
X0.23600 Y-0.05700
X0.23600 Y-0.05600
X0.23500 Y-0.05600
X0.23500 Y-0.05500
X0.23400 Y-0.05500
X0.23400 Y-0.05300
X0.23300 Y-0.05300
X0.23300 Y-0.05100
X0.23200 Y-0.05100
X0.23200 Y-0.04900
X0.23100 Y-0.04900
X0.23100 Y-0.04600
X0.23000 Y-0.04600
X0.23000 Y-0.04000
X0.22900 Y-0.04000
X0.22900 Y-0.00900
X0.23000 Y-0.00900
X0.23000 Y-0.00300
X0.23100 Y-0.00300
X0.23100 Y-0.00000
X0.23200 Y-0.00000
X0.23200 Y0.00200
X0.23300 Y0.00200
X0.23300 Y0.00400
X0.23400 Y0.00400
X0.23400 Y0.00600
X0.23500 Y0.00600
X0.23500 Y0.00700
X0.23600 Y0.00700
X0.23600 Y0.00800
X0.23700 Y0.00800
X0.23700 Y0.01000
X0.23800 Y0.01000
X0.23800 Y0.01100
X0.23900 Y0.01100
X0.23900 Y0.01200
X0.24000 Y0.01200
X0.24000 Y0.01300
X0.24200 Y0.01300
X0.24200 Y0.01400
X0.24400 Y0.01400
X0.24400 Y0.01500
X0.24500 Y0.01500
X0.24500 Y0.01600
X0.24700 Y0.01600
X0.24700 Y0.01700
X0.24900 Y0.01700
X0.24900 Y0.01800
X0.25100 Y0.01800
X0.25100 Y0.01900
X0.25500 Y0.01900
X0.25500 Y0.02000
X0.26100 Y0.02000
X0.26100 Y0.02100
X0.28800 Y0.02100
X0.28800 Y0.02000
X0.29400 Y0.02000
X0.29400 Y0.01900
X0.29800 Y0.01900
X0.29800 Y0.01800
X0.30000 Y0.01800
X0.30000 Y0.01700
X0.30200 Y0.01700
X0.30200 Y0.01600
X0.30400 Y0.01600
X0.30400 Y0.01500
X0.30500 Y0.01500
X0.30500 Y0.01400
X0.30700 Y0.01400
X0.30700 Y0.01300
X0.30900 Y0.01300
X0.30900 Y0.01200
X0.31000 Y0.01200
X0.31000 Y0.01100
X0.31100 Y0.01100
X0.31100 Y0.01000
G04 P0 ( dwell for no time -- G64 should not smooth over this point )
G00 Z0.08000 ( retract )

G00 X-0.12000 Y-0.00000 ( rapid move to begin. )
G01 Z-0.00800 F6.00000 ( plunge. )
G04 P0 ( dwell for no time -- G64 should not smooth over this point )
X-0.12000 Y-0.00000
X-0.11900 Y-0.00000
X-0.11900 Y-0.00100
X-0.11800 Y-0.00100
X-0.11800 Y-0.00300
X-0.11700 Y-0.00300
X-0.11700 Y-0.00600
X-0.11600 Y-0.00600
X-0.11600 Y-0.01100
X-0.11500 Y-0.01100
X-0.11500 Y-0.03800
X-0.11600 Y-0.03800
X-0.11600 Y-0.04300
X-0.11700 Y-0.04300
X-0.11700 Y-0.04600
X-0.11800 Y-0.04600
X-0.11800 Y-0.04800
X-0.11900 Y-0.04800
X-0.11900 Y-0.04900
X-0.12000 Y-0.04900
X-0.12000 Y-0.05100
X-0.12100 Y-0.05100
X-0.12100 Y-0.05200
X-0.12200 Y-0.05200
X-0.12200 Y-0.05300
X-0.12300 Y-0.05300
X-0.12300 Y-0.05400
X-0.12400 Y-0.05400
X-0.12400 Y-0.05500
X-0.12600 Y-0.05500
X-0.12600 Y-0.05600
X-0.12800 Y-0.05600
X-0.12800 Y-0.05700
X-0.12900 Y-0.05700
X-0.12900 Y-0.05800
X-0.13100 Y-0.05800
X-0.13100 Y-0.05900
X-0.13700 Y-0.05900
X-0.13700 Y-0.06000
X-0.16400 Y-0.06000
X-0.16400 Y-0.05900
X-0.17000 Y-0.05900
X-0.17000 Y-0.05800
X-0.17200 Y-0.05800
X-0.17200 Y-0.05700
X-0.17300 Y-0.05700
X-0.17300 Y-0.05600
X-0.17500 Y-0.05600
X-0.17500 Y-0.05500
X-0.17700 Y-0.05500
X-0.17700 Y-0.05400
X-0.17800 Y-0.05400
X-0.17800 Y-0.05300
X-0.17900 Y-0.05300
X-0.17900 Y-0.05200
X-0.18000 Y-0.05200
X-0.18000 Y-0.05100
X-0.18100 Y-0.05100
X-0.18100 Y-0.04900
X-0.18200 Y-0.04900
X-0.18200 Y-0.04800
X-0.18300 Y-0.04800
X-0.18300 Y-0.04600
X-0.18400 Y-0.04600
X-0.18400 Y-0.04300
X-0.18500 Y-0.04300
X-0.18500 Y-0.03800
X-0.18600 Y-0.03800
X-0.18600 Y-0.01100
X-0.18500 Y-0.01100
X-0.18500 Y-0.00600
X-0.18400 Y-0.00600
X-0.18400 Y-0.00300
X-0.18300 Y-0.00300
X-0.18300 Y-0.00100
X-0.18200 Y-0.00100
X-0.18200 Y-0.00000
X-0.18100 Y-0.00000
X-0.18100 Y0.00200
X-0.18000 Y0.00200
X-0.18000 Y0.00300
X-0.17900 Y0.00300
X-0.17900 Y0.00400
X-0.17800 Y0.00400
X-0.17800 Y0.00500
X-0.17700 Y0.00500
X-0.17700 Y0.00600
X-0.17500 Y0.00600
X-0.17500 Y0.00700
X-0.17300 Y0.00700
X-0.17300 Y0.00800
X-0.17200 Y0.00800
X-0.17200 Y0.00900
X-0.17000 Y0.00900
X-0.17000 Y0.01000
X-0.16400 Y0.01000
X-0.16400 Y0.01100
X-0.13700 Y0.01100
X-0.13700 Y0.01000
X-0.13100 Y0.01000
X-0.13100 Y0.00900
X-0.12900 Y0.00900
X-0.12900 Y0.00800
X-0.12800 Y0.00800
X-0.12800 Y0.00700
X-0.12600 Y0.00700
X-0.12600 Y0.00600
X-0.12400 Y0.00600
X-0.12400 Y0.00500
X-0.12300 Y0.00500
X-0.12300 Y0.00400
X-0.12200 Y0.00400
X-0.12200 Y0.00300
X-0.12100 Y0.00300
X-0.12100 Y0.00200
X-0.12000 Y0.00200
X-0.12000 Y-0.00000
G04 P0 ( dwell for no time -- G64 should not smooth over this point )
G00 Z0.08000 ( retract )

G00 X0.18000 Y-0.00000 ( rapid move to begin. )
G01 Z-0.00800 F6.00000 ( plunge. )
G04 P0 ( dwell for no time -- G64 should not smooth over this point )
X0.18000 Y-0.00000
X0.18100 Y-0.00000
X0.18100 Y-0.00100
X0.18200 Y-0.00100
X0.18200 Y-0.00300
X0.18300 Y-0.00300
X0.18300 Y-0.00600
X0.18400 Y-0.00600
X0.18400 Y-0.01100
X0.18500 Y-0.01100
X0.18500 Y-0.03800
X0.18400 Y-0.03800
X0.18400 Y-0.04300
X0.18300 Y-0.04300
X0.18300 Y-0.04600
X0.18200 Y-0.04600
X0.18200 Y-0.04800
X0.18100 Y-0.04800
X0.18100 Y-0.04900
X0.18000 Y-0.04900
X0.18000 Y-0.05100
X0.17900 Y-0.05100
X0.17900 Y-0.05200
X0.17800 Y-0.05200
X0.17800 Y-0.05300
X0.17700 Y-0.05300
X0.17700 Y-0.05400
X0.17600 Y-0.05400
X0.17600 Y-0.05500
X0.17400 Y-0.05500
X0.17400 Y-0.05600
X0.17200 Y-0.05600
X0.17200 Y-0.05700
X0.17100 Y-0.05700
X0.17100 Y-0.05800
X0.16900 Y-0.05800
X0.16900 Y-0.05900
X0.16300 Y-0.05900
X0.16300 Y-0.06000
X0.13600 Y-0.06000
X0.13600 Y-0.05900
X0.13000 Y-0.05900
X0.13000 Y-0.05800
X0.12800 Y-0.05800
X0.12800 Y-0.05700
X0.12700 Y-0.05700
X0.12700 Y-0.05600
X0.12500 Y-0.05600
X0.12500 Y-0.05500
X0.12300 Y-0.05500
X0.12300 Y-0.05400
X0.12200 Y-0.05400
X0.12200 Y-0.05300
X0.12100 Y-0.05300
X0.12100 Y-0.05200
X0.12000 Y-0.05200
X0.12000 Y-0.05100
X0.11900 Y-0.05100
X0.11900 Y-0.04900
X0.11800 Y-0.04900
X0.11800 Y-0.04800
X0.11700 Y-0.04800
X0.11700 Y-0.04600
X0.11600 Y-0.04600
X0.11600 Y-0.04300
X0.11500 Y-0.04300
X0.11500 Y-0.03800
X0.11400 Y-0.03800
X0.11400 Y-0.01100
X0.11500 Y-0.01100
X0.11500 Y-0.00600
X0.11600 Y-0.00600
X0.11600 Y-0.00300
X0.11700 Y-0.00300
X0.11700 Y-0.00100
X0.11800 Y-0.00100
X0.11800 Y-0.00000
X0.11900 Y-0.00000
X0.11900 Y0.00200
X0.12000 Y0.00200
X0.12000 Y0.00300
X0.12100 Y0.00300
X0.12100 Y0.00400
X0.12200 Y0.00400
X0.12200 Y0.00500
X0.12300 Y0.00500
X0.12300 Y0.00600
X0.12500 Y0.00600
X0.12500 Y0.00700
X0.12700 Y0.00700
X0.12700 Y0.00800
X0.12800 Y0.00800
X0.12800 Y0.00900
X0.13000 Y0.00900
X0.13000 Y0.01000
X0.13600 Y0.01000
X0.13600 Y0.01100
X0.16300 Y0.01100
X0.16300 Y0.01000
X0.16900 Y0.01000
X0.16900 Y0.00900
X0.17100 Y0.00900
X0.17100 Y0.00800
X0.17200 Y0.00800
X0.17200 Y0.00700
X0.17400 Y0.00700
X0.17400 Y0.00600
X0.17600 Y0.00600
X0.17600 Y0.00500
X0.17700 Y0.00500
X0.17700 Y0.00400
X0.17800 Y0.00400
X0.17800 Y0.00300
X0.17900 Y0.00300
X0.17900 Y0.00200
X0.18000 Y0.00200
X0.18000 Y-0.00000
G04 P0 ( dwell for no time -- G64 should not smooth over this point )
G00 Z0.08000 ( retract )

G00 X-0.12000 Y-0.10000 ( rapid move to begin. )
G01 Z-0.00800 F6.00000 ( plunge. )
G04 P0 ( dwell for no time -- G64 should not smooth over this point )
X-0.12000 Y-0.10000
X-0.11900 Y-0.10000
X-0.11900 Y-0.10100
X-0.11800 Y-0.10100
X-0.11800 Y-0.10300
X-0.11700 Y-0.10300
X-0.11700 Y-0.10600
X-0.11600 Y-0.10600
X-0.11600 Y-0.11100
X-0.11500 Y-0.11100
X-0.11500 Y-0.13800
X-0.11600 Y-0.13800
X-0.11600 Y-0.14300
X-0.11700 Y-0.14300
X-0.11700 Y-0.14600
X-0.11800 Y-0.14600
X-0.11800 Y-0.14800
X-0.11900 Y-0.14800
X-0.11900 Y-0.14900
X-0.12000 Y-0.14900
X-0.12000 Y-0.15100
X-0.12100 Y-0.15100
X-0.12100 Y-0.15200
X-0.12200 Y-0.15200
X-0.12200 Y-0.15300
X-0.12300 Y-0.15300
X-0.12300 Y-0.15400
X-0.12400 Y-0.15400
X-0.12400 Y-0.15500
X-0.12600 Y-0.15500
X-0.12600 Y-0.15600
X-0.12800 Y-0.15600
X-0.12800 Y-0.15700
X-0.12900 Y-0.15700
X-0.12900 Y-0.15800
X-0.13100 Y-0.15800
X-0.13100 Y-0.15900
X-0.13700 Y-0.15900
X-0.13700 Y-0.16000
X-0.16400 Y-0.16000
X-0.16400 Y-0.15900
X-0.17000 Y-0.15900
X-0.17000 Y-0.15800
X-0.17200 Y-0.15800
X-0.17200 Y-0.15700
X-0.17300 Y-0.15700
X-0.17300 Y-0.15600
X-0.17500 Y-0.15600
X-0.17500 Y-0.15500
X-0.17700 Y-0.15500
X-0.17700 Y-0.15400
X-0.17800 Y-0.15400
X-0.17800 Y-0.15300
X-0.17900 Y-0.15300
X-0.17900 Y-0.15200
X-0.18000 Y-0.15200
X-0.18000 Y-0.15100
X-0.18100 Y-0.15100
X-0.18100 Y-0.14900
X-0.18200 Y-0.14900
X-0.18200 Y-0.14800
X-0.18300 Y-0.14800
X-0.18300 Y-0.14600
X-0.18400 Y-0.14600
X-0.18400 Y-0.14300
X-0.18500 Y-0.14300
X-0.18500 Y-0.13800
X-0.18600 Y-0.13800
X-0.18600 Y-0.11100
X-0.18500 Y-0.11100
X-0.18500 Y-0.10600
X-0.18400 Y-0.10600
X-0.18400 Y-0.10300
X-0.18300 Y-0.10300
X-0.18300 Y-0.10100
X-0.18200 Y-0.10100
X-0.18200 Y-0.10000
X-0.18100 Y-0.10000
X-0.18100 Y-0.09800
X-0.18000 Y-0.09800
X-0.18000 Y-0.09700
X-0.17900 Y-0.09700
X-0.17900 Y-0.09600
X-0.17800 Y-0.09600
X-0.17800 Y-0.09500
X-0.17700 Y-0.09500
X-0.17700 Y-0.09400
X-0.17500 Y-0.09400
X-0.17500 Y-0.09300
X-0.17300 Y-0.09300
X-0.17300 Y-0.09200
X-0.17200 Y-0.09200
X-0.17200 Y-0.09100
X-0.17000 Y-0.09100
X-0.17000 Y-0.09000
X-0.16400 Y-0.09000
X-0.16400 Y-0.08900
X-0.13700 Y-0.08900
X-0.13700 Y-0.09000
X-0.13100 Y-0.09000
X-0.13100 Y-0.09100
X-0.12900 Y-0.09100
X-0.12900 Y-0.09200
X-0.12800 Y-0.09200
X-0.12800 Y-0.09300
X-0.12600 Y-0.09300
X-0.12600 Y-0.09400
X-0.12400 Y-0.09400
X-0.12400 Y-0.09500
X-0.12300 Y-0.09500
X-0.12300 Y-0.09600
X-0.12200 Y-0.09600
X-0.12200 Y-0.09700
X-0.12100 Y-0.09700
X-0.12100 Y-0.09800
X-0.12000 Y-0.09800
X-0.12000 Y-0.10000
G04 P0 ( dwell for no time -- G64 should not smooth over this point )
G00 Z0.08000 ( retract )

G00 X0.18000 Y-0.10000 ( rapid move to begin. )
G01 Z-0.00800 F6.00000 ( plunge. )
G04 P0 ( dwell for no time -- G64 should not smooth over this point )
X0.18000 Y-0.10000
X0.18100 Y-0.10000
X0.18100 Y-0.10100
X0.18200 Y-0.10100
X0.18200 Y-0.10300
X0.18300 Y-0.10300
X0.18300 Y-0.10600
X0.18400 Y-0.10600
X0.18400 Y-0.11100
X0.18500 Y-0.11100
X0.18500 Y-0.13800
X0.18400 Y-0.13800
X0.18400 Y-0.14300
X0.18300 Y-0.14300
X0.18300 Y-0.14600
X0.18200 Y-0.14600
X0.18200 Y-0.14800
X0.18100 Y-0.14800
X0.18100 Y-0.14900
X0.18000 Y-0.14900
X0.18000 Y-0.15100
X0.17900 Y-0.15100
X0.17900 Y-0.15200
X0.17800 Y-0.15200
X0.17800 Y-0.15300
X0.17700 Y-0.15300
X0.17700 Y-0.15400
X0.17600 Y-0.15400
X0.17600 Y-0.15500
X0.17400 Y-0.15500
X0.17400 Y-0.15600
X0.17200 Y-0.15600
X0.17200 Y-0.15700
X0.17100 Y-0.15700
X0.17100 Y-0.15800
X0.16900 Y-0.15800
X0.16900 Y-0.15900
X0.16300 Y-0.15900
X0.16300 Y-0.16000
X0.13600 Y-0.16000
X0.13600 Y-0.15900
X0.13000 Y-0.15900
X0.13000 Y-0.15800
X0.12800 Y-0.15800
X0.12800 Y-0.15700
X0.12700 Y-0.15700
X0.12700 Y-0.15600
X0.12500 Y-0.15600
X0.12500 Y-0.15500
X0.12300 Y-0.15500
X0.12300 Y-0.15400
X0.12200 Y-0.15400
X0.12200 Y-0.15300
X0.12100 Y-0.15300
X0.12100 Y-0.15200
X0.12000 Y-0.15200
X0.12000 Y-0.15100
X0.11900 Y-0.15100
X0.11900 Y-0.14900
X0.11800 Y-0.14900
X0.11800 Y-0.14800
X0.11700 Y-0.14800
X0.11700 Y-0.14600
X0.11600 Y-0.14600
X0.11600 Y-0.14300
X0.11500 Y-0.14300
X0.11500 Y-0.13800
X0.11400 Y-0.13800
X0.11400 Y-0.11100
X0.11500 Y-0.11100
X0.11500 Y-0.10600
X0.11600 Y-0.10600
X0.11600 Y-0.10300
X0.11700 Y-0.10300
X0.11700 Y-0.10100
X0.11800 Y-0.10100
X0.11800 Y-0.10000
X0.11900 Y-0.10000
X0.11900 Y-0.09800
X0.12000 Y-0.09800
X0.12000 Y-0.09700
X0.12100 Y-0.09700
X0.12100 Y-0.09600
X0.12200 Y-0.09600
X0.12200 Y-0.09500
X0.12300 Y-0.09500
X0.12300 Y-0.09400
X0.12500 Y-0.09400
X0.12500 Y-0.09300
X0.12700 Y-0.09300
X0.12700 Y-0.09200
X0.12800 Y-0.09200
X0.12800 Y-0.09100
X0.13000 Y-0.09100
X0.13000 Y-0.09000
X0.13600 Y-0.09000
X0.13600 Y-0.08900
X0.16300 Y-0.08900
X0.16300 Y-0.09000
X0.16900 Y-0.09000
X0.16900 Y-0.09100
X0.17100 Y-0.09100
X0.17100 Y-0.09200
X0.17200 Y-0.09200
X0.17200 Y-0.09300
X0.17400 Y-0.09300
X0.17400 Y-0.09400
X0.17600 Y-0.09400
X0.17600 Y-0.09500
X0.17700 Y-0.09500
X0.17700 Y-0.09600
X0.17800 Y-0.09600
X0.17800 Y-0.09700
X0.17900 Y-0.09700
X0.17900 Y-0.09800
X0.18000 Y-0.09800
X0.18000 Y-0.10000
G04 P0 ( dwell for no time -- G64 should not smooth over this point )
G00 Z0.08000 ( retract )

G00 X0.55000 Y-0.11000 ( rapid move to begin. )
G01 Z-0.00800 F6.00000 ( plunge. )
G04 P0 ( dwell for no time -- G64 should not smooth over this point )
X0.55000 Y-0.11000
X0.55000 Y-0.20000
X0.44900 Y-0.20000
X0.44900 Y-0.09900
X0.55000 Y-0.09900
X0.55000 Y-0.11000
G04 P0 ( dwell for no time -- G64 should not smooth over this point )
G00 Z0.08000 ( retract )

G00 X0.36100 Y-0.11500 ( rapid move to begin. )
G01 Z-0.00800 F6.00000 ( plunge. )
G04 P0 ( dwell for no time -- G64 should not smooth over this point )
X0.36100 Y-0.11500
X0.36200 Y-0.11500
X0.36200 Y-0.11700
X0.36300 Y-0.11700
X0.36300 Y-0.11800
X0.36400 Y-0.11800
X0.36400 Y-0.11900
X0.36500 Y-0.11900
X0.36500 Y-0.12100
X0.36600 Y-0.12100
X0.36600 Y-0.12300
X0.36700 Y-0.12300
X0.36700 Y-0.12500
X0.36800 Y-0.12500
X0.36800 Y-0.12900
X0.36900 Y-0.12900
X0.36900 Y-0.13400
X0.37000 Y-0.13400
X0.37000 Y-0.16500
X0.36900 Y-0.16500
X0.36900 Y-0.17000
X0.36800 Y-0.17000
X0.36800 Y-0.17400
X0.36700 Y-0.17400
X0.36700 Y-0.17600
X0.36600 Y-0.17600
X0.36600 Y-0.17800
X0.36500 Y-0.17800
X0.36500 Y-0.18000
X0.36400 Y-0.18000
X0.36400 Y-0.18100
X0.36300 Y-0.18100
X0.36300 Y-0.18200
X0.36200 Y-0.18200
X0.36200 Y-0.18400
X0.36100 Y-0.18400
X0.36100 Y-0.18500
X0.36000 Y-0.18500
X0.36000 Y-0.18600
X0.35900 Y-0.18600
X0.35900 Y-0.18700
X0.35700 Y-0.18700
X0.35700 Y-0.18800
X0.35500 Y-0.18800
X0.35500 Y-0.18900
X0.35400 Y-0.18900
X0.35400 Y-0.19000
X0.35200 Y-0.19000
X0.35200 Y-0.19100
X0.35000 Y-0.19100
X0.35000 Y-0.19200
X0.34800 Y-0.19200
X0.34800 Y-0.19300
X0.34400 Y-0.19300
X0.34400 Y-0.19400
X0.33800 Y-0.19400
X0.33800 Y-0.19500
X0.31100 Y-0.19500
X0.31100 Y-0.19400
X0.30500 Y-0.19400
X0.30500 Y-0.19300
X0.30100 Y-0.19300
X0.30100 Y-0.19200
X0.29900 Y-0.19200
X0.29900 Y-0.19100
X0.29700 Y-0.19100
X0.29700 Y-0.19000
X0.29500 Y-0.19000
X0.29500 Y-0.18900
X0.29400 Y-0.18900
X0.29400 Y-0.18800
X0.29200 Y-0.18800
X0.29200 Y-0.18700
X0.29000 Y-0.18700
X0.29000 Y-0.18600
X0.28900 Y-0.18600
X0.28900 Y-0.18500
X0.28800 Y-0.18500
X0.28800 Y-0.18400
X0.28700 Y-0.18400
X0.28700 Y-0.18200
X0.28600 Y-0.18200
X0.28600 Y-0.18100
X0.28500 Y-0.18100
X0.28500 Y-0.18000
X0.28400 Y-0.18000
X0.28400 Y-0.17800
X0.28300 Y-0.17800
X0.28300 Y-0.17600
X0.28200 Y-0.17600
X0.28200 Y-0.17400
X0.28100 Y-0.17400
X0.28100 Y-0.17100
X0.28000 Y-0.17100
X0.28000 Y-0.16500
X0.27900 Y-0.16500
X0.27900 Y-0.13400
X0.28000 Y-0.13400
X0.28000 Y-0.12800
X0.28100 Y-0.12800
X0.28100 Y-0.12500
X0.28200 Y-0.12500
X0.28200 Y-0.12300
X0.28300 Y-0.12300
X0.28300 Y-0.12100
X0.28400 Y-0.12100
X0.28400 Y-0.11900
X0.28500 Y-0.11900
X0.28500 Y-0.11800
X0.28600 Y-0.11800
X0.28600 Y-0.11700
X0.28700 Y-0.11700
X0.28700 Y-0.11500
X0.28800 Y-0.11500
X0.28800 Y-0.11400
X0.28900 Y-0.11400
X0.28900 Y-0.11300
X0.29000 Y-0.11300
X0.29000 Y-0.11200
X0.29200 Y-0.11200
X0.29200 Y-0.11100
X0.29400 Y-0.11100
X0.29400 Y-0.11000
X0.29500 Y-0.11000
X0.29500 Y-0.10900
X0.29700 Y-0.10900
X0.29700 Y-0.10800
X0.29900 Y-0.10800
X0.29900 Y-0.10700
X0.30100 Y-0.10700
X0.30100 Y-0.10600
X0.30500 Y-0.10600
X0.30500 Y-0.10500
X0.31100 Y-0.10500
X0.31100 Y-0.10400
X0.33800 Y-0.10400
X0.33800 Y-0.10500
X0.34400 Y-0.10500
X0.34400 Y-0.10600
X0.34800 Y-0.10600
X0.34800 Y-0.10700
X0.35000 Y-0.10700
X0.35000 Y-0.10800
X0.35200 Y-0.10800
X0.35200 Y-0.10900
X0.35400 Y-0.10900
X0.35400 Y-0.11000
X0.35500 Y-0.11000
X0.35500 Y-0.11100
X0.35700 Y-0.11100
X0.35700 Y-0.11200
X0.35900 Y-0.11200
X0.35900 Y-0.11300
X0.36000 Y-0.11300
X0.36000 Y-0.11400
X0.36100 Y-0.11400
X0.36100 Y-0.11500
G04 P0 ( dwell for no time -- G64 should not smooth over this point )
G00 Z0.08000 ( retract )

G00 X-0.12000 Y-0.20000 ( rapid move to begin. )
G01 Z-0.00800 F6.00000 ( plunge. )
G04 P0 ( dwell for no time -- G64 should not smooth over this point )
X-0.12000 Y-0.20000
X-0.11900 Y-0.20000
X-0.11900 Y-0.20100
X-0.11800 Y-0.20100
X-0.11800 Y-0.20300
X-0.11700 Y-0.20300
X-0.11700 Y-0.20600
X-0.11600 Y-0.20600
X-0.11600 Y-0.21100
X-0.11500 Y-0.21100
X-0.11500 Y-0.23800
X-0.11600 Y-0.23800
X-0.11600 Y-0.24300
X-0.11700 Y-0.24300
X-0.11700 Y-0.24600
X-0.11800 Y-0.24600
X-0.11800 Y-0.24800
X-0.11900 Y-0.24800
X-0.11900 Y-0.24900
X-0.12000 Y-0.24900
X-0.12000 Y-0.25100
X-0.12100 Y-0.25100
X-0.12100 Y-0.25200
X-0.12200 Y-0.25200
X-0.12200 Y-0.25300
X-0.12300 Y-0.25300
X-0.12300 Y-0.25400
X-0.12400 Y-0.25400
X-0.12400 Y-0.25500
X-0.12600 Y-0.25500
X-0.12600 Y-0.25600
X-0.12800 Y-0.25600
X-0.12800 Y-0.25700
X-0.12900 Y-0.25700
X-0.12900 Y-0.25800
X-0.13100 Y-0.25800
X-0.13100 Y-0.25900
X-0.13700 Y-0.25900
X-0.13700 Y-0.26000
X-0.16400 Y-0.26000
X-0.16400 Y-0.25900
X-0.17000 Y-0.25900
X-0.17000 Y-0.25800
X-0.17200 Y-0.25800
X-0.17200 Y-0.25700
X-0.17300 Y-0.25700
X-0.17300 Y-0.25600
X-0.17500 Y-0.25600
X-0.17500 Y-0.25500
X-0.17700 Y-0.25500
X-0.17700 Y-0.25400
X-0.17800 Y-0.25400
X-0.17800 Y-0.25300
X-0.17900 Y-0.25300
X-0.17900 Y-0.25200
X-0.18000 Y-0.25200
X-0.18000 Y-0.25100
X-0.18100 Y-0.25100
X-0.18100 Y-0.24900
X-0.18200 Y-0.24900
X-0.18200 Y-0.24800
X-0.18300 Y-0.24800
X-0.18300 Y-0.24600
X-0.18400 Y-0.24600
X-0.18400 Y-0.24300
X-0.18500 Y-0.24300
X-0.18500 Y-0.23800
X-0.18600 Y-0.23800
X-0.18600 Y-0.21100
X-0.18500 Y-0.21100
X-0.18500 Y-0.20600
X-0.18400 Y-0.20600
X-0.18400 Y-0.20300
X-0.18300 Y-0.20300
X-0.18300 Y-0.20100
X-0.18200 Y-0.20100
X-0.18200 Y-0.20000
X-0.18100 Y-0.20000
X-0.18100 Y-0.19800
X-0.18000 Y-0.19800
X-0.18000 Y-0.19700
X-0.17900 Y-0.19700
X-0.17900 Y-0.19600
X-0.17800 Y-0.19600
X-0.17800 Y-0.19500
X-0.17700 Y-0.19500
X-0.17700 Y-0.19400
X-0.17500 Y-0.19400
X-0.17500 Y-0.19300
X-0.17300 Y-0.19300
X-0.17300 Y-0.19200
X-0.17200 Y-0.19200
X-0.17200 Y-0.19100
X-0.17000 Y-0.19100
X-0.17000 Y-0.19000
X-0.16400 Y-0.19000
X-0.16400 Y-0.18900
X-0.13700 Y-0.18900
X-0.13700 Y-0.19000
X-0.13100 Y-0.19000
X-0.13100 Y-0.19100
X-0.12900 Y-0.19100
X-0.12900 Y-0.19200
X-0.12800 Y-0.19200
X-0.12800 Y-0.19300
X-0.12600 Y-0.19300
X-0.12600 Y-0.19400
X-0.12400 Y-0.19400
X-0.12400 Y-0.19500
X-0.12300 Y-0.19500
X-0.12300 Y-0.19600
X-0.12200 Y-0.19600
X-0.12200 Y-0.19700
X-0.12100 Y-0.19700
X-0.12100 Y-0.19800
X-0.12000 Y-0.19800
X-0.12000 Y-0.20000
G04 P0 ( dwell for no time -- G64 should not smooth over this point )
G00 Z0.08000 ( retract )

G00 X0.18000 Y-0.20000 ( rapid move to begin. )
G01 Z-0.00800 F6.00000 ( plunge. )
G04 P0 ( dwell for no time -- G64 should not smooth over this point )
X0.18000 Y-0.20000
X0.18100 Y-0.20000
X0.18100 Y-0.20100
X0.18200 Y-0.20100
X0.18200 Y-0.20300
X0.18300 Y-0.20300
X0.18300 Y-0.20600
X0.18400 Y-0.20600
X0.18400 Y-0.21100
X0.18500 Y-0.21100
X0.18500 Y-0.23800
X0.18400 Y-0.23800
X0.18400 Y-0.24300
X0.18300 Y-0.24300
X0.18300 Y-0.24600
X0.18200 Y-0.24600
X0.18200 Y-0.24800
X0.18100 Y-0.24800
X0.18100 Y-0.24900
X0.18000 Y-0.24900
X0.18000 Y-0.25100
X0.17900 Y-0.25100
X0.17900 Y-0.25200
X0.17800 Y-0.25200
X0.17800 Y-0.25300
X0.17700 Y-0.25300
X0.17700 Y-0.25400
X0.17600 Y-0.25400
X0.17600 Y-0.25500
X0.17400 Y-0.25500
X0.17400 Y-0.25600
X0.17200 Y-0.25600
X0.17200 Y-0.25700
X0.17100 Y-0.25700
X0.17100 Y-0.25800
X0.16900 Y-0.25800
X0.16900 Y-0.25900
X0.16300 Y-0.25900
X0.16300 Y-0.26000
X0.13600 Y-0.26000
X0.13600 Y-0.25900
X0.13000 Y-0.25900
X0.13000 Y-0.25800
X0.12800 Y-0.25800
X0.12800 Y-0.25700
X0.12700 Y-0.25700
X0.12700 Y-0.25600
X0.12500 Y-0.25600
X0.12500 Y-0.25500
X0.12300 Y-0.25500
X0.12300 Y-0.25400
X0.12200 Y-0.25400
X0.12200 Y-0.25300
X0.12100 Y-0.25300
X0.12100 Y-0.25200
X0.12000 Y-0.25200
X0.12000 Y-0.25100
X0.11900 Y-0.25100
X0.11900 Y-0.24900
X0.11800 Y-0.24900
X0.11800 Y-0.24800
X0.11700 Y-0.24800
X0.11700 Y-0.24600
X0.11600 Y-0.24600
X0.11600 Y-0.24300
X0.11500 Y-0.24300
X0.11500 Y-0.23800
X0.11400 Y-0.23800
X0.11400 Y-0.21100
X0.11500 Y-0.21100
X0.11500 Y-0.20600
X0.11600 Y-0.20600
X0.11600 Y-0.20300
X0.11700 Y-0.20300
X0.11700 Y-0.20100
X0.11800 Y-0.20100
X0.11800 Y-0.20000
X0.11900 Y-0.20000
X0.11900 Y-0.19800
X0.12000 Y-0.19800
X0.12000 Y-0.19700
X0.12100 Y-0.19700
X0.12100 Y-0.19600
X0.12200 Y-0.19600
X0.12200 Y-0.19500
X0.12300 Y-0.19500
X0.12300 Y-0.19400
X0.12500 Y-0.19400
X0.12500 Y-0.19300
X0.12700 Y-0.19300
X0.12700 Y-0.19200
X0.12800 Y-0.19200
X0.12800 Y-0.19100
X0.13000 Y-0.19100
X0.13000 Y-0.19000
X0.13600 Y-0.19000
X0.13600 Y-0.18900
X0.16300 Y-0.18900
X0.16300 Y-0.19000
X0.16900 Y-0.19000
X0.16900 Y-0.19100
X0.17100 Y-0.19100
X0.17100 Y-0.19200
X0.17200 Y-0.19200
X0.17200 Y-0.19300
X0.17400 Y-0.19300
X0.17400 Y-0.19400
X0.17600 Y-0.19400
X0.17600 Y-0.19500
X0.17700 Y-0.19500
X0.17700 Y-0.19600
X0.17800 Y-0.19600
X0.17800 Y-0.19700
X0.17900 Y-0.19700
X0.17900 Y-0.19800
X0.18000 Y-0.19800
X0.18000 Y-0.20000
G04 P0 ( dwell for no time -- G64 should not smooth over this point )
G00 Z0.08000 ( retract )

G00 X0.55000 Y-0.21000 ( rapid move to begin. )
G01 Z-0.00800 F6.00000 ( plunge. )
G04 P0 ( dwell for no time -- G64 should not smooth over this point )
X0.55000 Y-0.21000
X0.55000 Y-0.30000
X0.44900 Y-0.30000
X0.44900 Y-0.20000
X0.55000 Y-0.20000
X0.55000 Y-0.21000
G04 P0 ( dwell for no time -- G64 should not smooth over this point )
G00 Z0.08000 ( retract )

G00 X0.36100 Y-0.21500 ( rapid move to begin. )
G01 Z-0.00800 F6.00000 ( plunge. )
G04 P0 ( dwell for no time -- G64 should not smooth over this point )
X0.36100 Y-0.21500
X0.36200 Y-0.21500
X0.36200 Y-0.21700
X0.36300 Y-0.21700
X0.36300 Y-0.21800
X0.36400 Y-0.21800
X0.36400 Y-0.21900
X0.36500 Y-0.21900
X0.36500 Y-0.22100
X0.36600 Y-0.22100
X0.36600 Y-0.22300
X0.36700 Y-0.22300
X0.36700 Y-0.22500
X0.36800 Y-0.22500
X0.36800 Y-0.22900
X0.36900 Y-0.22900
X0.36900 Y-0.23400
X0.37000 Y-0.23400
X0.37000 Y-0.26500
X0.36900 Y-0.26500
X0.36900 Y-0.27000
X0.36800 Y-0.27000
X0.36800 Y-0.27400
X0.36700 Y-0.27400
X0.36700 Y-0.27600
X0.36600 Y-0.27600
X0.36600 Y-0.27800
X0.36500 Y-0.27800
X0.36500 Y-0.28000
X0.36400 Y-0.28000
X0.36400 Y-0.28100
X0.36300 Y-0.28100
X0.36300 Y-0.28200
X0.36200 Y-0.28200
X0.36200 Y-0.28400
X0.36100 Y-0.28400
X0.36100 Y-0.28500
X0.36000 Y-0.28500
X0.36000 Y-0.28600
X0.35900 Y-0.28600
X0.35900 Y-0.28700
X0.35700 Y-0.28700
X0.35700 Y-0.28800
X0.35500 Y-0.28800
X0.35500 Y-0.28900
X0.35400 Y-0.28900
X0.35400 Y-0.29000
X0.35200 Y-0.29000
X0.35200 Y-0.29100
X0.35000 Y-0.29100
X0.35000 Y-0.29200
X0.34800 Y-0.29200
X0.34800 Y-0.29300
X0.34400 Y-0.29300
X0.34400 Y-0.29400
X0.33800 Y-0.29400
X0.33800 Y-0.29500
X0.31100 Y-0.29500
X0.31100 Y-0.29400
X0.30500 Y-0.29400
X0.30500 Y-0.29300
X0.30100 Y-0.29300
X0.30100 Y-0.29200
X0.29900 Y-0.29200
X0.29900 Y-0.29100
X0.29700 Y-0.29100
X0.29700 Y-0.29000
X0.29500 Y-0.29000
X0.29500 Y-0.28900
X0.29400 Y-0.28900
X0.29400 Y-0.28800
X0.29200 Y-0.28800
X0.29200 Y-0.28700
X0.29000 Y-0.28700
X0.29000 Y-0.28600
X0.28900 Y-0.28600
X0.28900 Y-0.28500
X0.28800 Y-0.28500
X0.28800 Y-0.28400
X0.28700 Y-0.28400
X0.28700 Y-0.28200
X0.28600 Y-0.28200
X0.28600 Y-0.28100
X0.28500 Y-0.28100
X0.28500 Y-0.28000
X0.28400 Y-0.28000
X0.28400 Y-0.27800
X0.28300 Y-0.27800
X0.28300 Y-0.27600
X0.28200 Y-0.27600
X0.28200 Y-0.27400
X0.28100 Y-0.27400
X0.28100 Y-0.27100
X0.28000 Y-0.27100
X0.28000 Y-0.26500
X0.27900 Y-0.26500
X0.27900 Y-0.23400
X0.28000 Y-0.23400
X0.28000 Y-0.22800
X0.28100 Y-0.22800
X0.28100 Y-0.22500
X0.28200 Y-0.22500
X0.28200 Y-0.22300
X0.28300 Y-0.22300
X0.28300 Y-0.22100
X0.28400 Y-0.22100
X0.28400 Y-0.21900
X0.28500 Y-0.21900
X0.28500 Y-0.21800
X0.28600 Y-0.21800
X0.28600 Y-0.21700
X0.28700 Y-0.21700
X0.28700 Y-0.21500
X0.28800 Y-0.21500
X0.28800 Y-0.21400
X0.28900 Y-0.21400
X0.28900 Y-0.21300
X0.29000 Y-0.21300
X0.29000 Y-0.21200
X0.29200 Y-0.21200
X0.29200 Y-0.21100
X0.29400 Y-0.21100
X0.29400 Y-0.21000
X0.29500 Y-0.21000
X0.29500 Y-0.20900
X0.29700 Y-0.20900
X0.29700 Y-0.20800
X0.29900 Y-0.20800
X0.29900 Y-0.20700
X0.30100 Y-0.20700
X0.30100 Y-0.20600
X0.30500 Y-0.20600
X0.30500 Y-0.20500
X0.31100 Y-0.20500
X0.31100 Y-0.20400
X0.33800 Y-0.20400
X0.33800 Y-0.20500
X0.34400 Y-0.20500
X0.34400 Y-0.20600
X0.34800 Y-0.20600
X0.34800 Y-0.20700
X0.35000 Y-0.20700
X0.35000 Y-0.20800
X0.35200 Y-0.20800
X0.35200 Y-0.20900
X0.35400 Y-0.20900
X0.35400 Y-0.21000
X0.35500 Y-0.21000
X0.35500 Y-0.21100
X0.35700 Y-0.21100
X0.35700 Y-0.21200
X0.35900 Y-0.21200
X0.35900 Y-0.21300
X0.36000 Y-0.21300
X0.36000 Y-0.21400
X0.36100 Y-0.21400
X0.36100 Y-0.21500
G04 P0 ( dwell for no time -- G64 should not smooth over this point )
G00 Z0.08000 ( retract )

G00 X-0.17600 Y-0.31000 ( rapid move to begin. )
G01 Z-0.00800 F6.00000 ( plunge. )
G04 P0 ( dwell for no time -- G64 should not smooth over this point )
X-0.17600 Y-0.31000
X-0.17600 Y-0.31100
X-0.17500 Y-0.31100
X-0.17500 Y-0.33800
X-0.17600 Y-0.33800
X-0.17600 Y-0.34200
X-0.17700 Y-0.34200
X-0.17700 Y-0.69000
X-0.17800 Y-0.69000
X-0.17800 Y-0.69100
X-0.17900 Y-0.69100
X-0.17900 Y-0.69200
X-0.18000 Y-0.69200
X-0.18000 Y-0.69300
X-0.18100 Y-0.69300
X-0.18100 Y-0.75600
X-0.18000 Y-0.75600
X-0.18000 Y-0.75700
X-0.17900 Y-0.75700
X-0.17900 Y-0.75800
X-0.17800 Y-0.75800
X-0.17800 Y-0.75900
X-0.17700 Y-0.75900
X-0.17700 Y-0.79700
X-0.17800 Y-0.79700
X-0.17800 Y-0.80000
X-0.17900 Y-0.80000
X-0.17900 Y-0.80400
X-0.18000 Y-0.80400
X-0.18000 Y-0.81000
X-0.18100 Y-0.81000
X-0.18100 Y-0.83900
X-0.18000 Y-0.83900
X-0.18000 Y-0.84500
X-0.17900 Y-0.84500
X-0.17900 Y-0.84900
X-0.17800 Y-0.84900
X-0.17800 Y-0.85200
X-0.17700 Y-0.85200
X-0.17700 Y-0.89700
X-0.17800 Y-0.89700
X-0.17800 Y-0.90000
X-0.17900 Y-0.90000
X-0.17900 Y-0.90400
X-0.18000 Y-0.90400
X-0.18000 Y-0.91000
X-0.18100 Y-0.91000
X-0.18100 Y-0.93900
X-0.18000 Y-0.93900
X-0.18000 Y-0.94500
X-0.17900 Y-0.94500
X-0.17900 Y-0.94900
X-0.17800 Y-0.94900
X-0.17800 Y-0.95200
X-0.17700 Y-0.95200
X-0.17700 Y-0.99700
X-0.17800 Y-0.99700
X-0.17800 Y-1.00000
X-0.17900 Y-1.00000
X-0.17900 Y-1.00400
X-0.18000 Y-1.00400
X-0.18000 Y-1.01000
X-0.18100 Y-1.01000
X-0.18100 Y-1.03900
X-0.18000 Y-1.03900
X-0.18000 Y-1.04500
X-0.17900 Y-1.04500
X-0.17900 Y-1.04900
X-0.17800 Y-1.04900
X-0.17800 Y-1.05200
X-0.17700 Y-1.05200
X-0.17700 Y-1.10700
X-0.17600 Y-1.10700
X-0.17600 Y-1.11100
X-0.17500 Y-1.11100
X-0.17500 Y-1.13800
X-0.17600 Y-1.13800
X-0.17600 Y-1.14200
X-0.17700 Y-1.14200
X-0.17700 Y-1.14300
X-0.17800 Y-1.14300
X-0.17800 Y-1.14500
X-0.17900 Y-1.14500
X-0.17900 Y-1.14600
X-0.18000 Y-1.14600
X-0.18000 Y-1.14700
X-0.18200 Y-1.14700
X-0.18200 Y-1.14800
X-0.18400 Y-1.14800
X-0.18400 Y-1.14900
X-0.18700 Y-1.14900
X-0.18700 Y-1.15000
X-0.21400 Y-1.15000
X-0.21400 Y-1.14900
X-0.21700 Y-1.14900
X-0.21700 Y-1.14800
X-0.21900 Y-1.14800
X-0.21900 Y-1.14700
X-0.22100 Y-1.14700
X-0.22100 Y-1.14600
X-0.22200 Y-1.14600
X-0.22200 Y-1.14500
X-0.22300 Y-1.14500
X-0.22300 Y-1.14300
X-0.22400 Y-1.14300
X-0.22400 Y-1.14200
X-0.22500 Y-1.14200
X-0.22500 Y-1.13800
X-0.22600 Y-1.13800
X-0.22600 Y-1.11100
X-0.22500 Y-1.11100
X-0.22500 Y-1.10700
X-0.22400 Y-1.10700
X-0.22400 Y-1.10600
X-0.22300 Y-1.10600
X-0.22300 Y-0.34300
X-0.22400 Y-0.34300
X-0.22400 Y-0.34200
X-0.22500 Y-0.34200
X-0.22500 Y-0.33800
X-0.22600 Y-0.33800
X-0.22600 Y-0.31100
X-0.22500 Y-0.31100
X-0.22500 Y-0.30700
X-0.22400 Y-0.30700
X-0.22400 Y-0.30600
X-0.22300 Y-0.30600
X-0.22300 Y-0.30400
X-0.22200 Y-0.30400
X-0.22200 Y-0.30300
X-0.22100 Y-0.30300
X-0.22100 Y-0.30200
X-0.21900 Y-0.30200
X-0.21900 Y-0.30100
X-0.21700 Y-0.30100
X-0.21700 Y-0.30000
X-0.21400 Y-0.30000
X-0.21400 Y-0.29900
X-0.18700 Y-0.29900
X-0.18700 Y-0.30000
X-0.18400 Y-0.30000
X-0.18400 Y-0.30100
X-0.18200 Y-0.30100
X-0.18200 Y-0.30200
X-0.18000 Y-0.30200
X-0.18000 Y-0.30300
X-0.17900 Y-0.30300
X-0.17900 Y-0.30400
X-0.17800 Y-0.30400
X-0.17800 Y-0.30600
X-0.17700 Y-0.30600
X-0.17700 Y-0.30700
X-0.17600 Y-0.30700
X-0.17600 Y-0.31000
G04 P0 ( dwell for no time -- G64 should not smooth over this point )
G00 Z0.08000 ( retract )

G00 X0.55000 Y-0.31000 ( rapid move to begin. )
G01 Z-0.00800 F6.00000 ( plunge. )
G04 P0 ( dwell for no time -- G64 should not smooth over this point )
X0.55000 Y-0.31000
X0.55000 Y-0.40000
X0.44900 Y-0.40000
X0.44900 Y-0.30000
X0.55000 Y-0.30000
X0.55000 Y-0.31000
G04 P0 ( dwell for no time -- G64 should not smooth over this point )
G00 Z0.08000 ( retract )

G00 X-0.23900 Y-0.39000 ( rapid move to begin. )
G01 Z-0.00800 F6.00000 ( plunge. )
G04 P0 ( dwell for no time -- G64 should not smooth over this point )
X-0.23900 Y-0.39000
X-0.23800 Y-0.39000
X-0.23800 Y-0.39200
X-0.23700 Y-0.39200
X-0.23700 Y-0.39300
X-0.23600 Y-0.39300
X-0.23600 Y-0.39400
X-0.23500 Y-0.39400
X-0.23500 Y-0.39600
X-0.23400 Y-0.39600
X-0.23400 Y-0.39800
X-0.23300 Y-0.39800
X-0.23300 Y-0.40000
X-0.23200 Y-0.40000
X-0.23200 Y-0.40400
X-0.23100 Y-0.40400
X-0.23100 Y-0.40900
X-0.23000 Y-0.40900
X-0.23000 Y-0.44000
X-0.23100 Y-0.44000
X-0.23100 Y-0.44500
X-0.23200 Y-0.44500
X-0.23200 Y-0.44900
X-0.23300 Y-0.44900
X-0.23300 Y-0.45100
X-0.23400 Y-0.45100
X-0.23400 Y-0.45300
X-0.23500 Y-0.45300
X-0.23500 Y-0.45500
X-0.23600 Y-0.45500
X-0.23600 Y-0.45600
X-0.23700 Y-0.45600
X-0.23700 Y-0.45700
X-0.23800 Y-0.45700
X-0.23800 Y-0.45900
X-0.23900 Y-0.45900
X-0.23900 Y-0.46000
X-0.24000 Y-0.46000
X-0.24000 Y-0.46100
X-0.24100 Y-0.46100
X-0.24100 Y-0.46200
X-0.24300 Y-0.46200
X-0.24300 Y-0.46300
X-0.24500 Y-0.46300
X-0.24500 Y-0.46400
X-0.24600 Y-0.46400
X-0.24600 Y-0.46500
X-0.24800 Y-0.46500
X-0.24800 Y-0.46600
X-0.25000 Y-0.46600
X-0.25000 Y-0.46700
X-0.25200 Y-0.46700
X-0.25200 Y-0.46800
X-0.25600 Y-0.46800
X-0.25600 Y-0.46900
X-0.26200 Y-0.46900
X-0.26200 Y-0.47000
X-0.28900 Y-0.47000
X-0.28900 Y-0.46900
X-0.29500 Y-0.46900
X-0.29500 Y-0.46800
X-0.29900 Y-0.46800
X-0.29900 Y-0.46700
X-0.30100 Y-0.46700
X-0.30100 Y-0.46600
X-0.30300 Y-0.46600
X-0.30300 Y-0.46500
X-0.30500 Y-0.46500
X-0.30500 Y-0.46400
X-0.30600 Y-0.46400
X-0.30600 Y-0.46300
X-0.30800 Y-0.46300
X-0.30800 Y-0.46200
X-0.31000 Y-0.46200
X-0.31000 Y-0.46100
X-0.31100 Y-0.46100
X-0.31100 Y-0.46000
X-0.31200 Y-0.46000
X-0.31200 Y-0.45900
X-0.31300 Y-0.45900
X-0.31300 Y-0.45700
X-0.31400 Y-0.45700
X-0.31400 Y-0.45600
X-0.31500 Y-0.45600
X-0.31500 Y-0.45500
X-0.31600 Y-0.45500
X-0.31600 Y-0.45300
X-0.31700 Y-0.45300
X-0.31700 Y-0.45100
X-0.31800 Y-0.45100
X-0.31800 Y-0.44900
X-0.31900 Y-0.44900
X-0.31900 Y-0.44600
X-0.32000 Y-0.44600
X-0.32000 Y-0.44000
X-0.32100 Y-0.44000
X-0.32100 Y-0.40900
X-0.32000 Y-0.40900
X-0.32000 Y-0.40300
X-0.31900 Y-0.40300
X-0.31900 Y-0.40000
X-0.31800 Y-0.40000
X-0.31800 Y-0.39800
X-0.31700 Y-0.39800
X-0.31700 Y-0.39600
X-0.31600 Y-0.39600
X-0.31600 Y-0.39400
X-0.31500 Y-0.39400
X-0.31500 Y-0.39300
X-0.31400 Y-0.39300
X-0.31400 Y-0.39200
X-0.31300 Y-0.39200
X-0.31300 Y-0.39000
X-0.31200 Y-0.39000
X-0.31200 Y-0.38900
X-0.31100 Y-0.38900
X-0.31100 Y-0.38800
X-0.31000 Y-0.38800
X-0.31000 Y-0.38700
X-0.30800 Y-0.38700
X-0.30800 Y-0.38600
X-0.30600 Y-0.38600
X-0.30600 Y-0.38500
X-0.30500 Y-0.38500
X-0.30500 Y-0.38400
X-0.30300 Y-0.38400
X-0.30300 Y-0.38300
X-0.30100 Y-0.38300
X-0.30100 Y-0.38200
X-0.29900 Y-0.38200
X-0.29900 Y-0.38100
X-0.29500 Y-0.38100
X-0.29500 Y-0.38000
X-0.28900 Y-0.38000
X-0.28900 Y-0.37900
X-0.26200 Y-0.37900
X-0.26200 Y-0.38000
X-0.25600 Y-0.38000
X-0.25600 Y-0.38100
X-0.25200 Y-0.38100
X-0.25200 Y-0.38200
X-0.25000 Y-0.38200
X-0.25000 Y-0.38300
X-0.24800 Y-0.38300
X-0.24800 Y-0.38400
X-0.24600 Y-0.38400
X-0.24600 Y-0.38500
X-0.24500 Y-0.38500
X-0.24500 Y-0.38600
X-0.24300 Y-0.38600
X-0.24300 Y-0.38700
X-0.24100 Y-0.38700
X-0.24100 Y-0.38800
X-0.24000 Y-0.38800
X-0.24000 Y-0.38900
X-0.23900 Y-0.38900
X-0.23900 Y-0.39000
G04 P0 ( dwell for no time -- G64 should not smooth over this point )
G00 Z0.08000 ( retract )

G00 X0.55000 Y-0.41000 ( rapid move to begin. )
G01 Z-0.00800 F6.00000 ( plunge. )
G04 P0 ( dwell for no time -- G64 should not smooth over this point )
X0.55000 Y-0.41000
X0.55000 Y-0.50000
X0.44900 Y-0.50000
X0.44900 Y-0.40000
X0.55000 Y-0.40000
X0.55000 Y-0.41000
G04 P0 ( dwell for no time -- G64 should not smooth over this point )
G00 Z0.08000 ( retract )

G00 X-0.36400 Y-0.49000 ( rapid move to begin. )
G01 Z-0.00800 F6.00000 ( plunge. )
G04 P0 ( dwell for no time -- G64 should not smooth over this point )
X-0.36400 Y-0.49000
X-0.36300 Y-0.49000
X-0.36300 Y-0.49200
X-0.36200 Y-0.49200
X-0.36200 Y-0.49300
X-0.36100 Y-0.49300
X-0.36100 Y-0.49400
X-0.36000 Y-0.49400
X-0.36000 Y-0.49600
X-0.35900 Y-0.49600
X-0.35900 Y-0.49800
X-0.35800 Y-0.49800
X-0.35800 Y-0.50000
X-0.35700 Y-0.50000
X-0.35700 Y-0.50400
X-0.35600 Y-0.50400
X-0.35600 Y-0.50900
X-0.35500 Y-0.50900
X-0.35500 Y-0.54000
X-0.35600 Y-0.54000
X-0.35600 Y-0.54500
X-0.35700 Y-0.54500
X-0.35700 Y-0.54900
X-0.35800 Y-0.54900
X-0.35800 Y-0.55100
X-0.35900 Y-0.55100
X-0.35900 Y-0.55300
X-0.36000 Y-0.55300
X-0.36000 Y-0.55500
X-0.36100 Y-0.55500
X-0.36100 Y-0.55600
X-0.36200 Y-0.55600
X-0.36200 Y-0.55700
X-0.36300 Y-0.55700
X-0.36300 Y-0.55900
X-0.36400 Y-0.55900
X-0.36400 Y-0.56000
X-0.36500 Y-0.56000
X-0.36500 Y-0.56100
X-0.36600 Y-0.56100
X-0.36600 Y-0.56200
X-0.36800 Y-0.56200
X-0.36800 Y-0.56300
X-0.37000 Y-0.56300
X-0.37000 Y-0.56400
X-0.37100 Y-0.56400
X-0.37100 Y-0.56500
X-0.37300 Y-0.56500
X-0.37300 Y-0.56600
X-0.37500 Y-0.56600
X-0.37500 Y-0.56700
X-0.37700 Y-0.56700
X-0.37700 Y-0.56800
X-0.38100 Y-0.56800
X-0.38100 Y-0.56900
X-0.38700 Y-0.56900
X-0.38700 Y-0.57000
X-0.41400 Y-0.57000
X-0.41400 Y-0.56900
X-0.42000 Y-0.56900
X-0.42000 Y-0.56800
X-0.42400 Y-0.56800
X-0.42400 Y-0.56700
X-0.42600 Y-0.56700
X-0.42600 Y-0.56600
X-0.42800 Y-0.56600
X-0.42800 Y-0.56500
X-0.43000 Y-0.56500
X-0.43000 Y-0.56400
X-0.43100 Y-0.56400
X-0.43100 Y-0.56300
X-0.43300 Y-0.56300
X-0.43300 Y-0.56200
X-0.43500 Y-0.56200
X-0.43500 Y-0.56100
X-0.43600 Y-0.56100
X-0.43600 Y-0.56000
X-0.43700 Y-0.56000
X-0.43700 Y-0.55900
X-0.43800 Y-0.55900
X-0.43800 Y-0.55700
X-0.43900 Y-0.55700
X-0.43900 Y-0.55600
X-0.44000 Y-0.55600
X-0.44000 Y-0.55500
X-0.44100 Y-0.55500
X-0.44100 Y-0.55300
X-0.44200 Y-0.55300
X-0.44200 Y-0.55100
X-0.44300 Y-0.55100
X-0.44300 Y-0.54900
X-0.44400 Y-0.54900
X-0.44400 Y-0.54600
X-0.44500 Y-0.54600
X-0.44500 Y-0.54000
X-0.44600 Y-0.54000
X-0.44600 Y-0.50900
X-0.44500 Y-0.50900
X-0.44500 Y-0.50300
X-0.44400 Y-0.50300
X-0.44400 Y-0.50000
X-0.44300 Y-0.50000
X-0.44300 Y-0.49800
X-0.44200 Y-0.49800
X-0.44200 Y-0.49600
X-0.44100 Y-0.49600
X-0.44100 Y-0.49400
X-0.44000 Y-0.49400
X-0.44000 Y-0.49300
X-0.43900 Y-0.49300
X-0.43900 Y-0.49200
X-0.43800 Y-0.49200
X-0.43800 Y-0.49000
X-0.43700 Y-0.49000
X-0.43700 Y-0.48900
X-0.43600 Y-0.48900
X-0.43600 Y-0.48800
X-0.43500 Y-0.48800
X-0.43500 Y-0.48700
X-0.43300 Y-0.48700
X-0.43300 Y-0.48600
X-0.43100 Y-0.48600
X-0.43100 Y-0.48500
X-0.43000 Y-0.48500
X-0.43000 Y-0.48400
X-0.42800 Y-0.48400
X-0.42800 Y-0.48300
X-0.42600 Y-0.48300
X-0.42600 Y-0.48200
X-0.42400 Y-0.48200
X-0.42400 Y-0.48100
X-0.42000 Y-0.48100
X-0.42000 Y-0.48000
X-0.41400 Y-0.48000
X-0.41400 Y-0.47900
X-0.38700 Y-0.47900
X-0.38700 Y-0.48000
X-0.38100 Y-0.48000
X-0.38100 Y-0.48100
X-0.37700 Y-0.48100
X-0.37700 Y-0.48200
X-0.37500 Y-0.48200
X-0.37500 Y-0.48300
X-0.37300 Y-0.48300
X-0.37300 Y-0.48400
X-0.37100 Y-0.48400
X-0.37100 Y-0.48500
X-0.37000 Y-0.48500
X-0.37000 Y-0.48600
X-0.36800 Y-0.48600
X-0.36800 Y-0.48700
X-0.36600 Y-0.48700
X-0.36600 Y-0.48800
X-0.36500 Y-0.48800
X-0.36500 Y-0.48900
X-0.36400 Y-0.48900
X-0.36400 Y-0.49000
G04 P0 ( dwell for no time -- G64 should not smooth over this point )
G00 Z0.08000 ( retract )

G00 X0.31100 Y-0.49000 ( rapid move to begin. )
G01 Z-0.00800 F6.00000 ( plunge. )
G04 P0 ( dwell for no time -- G64 should not smooth over this point )
X0.31100 Y-0.49000
X0.31200 Y-0.49000
X0.31200 Y-0.49200
X0.31300 Y-0.49200
X0.31300 Y-0.49300
X0.31400 Y-0.49300
X0.31400 Y-0.49400
X0.31500 Y-0.49400
X0.31500 Y-0.49600
X0.31600 Y-0.49600
X0.31600 Y-0.49800
X0.31700 Y-0.49800
X0.31700 Y-0.50000
X0.31800 Y-0.50000
X0.31800 Y-0.50400
X0.31900 Y-0.50400
X0.31900 Y-0.50900
X0.32000 Y-0.50900
X0.32000 Y-0.54000
X0.31900 Y-0.54000
X0.31900 Y-0.54500
X0.31800 Y-0.54500
X0.31800 Y-0.54900
X0.31700 Y-0.54900
X0.31700 Y-0.55100
X0.31600 Y-0.55100
X0.31600 Y-0.55300
X0.31500 Y-0.55300
X0.31500 Y-0.55500
X0.31400 Y-0.55500
X0.31400 Y-0.55600
X0.31300 Y-0.55600
X0.31300 Y-0.55700
X0.31200 Y-0.55700
X0.31200 Y-0.55900
X0.31100 Y-0.55900
X0.31100 Y-0.56000
X0.31000 Y-0.56000
X0.31000 Y-0.56100
X0.30900 Y-0.56100
X0.30900 Y-0.56200
X0.30700 Y-0.56200
X0.30700 Y-0.56300
X0.30500 Y-0.56300
X0.30500 Y-0.56400
X0.30400 Y-0.56400
X0.30400 Y-0.56500
X0.30200 Y-0.56500
X0.30200 Y-0.56600
X0.30000 Y-0.56600
X0.30000 Y-0.56700
X0.29800 Y-0.56700
X0.29800 Y-0.56800
X0.29400 Y-0.56800
X0.29400 Y-0.56900
X0.28800 Y-0.56900
X0.28800 Y-0.57000
X0.26100 Y-0.57000
X0.26100 Y-0.56900
X0.25500 Y-0.56900
X0.25500 Y-0.56800
X0.25100 Y-0.56800
X0.25100 Y-0.56700
X0.24900 Y-0.56700
X0.24900 Y-0.56600
X0.24700 Y-0.56600
X0.24700 Y-0.56500
X0.24500 Y-0.56500
X0.24500 Y-0.56400
X0.24400 Y-0.56400
X0.24400 Y-0.56300
X0.24200 Y-0.56300
X0.24200 Y-0.56200
X0.24000 Y-0.56200
X0.24000 Y-0.56100
X0.23900 Y-0.56100
X0.23900 Y-0.56000
X0.23800 Y-0.56000
X0.23800 Y-0.55900
X0.23700 Y-0.55900
X0.23700 Y-0.55700
X0.23600 Y-0.55700
X0.23600 Y-0.55600
X0.23500 Y-0.55600
X0.23500 Y-0.55500
X0.23400 Y-0.55500
X0.23400 Y-0.55300
X0.23300 Y-0.55300
X0.23300 Y-0.55100
X0.23200 Y-0.55100
X0.23200 Y-0.54900
X0.23100 Y-0.54900
X0.23100 Y-0.54600
X0.23000 Y-0.54600
X0.23000 Y-0.54000
X0.22900 Y-0.54000
X0.22900 Y-0.50900
X0.23000 Y-0.50900
X0.23000 Y-0.50300
X0.23100 Y-0.50300
X0.23100 Y-0.50000
X0.23200 Y-0.50000
X0.23200 Y-0.49800
X0.23300 Y-0.49800
X0.23300 Y-0.49600
X0.23400 Y-0.49600
X0.23400 Y-0.49400
X0.23500 Y-0.49400
X0.23500 Y-0.49300
X0.23600 Y-0.49300
X0.23600 Y-0.49200
X0.23700 Y-0.49200
X0.23700 Y-0.49000
X0.23800 Y-0.49000
X0.23800 Y-0.48900
X0.23900 Y-0.48900
X0.23900 Y-0.48800
X0.24000 Y-0.48800
X0.24000 Y-0.48700
X0.24200 Y-0.48700
X0.24200 Y-0.48600
X0.24400 Y-0.48600
X0.24400 Y-0.48500
X0.24500 Y-0.48500
X0.24500 Y-0.48400
X0.24700 Y-0.48400
X0.24700 Y-0.48300
X0.24900 Y-0.48300
X0.24900 Y-0.48200
X0.25100 Y-0.48200
X0.25100 Y-0.48100
X0.25500 Y-0.48100
X0.25500 Y-0.48000
X0.26100 Y-0.48000
X0.26100 Y-0.47900
X0.28800 Y-0.47900
X0.28800 Y-0.48000
X0.29400 Y-0.48000
X0.29400 Y-0.48100
X0.29800 Y-0.48100
X0.29800 Y-0.48200
X0.30000 Y-0.48200
X0.30000 Y-0.48300
X0.30200 Y-0.48300
X0.30200 Y-0.48400
X0.30400 Y-0.48400
X0.30400 Y-0.48500
X0.30500 Y-0.48500
X0.30500 Y-0.48600
X0.30700 Y-0.48600
X0.30700 Y-0.48700
X0.30900 Y-0.48700
X0.30900 Y-0.48800
X0.31000 Y-0.48800
X0.31000 Y-0.48900
X0.31100 Y-0.48900
X0.31100 Y-0.49000
G04 P0 ( dwell for no time -- G64 should not smooth over this point )
G00 Z0.08000 ( retract )

G00 X-0.01400 Y-0.54000 ( rapid move to begin. )
G01 Z-0.00800 F6.00000 ( plunge. )
G04 P0 ( dwell for no time -- G64 should not smooth over this point )
X-0.01400 Y-0.54000
X-0.01300 Y-0.54000
X-0.01300 Y-0.54200
X-0.01200 Y-0.54200
X-0.01200 Y-0.54300
X-0.01100 Y-0.54300
X-0.01100 Y-0.54400
X-0.01000 Y-0.54400
X-0.01000 Y-0.54600
X-0.00900 Y-0.54600
X-0.00900 Y-0.54800
X-0.00800 Y-0.54800
X-0.00800 Y-0.55000
X-0.00700 Y-0.55000
X-0.00700 Y-0.55400
X-0.00600 Y-0.55400
X-0.00600 Y-0.55900
X-0.00500 Y-0.55900
X-0.00500 Y-0.59000
X-0.00600 Y-0.59000
X-0.00600 Y-0.59500
X-0.00700 Y-0.59500
X-0.00700 Y-0.59900
X-0.00800 Y-0.59900
X-0.00800 Y-0.60100
X-0.00900 Y-0.60100
X-0.00900 Y-0.60300
X-0.01000 Y-0.60300
X-0.01000 Y-0.60500
X-0.01100 Y-0.60500
X-0.01100 Y-0.60600
X-0.01200 Y-0.60600
X-0.01200 Y-0.60700
X-0.01300 Y-0.60700
X-0.01300 Y-0.60900
X-0.01400 Y-0.60900
X-0.01400 Y-0.61000
X-0.01500 Y-0.61000
X-0.01500 Y-0.61100
X-0.01600 Y-0.61100
X-0.01600 Y-0.61200
X-0.01800 Y-0.61200
X-0.01800 Y-0.61300
X-0.02000 Y-0.61300
X-0.02000 Y-0.61400
X-0.02100 Y-0.61400
X-0.02100 Y-0.61500
X-0.02300 Y-0.61500
X-0.02300 Y-0.61600
X-0.02500 Y-0.61600
X-0.02500 Y-0.61700
X-0.02700 Y-0.61700
X-0.02700 Y-0.61800
X-0.03100 Y-0.61800
X-0.03100 Y-0.61900
X-0.03700 Y-0.61900
X-0.03700 Y-0.62000
X-0.06400 Y-0.62000
X-0.06400 Y-0.61900
X-0.07000 Y-0.61900
X-0.07000 Y-0.61800
X-0.07400 Y-0.61800
X-0.07400 Y-0.61700
X-0.07600 Y-0.61700
X-0.07600 Y-0.61600
X-0.07800 Y-0.61600
X-0.07800 Y-0.61500
X-0.08000 Y-0.61500
X-0.08000 Y-0.61400
X-0.08100 Y-0.61400
X-0.08100 Y-0.61300
X-0.08300 Y-0.61300
X-0.08300 Y-0.61200
X-0.08500 Y-0.61200
X-0.08500 Y-0.61100
X-0.08600 Y-0.61100
X-0.08600 Y-0.61000
X-0.08700 Y-0.61000
X-0.08700 Y-0.60900
X-0.08800 Y-0.60900
X-0.08800 Y-0.60700
X-0.08900 Y-0.60700
X-0.08900 Y-0.60600
X-0.09000 Y-0.60600
X-0.09000 Y-0.60500
X-0.09100 Y-0.60500
X-0.09100 Y-0.60300
X-0.09200 Y-0.60300
X-0.09200 Y-0.60100
X-0.09300 Y-0.60100
X-0.09300 Y-0.59900
X-0.09400 Y-0.59900
X-0.09400 Y-0.59600
X-0.09500 Y-0.59600
X-0.09500 Y-0.59000
X-0.09600 Y-0.59000
X-0.09600 Y-0.55900
X-0.09500 Y-0.55900
X-0.09500 Y-0.55300
X-0.09400 Y-0.55300
X-0.09400 Y-0.55000
X-0.09300 Y-0.55000
X-0.09300 Y-0.54800
X-0.09200 Y-0.54800
X-0.09200 Y-0.54600
X-0.09100 Y-0.54600
X-0.09100 Y-0.54400
X-0.09000 Y-0.54400
X-0.09000 Y-0.54300
X-0.08900 Y-0.54300
X-0.08900 Y-0.54200
X-0.08800 Y-0.54200
X-0.08800 Y-0.54000
X-0.08700 Y-0.54000
X-0.08700 Y-0.53900
X-0.08600 Y-0.53900
X-0.08600 Y-0.53800
X-0.08500 Y-0.53800
X-0.08500 Y-0.53700
X-0.08300 Y-0.53700
X-0.08300 Y-0.53600
X-0.08100 Y-0.53600
X-0.08100 Y-0.53500
X-0.08000 Y-0.53500
X-0.08000 Y-0.53400
X-0.07800 Y-0.53400
X-0.07800 Y-0.53300
X-0.07600 Y-0.53300
X-0.07600 Y-0.53200
X-0.07400 Y-0.53200
X-0.07400 Y-0.53100
X-0.07000 Y-0.53100
X-0.07000 Y-0.53000
