( pcb2gcode 1.1.4 )

G94     ( Inches per minute feed rate. )
G20     ( Units == INCHES.             )
G90     ( Absolute coordinates.        )
S20000  ( RPM spindle speed.           )
M3      ( Spindle on clockwise.        )

G64 P0.00500 ( set maximum deviation from commanded toolpath )

G04 P0 ( dwell for no time -- G64 should not smooth over this point )
G00 Z0.08000 ( retract )

G00 X1.11100 Y0.70600 ( rapid move to begin. )
G01 Z-0.08000 F3.00000 ( plunge. )
G04 P0 ( dwell for no time -- G64 should not smooth over this point )
X1.11100 Y0.70600
X1.11100 Y-0.01500
X1.11000 Y-0.01500
X1.11000 Y-0.01700
X1.10900 Y-0.01700
X1.10900 Y-0.01800
X1.10800 Y-0.01800
X1.10800 Y-0.01900
X-0.01600 Y-0.01900
X-0.01600 Y-0.01800
X-0.01700 Y-0.01800
X-0.01700 Y-0.01700
X-0.01800 Y-0.01700
X-0.01800 Y-0.01500
X-0.01900 Y-0.01500
X-0.01900 Y0.72200
X-0.01800 Y0.72200
X-0.01800 Y0.72400
X-0.01700 Y0.72400
X-0.01700 Y0.72500
X-0.01600 Y0.72500
X-0.01600 Y0.72600
X1.10800 Y0.72600
X1.10800 Y0.72500
X1.10900 Y0.72500
X1.10900 Y0.72400
X1.11000 Y0.72400
X1.11000 Y0.72200
X1.11100 Y0.72200
X1.11100 Y0.70600

G04 P0 ( dwell for no time -- G64 should not smooth over this point )
G00 Z0.80000 ( retract )

M9 ( Coolant off. )
M2 ( Program end. )

