( pcb2gcode 1.1.4 )

G94     ( Inches per minute feed rate. )
G20     ( Units == INCHES.             )
G90     ( Absolute coordinates.        )
S20000  ( RPM spindle speed.           )
M3      ( Spindle on clockwise.        )

G64 P0.00500 ( set maximum deviation from commanded toolpath )

G04 P0 ( dwell for no time -- G64 should not smooth over this point )
G00 Z0.08000 ( retract )

G00 X1.08100 Y2.19900 ( rapid move to begin. )
G01 Z-0.08000 F3.00000 ( plunge. )
G04 P0 ( dwell for no time -- G64 should not smooth over this point )
X1.08100 Y2.19900
X1.08100 Y1.76900
X-0.01700 Y1.76900
X-0.01700 Y1.76800
X-0.01800 Y1.76800
X-0.01800 Y1.76600
X-0.01900 Y1.76600
X-0.01900 Y0.43500
X-0.01800 Y0.43500
X-0.01800 Y0.43300
X-0.01700 Y0.43300
X-0.01700 Y0.43200
X1.08100 Y0.43200
X1.08100 Y-0.01500
X1.08200 Y-0.01500
X1.08200 Y-0.01700
X1.08300 Y-0.01700
X1.08300 Y-0.01800
X2.68900 Y-0.01800
X2.68900 Y-0.01400
X2.69300 Y-0.01400
X2.69300 Y2.21500
X2.68900 Y2.21500
X2.68900 Y2.21900
X1.08300 Y2.21900
X1.08300 Y2.21800
X1.08200 Y2.21800
X1.08200 Y2.21600
X1.08100 Y2.21600
X1.08100 Y2.19900

G04 P0 ( dwell for no time -- G64 should not smooth over this point )
G00 Z0.80000 ( retract )

M9 ( Coolant off. )
M2 ( Program end. )

