( pcb2gcode 1.1.4 )

G94     ( Inches per minute feed rate. )
G20     ( Units == INCHES.             )
G90     ( Absolute coordinates.        )
S20000  ( RPM spindle speed.           )
M3      ( Spindle on clockwise.        )

G64 P0.00500 ( set maximum deviation from commanded toolpath )

G04 P0 ( dwell for no time -- G64 should not smooth over this point )
G00 Z0.08000 ( retract )

G00 X0.66800 Y1.36800 ( rapid move to begin. )
G01 Z-0.08000 F3.00000 ( plunge. )
G04 P0 ( dwell for no time -- G64 should not smooth over this point )
X0.66800 Y1.36800
X0.66800 Y-1.28300
X0.66700 Y-1.28300
X0.66700 Y-1.28500
X0.66600 Y-1.28500
X0.66600 Y-1.28600
X-0.73900 Y-1.28600
X-0.73900 Y-1.28200
X-0.74300 Y-1.28200
X-0.74300 Y1.38400
X-0.73900 Y1.38400
X-0.73900 Y1.38800
X0.66600 Y1.38800
X0.66600 Y1.38700
X0.66700 Y1.38700
X0.66700 Y1.38500
X0.66800 Y1.38500
X0.66800 Y1.36800

G04 P0 ( dwell for no time -- G64 should not smooth over this point )
G00 Z0.80000 ( retract )

M9 ( Coolant off. )
M2 ( Program end. )

